; generated by Slic3r 1.2.9 on 2016-01-28 at 23:11:12

; external perimeters extrusion width = 0.50mm
; perimeters extrusion width = 0.50mm
; infill extrusion width = 0.50mm
; solid infill extrusion width = 0.50mm
; top infill extrusion width = 0.50mm

M107
M190 S70 ; set bed temperature
M104 S220 ; set temperature
G28 ; home all axes
M109 S220 ; wait for temperature to be reached
G21 ; set units to millimeters
G90 ; use absolute coordinates
M82 ; use absolute distances for extrusion
G92 E0
G1 Z0.350 F7800.000
G1 E-2.00000 F1920.00000
G92 E0
G1 X51.026 Y35.550 F7800.000
G1 E2.00000 F1920.00000
M204 S3000
G1 X53.280 Y32.316 E2.05394 F1800.000
G1 X53.989 Y31.378 E2.07002
G1 X54.973 Y30.381 E2.08920
G1 X55.756 Y29.776 E2.10273
G1 X56.931 Y29.092 E2.12135
G1 X57.843 Y28.709 E2.13488
G1 X59.156 Y28.351 E2.15350
G1 X60.135 Y28.217 E2.16702
G1 X60.845 Y28.168 E2.17676
G1 X102.089 Y28.168 E2.74115
G1 X102.740 Y28.209 E2.75007
G1 X103.721 Y28.332 E2.76360 F1800.000
G1 X105.038 Y28.675 E2.78222
G1 X105.953 Y29.047 E2.79575
G1 X107.137 Y29.719 E2.81437
G1 X107.926 Y30.314 E2.82789
G1 X108.443 Y30.759 E2.83722
G1 X114.985 Y37.190 E2.96276
G1 X115.306 Y37.536 E2.96921
G1 X116.006 Y38.360 E2.98401
G1 X116.309 Y38.755 E2.99082
G1 X136.932 Y68.355 E3.48448
G1 X137.170 Y68.731 E3.49058
G1 X137.711 Y69.667 E3.50537
G1 X138.106 Y70.523 E3.51827
G1 X138.470 Y71.541 E3.53306
G1 X138.748 Y72.764 E3.55023
G1 X138.787 Y73.403 E3.55899
G1 X138.787 Y76.197 E3.59722
G1 X138.748 Y76.836 E3.60598
G1 X138.470 Y78.059 E3.62314
G1 X138.106 Y79.077 E3.63794
G1 X137.711 Y79.933 E3.65084
G1 X137.170 Y80.869 E3.66563
G1 X136.628 Y81.640 E3.67853
G1 X135.928 Y82.464 E3.69333
G1 X135.607 Y82.810 E3.69978
G1 X129.065 Y89.241 E3.82532
G1 X128.548 Y89.686 E3.83465
G1 X127.759 Y90.281 E3.84817
G1 X126.576 Y90.953 E3.86679
G1 X125.660 Y91.325 E3.88032
G1 X124.343 Y91.668 E3.89894
G1 X123.362 Y91.791 E3.91247
G1 X122.712 Y91.832 E3.92139
G1 X40.223 Y91.832 E5.05017
G1 X39.513 Y91.783 E5.05991
G1 X38.533 Y91.649 E5.07343
G1 X37.221 Y91.291 E5.09205
G1 X36.309 Y90.908 E5.10558
G1 X35.133 Y90.224 E5.12420
G1 X34.351 Y89.619 E5.13773
G1 X33.392 Y88.654 E5.15635
G1 X32.792 Y87.869 E5.16987
G1 X32.114 Y86.689 E5.18849
G1 X31.737 Y85.775 E5.20202
G1 X31.386 Y84.460 E5.22064
G1 X31.257 Y83.480 E5.23417
G1 X31.213 Y82.800 E5.24350
G1 X31.213 Y66.800 E5.46244
G1 X31.257 Y66.120 E5.47177
G1 X31.386 Y65.140 E5.48530
G1 X31.737 Y63.825 E5.50392
G1 X32.114 Y62.911 E5.51744
G1 X32.657 Y61.916 E5.53297
G1 X50.983 Y35.611 E5.97166
G1 X51.393 Y35.805 F7800.000
G4 P29
G1 X53.769 Y32.402 E6.02845 F1800.000
G1 X54.369 Y31.617 E6.04198
G1 X55.246 Y30.734 E6.05901
G1 X56.029 Y30.130 E6.07254
G1 X57.104 Y29.503 E6.08957
G1 X58.016 Y29.121 E6.10309
G1 X59.216 Y28.793 E6.12012
G1 X60.196 Y28.659 E6.13365
G1 X60.845 Y28.615 E6.14256
G1 X102.089 Y28.615 E6.70695
G1 X102.685 Y28.652 E6.71511
G1 X103.665 Y28.775 E6.72863 F1800.000
G1 X104.870 Y29.089 E6.74567
G1 X105.786 Y29.461 E6.75919
G1 X106.868 Y30.075 E6.77623
G1 X107.657 Y30.670 E6.78975
G1 X108.130 Y31.077 E6.79829
G1 X114.672 Y37.509 E6.92382
G1 X114.966 Y37.825 E6.92973
G1 X115.665 Y38.649 E6.94452
G1 X115.943 Y39.010 E6.95076
G1 X136.565 Y68.610 E7.44441
G1 X136.784 Y68.954 E7.44999
G1 X137.324 Y69.890 E7.46478
G1 X137.686 Y70.673 E7.47658
G1 X138.050 Y71.691 E7.49137
G1 X138.305 Y72.819 E7.50720
G1 X138.341 Y73.403 E7.51521
G1 X138.341 Y76.197 E7.55344
G1 X138.305 Y76.781 E7.56145
G1 X138.050 Y77.909 E7.57727
G1 X137.686 Y78.927 E7.59207
G1 X137.324 Y79.710 E7.60386
G1 X136.784 Y80.646 E7.61866
G1 X136.287 Y81.351 E7.63046
G1 X135.588 Y82.175 E7.64525
G1 X135.294 Y82.491 E7.65116
G1 X128.752 Y88.923 E7.77669
G1 X128.279 Y89.330 E7.78523
G1 X127.490 Y89.925 E7.79875
G1 X126.408 Y90.539 E7.81579
G1 X125.492 Y90.911 E7.82931
G1 X124.288 Y91.225 E7.84634
G1 X123.307 Y91.348 E7.85987
G1 X122.712 Y91.385 E7.86803
G1 X40.223 Y91.385 E8.99681
G1 X39.573 Y91.341 E9.00572
G1 X38.594 Y91.207 E9.01924
G1 X37.393 Y90.879 E9.03627
G1 X36.482 Y90.497 E9.04980
G1 X35.406 Y89.870 E9.06683
G1 X34.624 Y89.266 E9.08036
G1 X33.746 Y88.383 E9.09739
G1 X33.147 Y87.598 E9.11092
G1 X32.526 Y86.519 E9.12795
G1 X32.149 Y85.605 E9.14148
G1 X31.828 Y84.402 E9.15851
G1 X31.700 Y83.422 E9.17204
G1 X31.659 Y82.800 E9.18057
G1 X31.659 Y66.800 E9.39951
G1 X31.700 Y66.178 E9.40805
G1 X31.828 Y65.198 E9.42157
G1 X32.149 Y63.995 E9.43860
G1 X32.526 Y63.081 E9.45213
G1 X33.024 Y62.171 E9.46633
G1 X51.350 Y35.867 E9.90502
G1 X51.759 Y36.060 F7800.000
G4 P29
G1 X54.124 Y32.673 E9.96155 F1800.000
G1 X54.723 Y31.887 E9.97507
G1 X55.519 Y31.087 E9.99051
G1 X56.301 Y30.483 E10.00404
G1 X57.277 Y29.915 E10.01948
G1 X58.150 Y29.549 E10.03245
G1 X59.277 Y29.235 E10.04845
G1 X60.256 Y29.101 E10.06197
G1 X60.845 Y29.061 E10.07005
G1 X102.089 Y29.061 E10.63444
G1 X102.629 Y29.095 E10.64184
G1 X103.610 Y29.218 E10.65537 F1800.000
G1 X104.702 Y29.503 E10.67081
G1 X105.618 Y29.874 E10.68434
G1 X106.599 Y30.431 E10.69978
G1 X107.388 Y31.026 E10.71331
G1 X107.817 Y31.396 E10.72104
G1 X114.359 Y37.827 E10.84658
G1 X114.625 Y38.113 E10.85193
G1 X115.325 Y38.938 E10.86673
G1 X115.577 Y39.265 E10.87238
G1 X136.199 Y68.865 E11.36604
G1 X136.938 Y70.113 E11.38588
G1 X137.266 Y70.823 E11.39658
G1 X137.629 Y71.841 E11.41138
G1 X137.862 Y72.873 E11.42585
G1 X137.894 Y73.403 E11.43312
G1 X137.894 Y76.197 E11.47135
G1 X137.862 Y76.727 E11.47861
G1 X137.629 Y77.759 E11.49309
G1 X137.266 Y78.777 E11.50789
G1 X136.938 Y79.487 E11.51858
G1 X136.397 Y80.423 E11.53338
G1 X135.947 Y81.062 E11.54408
G1 X135.248 Y81.887 E11.55887
G1 X134.981 Y82.173 E11.56422
G1 X128.439 Y88.604 E11.68976
G1 X128.011 Y88.974 E11.69750
G1 X127.222 Y89.569 E11.71102
G1 X126.240 Y90.126 E11.72647
G1 X125.324 Y90.497 E11.73999
G1 X124.232 Y90.782 E11.75544
G1 X123.251 Y90.905 E11.76896
G1 X122.712 Y90.939 E11.77636
G1 X40.223 Y90.939 E12.90514
G1 X39.634 Y90.899 E12.91322
G1 X38.655 Y90.765 E12.92675
G1 X37.566 Y90.467 E12.94219
G1 X36.654 Y90.085 E12.95571
G1 X35.679 Y89.517 E12.97116
G1 X34.897 Y88.913 E12.98468
G1 X34.101 Y88.112 E13.00013
G1 X33.501 Y87.327 E13.01365
G1 X32.939 Y86.348 E13.02910
G1 X32.562 Y85.435 E13.04262
G1 X32.271 Y84.344 E13.05807
G1 X32.142 Y83.364 E13.07159
G1 X32.106 Y82.800 E13.07933
G1 X32.106 Y66.800 E13.29827
G1 X32.142 Y66.236 E13.30601
G1 X32.271 Y65.256 E13.31954
G1 X32.562 Y64.165 E13.33498
G1 X32.939 Y63.251 E13.34851
G1 X33.390 Y62.426 E13.36138
G1 X51.716 Y36.122 E13.80007
G1 X52.125 Y36.315 F7800.000
G4 P29
G1 X54.478 Y32.944 E13.85633 F1800.000
G1 X55.078 Y32.158 E13.86986
G1 X55.792 Y31.440 E13.88371
G1 X56.574 Y30.836 E13.89724
G1 X57.449 Y30.326 E13.91109
G1 X58.323 Y29.960 E13.92406
G1 X59.337 Y29.678 E13.93847
G1 X60.317 Y29.543 E13.95200
G1 X60.845 Y29.507 E13.95924
G1 X102.089 Y29.507 E14.52363
G1 X102.573 Y29.538 E14.53027
G1 X103.554 Y29.661 E14.54380 F1800.000
G1 X104.534 Y29.916 E14.55765
G1 X105.450 Y30.288 E14.57118
G1 X106.331 Y30.787 E14.58503
G1 X107.120 Y31.383 E14.59856
G1 X107.504 Y31.714 E14.60550
G1 X114.046 Y38.145 E14.73104
G1 X114.985 Y39.227 E14.75063
G1 X115.211 Y39.520 E14.75570
G1 X135.833 Y69.120 E15.24936
G1 X136.551 Y70.336 E15.26868
G1 X136.845 Y70.973 E15.27828
G1 X137.209 Y71.991 E15.29308
G1 X137.419 Y72.928 E15.30621
G1 X137.448 Y73.403 E15.31273
G1 X137.448 Y76.197 E15.35096
G1 X137.419 Y76.672 E15.35748
G1 X137.209 Y77.609 E15.37061
G1 X136.845 Y78.627 E15.38540
G1 X136.551 Y79.264 E15.39500
G1 X136.011 Y80.200 E15.40980
G1 X135.607 Y80.773 E15.41939
G1 X134.668 Y81.855 E15.43899
G1 X128.126 Y88.286 E15.56452
G1 X127.742 Y88.617 E15.57146
G1 X126.953 Y89.213 E15.58499
G1 X126.072 Y89.712 E15.59885
G1 X125.156 Y90.084 E15.61237
G1 X124.176 Y90.339 E15.62623
G1 X123.196 Y90.462 E15.63975
G1 X122.712 Y90.493 E15.64639
G1 X40.223 Y90.493 E16.77517
G1 X39.695 Y90.457 E16.78241
G1 X38.715 Y90.322 E16.79594
G1 X37.739 Y90.056 E16.80980
G1 X36.827 Y89.674 E16.82332
G1 X35.952 Y89.164 E16.83718
G1 X35.170 Y88.560 E16.85070
G1 X34.456 Y87.842 E16.86456
G1 X33.856 Y87.056 E16.87808
G1 X33.352 Y86.178 E16.89194
G1 X32.975 Y85.264 E16.90546
G1 X32.714 Y84.286 E16.91932
G1 X32.585 Y83.306 E16.93285
G1 X32.552 Y82.800 E16.93979
G1 X32.552 Y66.800 E17.15873
G1 X32.585 Y66.294 E17.16567
G1 X32.714 Y65.314 E17.17920
G1 X32.975 Y64.335 E17.19305
G1 X33.352 Y63.422 E17.20658
G1 X33.756 Y62.681 E17.21813
G1 X52.082 Y36.377 E17.65682
G1 X52.491 Y36.570 F7800.000
G4 P29
G1 X54.833 Y33.215 E17.71281 F1800.000
G1 X55.433 Y32.429 E17.72634
G1 X56.065 Y31.794 E17.73861
G1 X56.847 Y31.189 E17.75213
G1 X57.622 Y30.738 E17.76440
G1 X58.495 Y30.372 E17.77736
G1 X59.398 Y30.120 E17.79019
G1 X60.377 Y29.986 E17.80371
G1 X60.845 Y29.954 E17.81013
G1 X102.089 Y29.954 E18.37452
G1 X102.518 Y29.981 E18.38039
G1 X103.499 Y30.103 E18.39392 F1800.000
G1 X104.366 Y30.330 E18.40619
G1 X105.282 Y30.701 E18.41971
G1 X106.062 Y31.144 E18.43198
G1 X106.851 Y31.739 E18.44550
G1 X107.191 Y32.032 E18.45165
G1 X113.733 Y38.463 E18.57719
G1 X114.644 Y39.515 E18.59623
G1 X114.845 Y39.775 E18.60072
G1 X135.467 Y69.375 E19.09437
G1 X136.164 Y70.559 E19.11318
G1 X136.425 Y71.123 E19.12168
G1 X136.788 Y72.141 E19.13647
G1 X136.976 Y72.982 E19.14826
G1 X137.002 Y73.403 E19.15403
G1 X137.002 Y76.197 E19.19226
G1 X136.976 Y76.618 E19.19803
G1 X136.788 Y77.459 E19.20982
G1 X136.425 Y78.477 E19.22462
G1 X136.164 Y79.040 E19.23312
G1 X135.624 Y79.977 E19.24791
G1 X135.266 Y80.485 E19.25641
G1 X134.355 Y81.537 E19.27545
G1 X127.813 Y87.968 E19.40099
G1 X127.473 Y88.261 E19.40713
G1 X126.684 Y88.856 E19.42066
G1 X125.904 Y89.299 E19.43292
G1 X124.988 Y89.670 E19.44645
G1 X124.121 Y89.897 E19.45872
G1 X123.140 Y90.019 E19.47224
G1 X122.712 Y90.046 E19.47812
G1 X40.223 Y90.046 E20.60690
G1 X39.755 Y90.014 E20.61331
G1 X38.776 Y89.880 E20.62684
G1 X37.911 Y89.644 E20.63910
G1 X37.000 Y89.262 E20.65263
G1 X36.225 Y88.811 E20.66490
G1 X35.443 Y88.206 E20.67842
G1 X34.811 Y87.571 E20.69069
G1 X34.211 Y86.785 E20.70421
G1 X33.764 Y86.008 E20.71648
G1 X33.387 Y85.094 E20.73001
G1 X33.156 Y84.228 E20.74227
G1 X33.027 Y83.248 E20.75580
G1 X32.998 Y82.800 E20.76195
G1 X32.998 Y66.800 E20.98089
G1 X33.028 Y66.352 E20.98704
G1 X33.156 Y65.372 E21.00056
G1 X33.387 Y64.506 E21.01283
G1 X33.764 Y63.592 E21.02635
G1 X34.122 Y62.936 E21.03658
G1 X52.448 Y36.632 E21.47527
G1 E19.47527 F1920.00000
G92 E0
G1 X83.912 Y83.422 F7800.000
G1 E2.00000 F1920.00000
G1 X83.681 Y84.005 E2.00858 F1800.000
G1 X83.313 Y84.513 E2.01716
G1 X82.829 Y84.912 E2.02575
G1 X82.282 Y85.170 E2.03402
G1 X81.650 Y85.297 E2.04285
G1 X81.020 Y85.258 E2.05148
G1 X80.424 Y85.064 E2.06006
G1 X79.894 Y84.728 E2.06865
G1 X79.465 Y84.271 E2.07723
G1 X79.163 Y83.721 E2.08581
G1 X79.007 Y83.114 E2.09439
G1 X79.007 Y82.486 E2.10297
G1 X79.157 Y81.901 E2.11125
G1 X79.462 Y81.332 E2.12008
G1 X79.894 Y80.872 E2.12871
G1 X80.424 Y80.536 E2.13729
G1 X81.020 Y80.342 E2.14588
G1 X81.624 Y80.304 E2.15415 F1800.000
G1 X82.259 Y80.419 E2.16298
G1 X82.829 Y80.688 E2.17161
G1 X83.313 Y81.087 E2.18019
G1 X83.681 Y81.595 E2.18878
G1 X83.904 Y82.157 E2.19705
G1 X83.991 Y82.796 E2.20588
G1 X83.922 Y83.348 E2.21349
G1 X83.476 Y83.310 F7800.000
G4 P29
G1 X83.287 Y83.788 E2.22053 F1800.000
G1 X82.985 Y84.205 E2.22756
G1 X82.588 Y84.532 E2.23460
G1 X82.141 Y84.743 E2.24137
G1 X81.619 Y84.848 E2.24866
G1 X81.104 Y84.816 E2.25571
G1 X80.615 Y84.657 E2.26275
G1 X80.181 Y84.381 E2.26979
G1 X79.829 Y84.006 E2.27683
G1 X79.581 Y83.555 E2.28387
G1 X79.453 Y83.057 E2.29090
G1 X79.453 Y82.543 E2.29794
G1 X79.576 Y82.064 E2.30471
G1 X79.828 Y81.595 E2.31200
G1 X80.181 Y81.219 E2.31905
G1 X80.615 Y80.943 E2.32609
G1 X81.104 Y80.784 E2.33313
G1 X81.598 Y80.753 E2.33989 F1800.000
G1 X82.122 Y80.848 E2.34718
G1 X82.588 Y81.067 E2.35424
G1 X82.985 Y81.395 E2.36127
G1 X83.287 Y81.811 E2.36831
G1 X83.469 Y82.271 E2.37508
G1 X83.541 Y82.799 E2.38237
G1 X83.486 Y83.236 E2.38840
G4 P18
G1 X83.819 Y83.675 F7800.000
G1 X84.529 Y83.538 F7800.000
G4 P23
G1 X84.358 Y83.453 E2.39100 F1800.000
G4 P26
G1 X84.441 Y82.794 E2.40009
G4 P11
G1 X84.339 Y82.043 E2.41047
G1 X84.076 Y81.378 E2.42026
G1 X83.641 Y80.779 E2.43038
G1 X83.071 Y80.308 E2.44051
G1 X82.396 Y79.990 E2.45071
G1 X81.650 Y79.856 E2.46108
G1 X80.936 Y79.900 E2.47087
G1 X80.232 Y80.129 E2.48100
G1 X79.607 Y80.526 E2.49112
G1 X79.097 Y81.069 E2.50133
G1 X79.034 Y81.186 E2.50314
G1 X78.832 Y81.135 E2.50600
G1 X78.832 Y68.463 E2.67941
G1 X79.033 Y68.411 E2.68225
G1 X79.101 Y68.535 E2.68419
G1 X79.607 Y69.074 E2.69431
G1 X80.232 Y69.471 E2.70444
G1 X80.936 Y69.699 E2.71456
G1 X81.674 Y69.746 E2.72469
G1 X82.401 Y69.607 E2.73481
G1 X83.071 Y69.292 E2.74494
G1 X83.641 Y68.821 E2.75506
G1 X84.076 Y68.222 E2.76519
G1 X84.348 Y67.534 E2.77531
G1 X84.441 Y66.800 E2.78544
G1 X84.358 Y66.147 E2.79445
G4 P11
G1 X84.529 Y66.062 E2.79705
G1 X88.344 Y69.813 E2.87027
G1 X88.229 Y69.995 E2.87323
G1 X87.625 Y69.775 E2.88203
G1 X86.320 Y69.651 E2.89997
G1 X85.052 Y69.847 E2.91752
G1 X83.813 Y70.397 E2.93607
G1 X82.785 Y71.219 E2.95408
G1 X81.998 Y72.274 E2.97209
G1 X81.505 Y73.495 E2.99010
G1 X81.337 Y74.800 E3.00812
G1 X81.505 Y76.105 E3.02613
G1 X81.998 Y77.326 E3.04414
G1 X82.785 Y78.381 E3.06215
G1 X83.813 Y79.203 E3.08016
G1 X85.016 Y79.737 E3.09817
G1 X86.315 Y79.949 E3.11618
G1 X87.625 Y79.825 E3.13419
G1 X88.229 Y79.604 E3.14299
G1 X88.344 Y79.787 E3.14595
G1 X84.582 Y83.485 E3.21813
G1 E1.21813 F1920.00000
G92 E0
G1 X81.806 Y69.266 F7800.000
G1 E2.00000 F1920.00000
G1 X81.646 Y69.297 E2.00223 F1800.000
G4 P27
G1 X81.020 Y69.258 E2.01082
G1 X80.424 Y69.064 E2.01940
G1 X79.894 Y68.728 E2.02798
G1 X79.465 Y68.271 E2.03656
G1 X79.163 Y67.721 E2.04514
G1 X79.007 Y67.114 E2.05373
G1 X79.007 Y66.486 E2.06231
G1 X79.157 Y65.901 E2.07058
G1 X79.462 Y65.332 E2.07941
G1 X79.894 Y64.872 E2.08804
G1 X80.424 Y64.536 E2.09663
G1 X81.020 Y64.342 E2.10521
G1 X81.624 Y64.304 E2.11348 F1800.000
G1 X82.259 Y64.419 E2.12232
G1 X82.829 Y64.688 E2.13095
G1 X83.313 Y65.087 E2.13953
G1 X83.681 Y65.595 E2.14811
G1 X83.912 Y66.178 E2.15669
G1 X83.991 Y66.800 E2.16527
G1 X83.912 Y67.422 E2.17386
G1 X83.681 Y68.005 E2.18244
G1 X83.313 Y68.513 E2.19102
G1 X82.829 Y68.912 E2.19960
G1 X82.262 Y69.179 E2.20818
G1 X81.880 Y69.252 E2.21350
G1 X81.723 Y68.828 F7800.000
G4 P29
G1 X81.618 Y68.848 E2.21497 F1800.000
G4 P29
G1 X81.104 Y68.816 E2.22200
G1 X80.615 Y68.657 E2.22904
G1 X80.181 Y68.381 E2.23608
G1 X79.829 Y68.006 E2.24312
G1 X79.581 Y67.555 E2.25016
G1 X79.453 Y67.057 E2.25720
G1 X79.453 Y66.543 E2.26424
G1 X79.576 Y66.064 E2.27100
G1 X79.828 Y65.595 E2.27829
G1 X80.181 Y65.219 E2.28534
G1 X80.615 Y64.943 E2.29238
G1 X81.104 Y64.784 E2.29942
G1 X81.598 Y64.753 E2.30619 F1800.000
G1 X82.122 Y64.848 E2.31347
G1 X82.588 Y65.067 E2.32053
G1 X82.985 Y65.395 E2.32757
G1 X83.287 Y65.811 E2.33461
G1 X83.476 Y66.290 E2.34165
G1 X83.541 Y66.800 E2.34868
G1 X83.476 Y67.310 E2.35572
G1 X83.287 Y67.788 E2.36276
G1 X82.985 Y68.205 E2.36980
G1 X82.588 Y68.532 E2.37684
G1 X82.123 Y68.751 E2.38388
G1 X81.796 Y68.814 E2.38843
G1 X81.688 Y68.929 F7800.000
G1 E0.38843 F1920.00000
G92 E0
G1 X91.486 Y73.095 F7800.000
G1 E2.00000 F1920.00000
G1 X90.851 Y73.102 E2.00868 F1800.000
G1 X90.421 Y72.222 E2.02208
G1 X89.641 Y71.311 E2.03850
G1 X88.654 Y70.626 E2.05494
G1 X87.526 Y70.214 E2.07137
G1 X86.333 Y70.101 E2.08777
G1 X85.178 Y70.279 E2.10375
G1 X84.047 Y70.782 E2.12070
G1 X83.108 Y71.532 E2.13714
G1 X82.391 Y72.495 E2.15358
G1 X81.940 Y73.609 E2.17001
G1 X81.787 Y74.800 E2.18645
G1 X81.940 Y75.991 E2.20289
G1 X82.391 Y77.105 E2.21933
G1 X83.108 Y78.068 E2.23576
G1 X84.047 Y78.818 E2.25220
G1 X85.144 Y79.306 E2.26864
G1 X86.330 Y79.499 E2.28508
G1 X87.526 Y79.386 E2.30151
G1 X88.654 Y78.974 E2.31795
G1 X89.641 Y78.289 E2.33439
G1 X90.421 Y77.378 E2.35081
G1 X90.851 Y76.498 E2.36421
G1 X91.486 Y76.505 E2.37289
G1 X91.300 Y77.025 E2.38044
G1 X90.823 Y77.852 E2.39351
G1 X90.184 Y78.604 E2.40702
G1 X83.697 Y84.981 E2.53150
G1 X83.017 Y85.494 E2.54315
G1 X82.271 Y85.797 E2.55418
G1 X81.471 Y85.898 E2.56520
G1 X80.673 Y85.788 E2.57623
G1 X79.930 Y85.477 E2.58726
