; generated by Slic3r 1.2.9 on 2016-01-28 at 20:13:07

; external perimeters extrusion width = 0.50mm
; perimeters extrusion width = 0.50mm
; infill extrusion width = 0.50mm
; solid infill extrusion width = 0.50mm
; top infill extrusion width = 0.50mm

M107
M190 S70 ; set bed temperature
M104 S220 ; set temperature
G28 ; home all axes
M109 S220 ; wait for temperature to be reached
G21 ; set units to millimeters
G90 ; use absolute coordinates
M82 ; use absolute distances for extrusion
G92 E0
G1 Z0.350 F7800.000
G1 E-2.00000 F1920.00000
G92 E0
G1 X50.110 Y35.745 F7800.000
G1 E2.00000 F1920.00000
M204 S3000
G1 X52.559 Y32.312 E2.05770 F1800.000
G1 X53.186 Y31.463 E2.07215
G1 X54.106 Y30.503 E2.09034
G1 X54.857 Y29.897 E2.10355
G1 X55.989 Y29.200 E2.12174
G1 X56.869 Y28.802 E2.13495
G1 X58.140 Y28.413 E2.15314
G1 X59.092 Y28.250 E2.16635
G1 X59.975 Y28.175 E2.17848
G1 X102.194 Y28.175 E2.75621
G1 X102.639 Y28.194 E2.76230
G1 X103.601 Y28.276 E2.77551 F1800.000
G1 X104.900 Y28.556 E2.79370
G1 X105.772 Y28.865 E2.80636
G1 X106.997 Y29.477 E2.82509
G1 X107.797 Y30.017 E2.83830
G1 X108.323 Y30.425 E2.84741
G1 X115.108 Y36.398 E2.97111
G1 X115.480 Y36.761 E2.97822
G1 X116.359 Y37.705 E2.99587
G1 X116.788 Y38.231 E3.00516
G1 X137.897 Y67.824 E3.50258
G1 X138.771 Y69.223 E3.52515
G1 X139.224 Y70.157 E3.53936
G1 X139.669 Y71.368 E3.55700
G1 X139.950 Y72.533 E3.57341
G1 X140.005 Y73.301 E3.58394
G1 X140.005 Y76.293 E3.62489
G1 X139.950 Y77.061 E3.63542
G1 X139.669 Y78.226 E3.65182
G1 X139.224 Y79.436 E3.66947
G1 X138.771 Y80.370 E3.68367
G1 X138.096 Y81.469 E3.70132
G1 X137.468 Y82.295 E3.71552
G1 X136.589 Y83.239 E3.73317
G1 X136.217 Y83.602 E3.74028
G1 X129.433 Y89.575 E3.86398
G1 X128.906 Y89.983 E3.87309
G1 X128.106 Y90.523 E3.88630
G1 X126.919 Y91.122 E3.90449
G1 X126.009 Y91.444 E3.91770
G1 X124.710 Y91.724 E3.93589
G1 X123.748 Y91.806 E3.94910
G1 X123.303 Y91.825 E3.95519
G1 X38.866 Y91.825 E5.11064
G1 X37.982 Y91.750 E5.12277
G1 X37.031 Y91.587 E5.13598
G1 X35.760 Y91.198 E5.15417
G1 X34.880 Y90.800 E5.16738
G1 X33.748 Y90.103 E5.18557
G1 X32.997 Y89.497 E5.19878
G1 X32.077 Y88.537 E5.21697
G1 X31.503 Y87.761 E5.23018
G1 X30.855 Y86.601 E5.24837
G1 X30.495 Y85.705 E5.26158
G1 X30.160 Y84.419 E5.27977
G1 X30.037 Y83.461 E5.29298
G1 X29.995 Y82.797 E5.30209
G1 X29.995 Y66.797 E5.52104
G1 X30.037 Y66.132 E5.53015
G1 X30.160 Y65.174 E5.54336
G1 X30.495 Y63.888 E5.56155
G1 X30.855 Y62.992 E5.57476
G1 X31.450 Y61.905 E5.59172
G1 X50.067 Y35.806 E6.03041
G1 X50.474 Y36.004 F7800.000
G4 P29
G1 X52.923 Y32.571 E6.08812 F1800.000
G1 X53.545 Y31.728 E6.10246
G1 X54.387 Y30.850 E6.11910
G1 X55.138 Y30.244 E6.13231
G1 X56.173 Y29.607 E6.14894
G1 X57.053 Y29.209 E6.16216
G1 X58.215 Y28.853 E6.17879
G1 X59.167 Y28.690 E6.19200
G1 X59.975 Y28.621 E6.20310
G1 X102.194 Y28.621 E6.78083
G1 X102.601 Y28.639 E6.78640
G1 X103.563 Y28.721 E6.79961 F1800.000
G1 X104.751 Y28.977 E6.81624
G1 X105.623 Y29.285 E6.82890
G1 X106.747 Y29.846 E6.84609
G1 X107.546 Y30.387 E6.85930
G1 X108.028 Y30.760 E6.86763
G1 X114.813 Y36.733 E6.99133
G1 X115.153 Y37.065 E6.99783
G1 X116.032 Y38.009 E7.01548
G1 X116.425 Y38.490 E7.02398
G1 X137.534 Y68.083 E7.52140
G1 X138.391 Y69.457 E7.54355
G1 X138.805 Y70.311 E7.55654
G1 X139.250 Y71.522 E7.57419
G1 X139.507 Y72.587 E7.58919
G1 X139.559 Y73.301 E7.59898
G1 X139.559 Y76.293 E7.63993
G1 X139.507 Y77.006 E7.64971
G1 X139.250 Y78.072 E7.66472
G1 X138.805 Y79.282 E7.68236
G1 X138.391 Y80.136 E7.69535
G1 X137.716 Y81.235 E7.71300
G1 X137.141 Y81.991 E7.72599
G1 X136.263 Y82.935 E7.74364
G1 X135.922 Y83.267 E7.75014
G1 X129.138 Y89.240 E7.87384
G1 X128.656 Y89.613 E7.88217
G1 X127.856 Y90.154 E7.89538
G1 X126.771 Y90.701 E7.91202
G1 X125.860 Y91.023 E7.92523
G1 X124.672 Y91.279 E7.94187
G1 X123.303 Y91.379 E7.96065
G1 X38.866 Y91.379 E9.11610
G1 X38.058 Y91.310 E9.12719
G1 X37.106 Y91.147 E9.14041
G1 X35.943 Y90.791 E9.15704
G1 X35.064 Y90.393 E9.17026
G1 X34.028 Y89.756 E9.18689
G1 X33.277 Y89.150 E9.20010
G1 X32.436 Y88.272 E9.21674
G1 X31.862 Y87.496 E9.22995
G1 X31.269 Y86.434 E9.24659
G1 X30.909 Y85.539 E9.25980
G1 X30.602 Y84.362 E9.27643
G1 X30.480 Y83.404 E9.28965
G1 X30.441 Y82.797 E9.29798
G1 X30.441 Y66.797 E9.51692
G1 X30.480 Y66.189 E9.52526
G1 X30.602 Y65.231 E9.53847
G1 X30.909 Y64.055 E9.55511
G1 X31.269 Y63.159 E9.56832
G1 X31.813 Y62.164 E9.58383
G1 X50.430 Y36.065 E10.02253
G1 X50.837 Y36.263 F7800.000
G4 P29
G1 X53.286 Y32.830 E10.08023 F1800.000
G1 X53.904 Y31.993 E10.09447
G1 X54.667 Y31.198 E10.10955
G1 X55.418 Y30.591 E10.12276
G1 X56.357 Y30.013 E10.13785
G1 X57.237 Y29.616 E10.15106
G1 X58.291 Y29.293 E10.16614
G1 X59.242 Y29.130 E10.17936
G1 X59.975 Y29.068 E10.18942
G1 X102.194 Y29.068 E10.76714
G1 X102.563 Y29.083 E10.77219
G1 X103.525 Y29.165 E10.78540 F1800.000
G1 X104.602 Y29.398 E10.80049
G1 X105.475 Y29.706 E10.81315
G1 X106.497 Y30.216 E10.82878
G1 X107.296 Y30.757 E10.84199
G1 X107.733 Y31.095 E10.84955
G1 X114.518 Y37.068 E10.97324
G1 X114.826 Y37.369 E10.97914
G1 X115.705 Y38.313 E10.99679
G1 X116.061 Y38.749 E11.00449
G1 X137.171 Y68.342 E11.50192
G1 X138.011 Y69.690 E11.52365
G1 X138.386 Y70.465 E11.53543
G1 X138.831 Y71.675 E11.55307
G1 X139.064 Y72.642 E11.56668
G1 X139.113 Y73.301 E11.57572
G1 X139.113 Y76.293 E11.61666
G1 X139.064 Y76.952 E11.62570
G1 X138.831 Y77.918 E11.63931
G1 X138.386 Y79.128 E11.65695
G1 X138.011 Y79.903 E11.66873
G1 X137.336 Y81.002 E11.68638
G1 X136.815 Y81.687 E11.69816
G1 X135.936 Y82.631 E11.71581
G1 X135.627 Y82.932 E11.72170
G1 X128.843 Y88.905 E11.84540
G1 X128.406 Y89.243 E11.85296
G1 X127.606 Y89.784 E11.86617
G1 X126.622 Y90.280 E11.88125
G1 X125.712 Y90.602 E11.89446
G1 X124.634 Y90.835 E11.90955
G1 X123.303 Y90.932 E11.92781
G1 X38.866 Y90.932 E13.08326
G1 X38.133 Y90.870 E13.09332
G1 X37.181 Y90.707 E13.10653
G1 X36.127 Y90.384 E13.12161
G1 X35.247 Y89.987 E13.13483
G1 X34.309 Y89.409 E13.14991
G1 X33.557 Y88.802 E13.16312
G1 X32.795 Y88.007 E13.17821
G1 X32.221 Y87.230 E13.19142
G1 X31.683 Y86.268 E13.20650
G1 X31.323 Y85.372 E13.21972
G1 X31.045 Y84.305 E13.23480
G1 X30.922 Y83.348 E13.24801
G1 X30.887 Y82.797 E13.25557
G1 X30.887 Y66.797 E13.47451
G1 X30.922 Y66.245 E13.48207
G1 X31.045 Y65.288 E13.49528
G1 X31.323 Y64.221 E13.51036
G1 X31.683 Y63.325 E13.52358
G1 X32.177 Y62.423 E13.53765
G1 X50.794 Y36.324 E13.97634
G1 X51.201 Y36.522 F7800.000
G4 P29
G1 X53.649 Y33.089 E14.03404 F1800.000
G1 X54.263 Y32.259 E14.04817
G1 X54.947 Y31.545 E14.06171
G1 X55.699 Y30.938 E14.07492
G1 X56.541 Y30.420 E14.08845
G1 X57.421 Y30.023 E14.10166
G1 X58.366 Y29.733 E14.11519
G1 X59.318 Y29.570 E14.12841
G1 X59.975 Y29.514 E14.13743
G1 X102.194 Y29.514 E14.71516
G1 X102.525 Y29.528 E14.71969
G1 X103.487 Y29.610 E14.73290 F1800.000
G1 X104.453 Y29.819 E14.74643
G1 X105.326 Y30.127 E14.75909
G1 X106.247 Y30.586 E14.77317
G1 X107.046 Y31.127 E14.78638
G1 X107.438 Y31.430 E14.79316
G1 X114.223 Y37.403 E14.91686
G1 X114.500 Y37.673 E14.92215
G1 X115.378 Y38.617 E14.93980
G1 X115.698 Y39.008 E14.94671
G1 X136.807 Y68.602 E15.44413
G1 X137.630 Y69.924 E15.46544
G1 X137.967 Y70.619 E15.47601
G1 X138.412 Y71.829 E15.49366
G1 X138.621 Y72.696 E15.50586
G1 X138.666 Y73.301 E15.51416
G1 X138.666 Y76.293 E15.55510
G1 X138.621 Y76.897 E15.56339
G1 X138.412 Y77.764 E15.57560
G1 X137.967 Y78.974 E15.59324
G1 X137.630 Y79.669 E15.60381
G1 X136.955 Y80.768 E15.62146
G1 X136.488 Y81.383 E15.63203
G1 X135.609 Y82.327 E15.64967
G1 X135.332 Y82.597 E15.65496
G1 X128.548 Y88.570 E15.77866
G1 X128.156 Y88.873 E15.78544
G1 X127.356 Y89.414 E15.79865
G1 X126.473 Y89.859 E15.81218
G1 X125.563 Y90.181 E15.82540
G1 X124.596 Y90.390 E15.83893
G1 X123.303 Y90.486 E15.85667
G1 X38.866 Y90.486 E17.01212
G1 X38.208 Y90.430 E17.02114
G1 X37.257 Y90.267 E17.03436
G1 X36.311 Y89.977 E17.04789
G1 X35.431 Y89.580 E17.06110
G1 X34.589 Y89.061 E17.07463
G1 X33.838 Y88.455 E17.08784
G1 X33.154 Y87.741 E17.10138
G1 X32.579 Y86.965 E17.11459
G1 X32.097 Y86.102 E17.12812
G1 X31.737 Y85.206 E17.14133
G1 X31.488 Y84.249 E17.15487
G1 X31.365 Y83.291 E17.16808
G1 X31.334 Y82.797 E17.17486
G1 X31.334 Y66.797 E17.39380
G1 X31.365 Y66.302 E17.40058
G1 X31.488 Y65.344 E17.41379
G1 X31.737 Y64.388 E17.42732
G1 X32.097 Y63.492 E17.44054
G1 X32.540 Y62.683 E17.45316
G1 X51.157 Y36.584 E17.89185
G1 X51.564 Y36.782 F7800.000
G4 P29
G1 X54.013 Y33.349 E17.94955 F1800.000
G1 X54.622 Y32.524 E17.96358
G1 X55.228 Y31.892 E17.97556
G1 X55.979 Y31.286 E17.98877
G1 X56.725 Y30.827 E18.00075
G1 X57.604 Y30.429 E18.01396
G1 X58.442 Y30.173 E18.02595
G1 X59.393 Y30.010 E18.03916
G1 X59.975 Y29.960 E18.04715
G1 X102.487 Y29.973 E18.62888
G1 X103.449 Y30.055 E18.64209 F1800.000
G1 X104.305 Y30.240 E18.65407
G1 X105.177 Y30.548 E18.66673
G1 X105.997 Y30.956 E18.67926
G1 X106.796 Y31.496 E18.69247
G1 X107.143 Y31.765 E18.69848
G1 X113.928 Y37.738 E18.82217
G1 X114.173 Y37.977 E18.82685
G1 X115.052 Y38.921 E18.84450
G1 X115.334 Y39.268 E18.85062
G1 X136.444 Y68.861 E19.34805
G1 X137.250 Y70.157 E19.36894
G1 X137.548 Y70.773 E19.37829
G1 X137.993 Y71.983 E19.39594
G1 X138.178 Y72.751 E19.40675
G1 X138.194 Y72.880 E19.40852
G1 X138.220 Y73.301 E19.41429
G1 X138.220 Y76.293 E19.45524
G1 X138.178 Y76.842 E19.46278
G1 X137.993 Y77.610 E19.47359
G1 X137.548 Y78.820 E19.49123
G1 X137.250 Y79.436 E19.50059
G1 X136.575 Y80.535 E19.51824
G1 X136.161 Y81.079 E19.52759
G1 X135.282 Y82.023 E19.54524
G1 X135.037 Y82.262 E19.54993
G1 X128.253 Y88.235 E19.67362
G1 X127.906 Y88.504 E19.67962
G1 X127.106 Y89.044 E19.69283
G1 X126.324 Y89.439 E19.70482
G1 X125.414 Y89.760 E19.71803
G1 X124.558 Y89.945 E19.73001
G1 X123.303 Y90.040 E19.74723
G1 X38.866 Y90.040 E20.90268
G1 X38.284 Y89.990 E20.91067
G1 X37.332 Y89.827 E20.92388
G1 X36.495 Y89.571 E20.93586
G1 X35.615 Y89.173 E20.94908
G1 X34.869 Y88.714 E20.96106
G1 X34.118 Y88.108 E20.97427
G1 X33.512 Y87.476 E20.98625
G1 X32.938 Y86.699 E20.99946
G1 X32.511 Y85.935 E21.01144
G1 X32.151 Y85.039 E21.02465
G1 X31.931 Y84.192 E21.03663
G1 X31.808 Y83.234 E21.04985
G1 X31.780 Y82.797 E21.05585
G1 X31.780 Y66.797 E21.27479
G1 X31.808 Y66.359 E21.28079
G1 X31.931 Y65.401 E21.29401
G1 X32.151 Y64.554 E21.30599
G1 X32.511 Y63.658 E21.31920
G1 X32.903 Y62.942 E21.33037
G1 X51.520 Y36.843 E21.76906
G1 E19.76906 F1920.00000
G92 E0
G1 X83.669 Y83.419 F7800.000
G1 E2.00000 F1920.00000
G1 X83.438 Y84.002 E2.00858 F1800.000
G1 X83.069 Y84.509 E2.01716
G1 X82.586 Y84.909 E2.02575
G1 X82.018 Y85.176 E2.03433
G1 X81.402 Y85.294 E2.04291
G1 X80.776 Y85.254 E2.05149
G1 X80.180 Y85.060 E2.06007
G1 X79.651 Y84.724 E2.06865
G1 X79.221 Y84.267 E2.07724
G1 X78.919 Y83.718 E2.08582
G1 X78.763 Y83.110 E2.09440
G1 X78.763 Y82.483 E2.10298
G1 X78.919 Y81.876 E2.11156
G1 X79.221 Y81.326 E2.12015
G1 X79.651 Y80.869 E2.12873
G1 X80.180 Y80.533 E2.13731
G1 X80.776 Y80.339 E2.14589
G1 X81.380 Y80.301 E2.15417 F1800.000
G1 X82.015 Y80.416 E2.16300
G1 X82.586 Y80.684 E2.17163
G1 X83.069 Y81.084 E2.18021
G1 X83.438 Y81.591 E2.18879
G1 X83.660 Y82.154 E2.19707
G1 X83.748 Y82.793 E2.20590
G1 X83.678 Y83.344 E2.21350
G1 X83.233 Y83.307 F7800.000
G4 P29
G1 X83.043 Y83.785 E2.22054 F1800.000
G1 X82.741 Y84.201 E2.22758
G1 X82.345 Y84.529 E2.23462
G1 X81.879 Y84.748 E2.24166
G1 X81.374 Y84.845 E2.24870
G1 X80.861 Y84.812 E2.25573
G1 X80.372 Y84.653 E2.26277
G1 X79.937 Y84.378 E2.26981
G1 X79.585 Y84.003 E2.27685
G1 X79.337 Y83.552 E2.28389
G1 X79.209 Y83.054 E2.29093
G1 X79.209 Y82.539 E2.29797
G1 X79.337 Y82.041 E2.30500
G1 X79.585 Y81.590 E2.31204
G1 X79.937 Y81.216 E2.31908
G1 X80.372 Y80.940 E2.32612
G1 X80.861 Y80.781 E2.33316
G1 X81.354 Y80.750 E2.33992 F1800.000
G1 X81.878 Y80.845 E2.34721
G1 X82.345 Y81.064 E2.35427
G1 X82.741 Y81.392 E2.36131
G1 X83.043 Y81.808 E2.36834
G1 X83.225 Y82.268 E2.37511
G1 X83.297 Y82.795 E2.38240
G1 X83.242 Y83.232 E2.38843
G4 P18
G1 X83.575 Y83.671 F7800.000
G1 X84.063 Y83.856 F7800.000
G1 X84.198 Y82.791 E2.40312 F1800.000
G1 X84.095 Y82.040 E2.41349
G1 X83.832 Y81.375 E2.42328
G1 X83.397 Y80.776 E2.43340
G1 X82.827 Y80.304 E2.44353
G1 X82.152 Y79.987 E2.45373
G1 X81.406 Y79.852 E2.46411
G1 X80.692 Y79.897 E2.47390
G1 X79.988 Y80.126 E2.48402
G1 X79.364 Y80.522 E2.49415
G1 X78.857 Y81.062 E2.50427
G1 X78.789 Y81.185 E2.50621
G1 X78.588 Y81.134 E2.50905
G1 X78.588 Y68.459 E2.68248
G1 X78.789 Y68.408 E2.68533
G1 X78.857 Y68.532 E2.68726
G1 X79.364 Y69.071 E2.69738
G1 X79.988 Y69.467 E2.70751
G1 X80.692 Y69.696 E2.71763
G1 X81.431 Y69.743 E2.72776
G1 X82.157 Y69.604 E2.73788
G1 X82.827 Y69.289 E2.74801
G1 X83.397 Y68.817 E2.75813
G1 X83.832 Y68.219 E2.76826
G1 X84.104 Y67.531 E2.77838
G1 X84.197 Y66.797 E2.78851
G1 X84.063 Y65.737 E2.80312
G1 X88.056 Y69.253 E2.87591
G1 X87.940 Y69.444 E2.87897
G1 X87.553 Y69.297 E2.88464
G1 X86.060 Y69.154 E2.90517
G1 X84.676 Y69.366 E2.92433
G1 X83.343 Y69.946 E2.94422
G1 X82.202 Y70.847 E2.96411
G1 X81.328 Y72.009 E2.98400
G1 X80.780 Y73.355 E3.00389
G1 X80.600 Y74.743 E3.02305
G1 X80.778 Y76.233 E3.04358
G1 X81.328 Y77.584 E3.06355
G1 X82.202 Y78.746 E3.08344
G1 X83.343 Y79.647 E3.10333
G1 X84.676 Y80.227 E3.12323
G1 X86.113 Y80.447 E3.14312
G1 X87.559 Y80.294 E3.16301
G1 X87.940 Y80.149 E3.16860
G1 X88.056 Y80.341 E3.17166
G1 X84.120 Y83.806 E3.24343
G1 E1.24343 F1920.00000
G92 E0
G1 X81.402 Y69.294 F7800.000
G1 E2.00000 F1920.00000
G1 X80.776 Y69.254 E2.00858 F1800.000
G1 X80.180 Y69.060 E2.01716
G1 X79.651 Y68.724 E2.02575
G1 X79.221 Y68.267 E2.03433
G1 X78.919 Y67.718 E2.04291
G1 X78.763 Y67.110 E2.05149
G1 X78.763 Y66.483 E2.06007
G1 X78.919 Y65.876 E2.06865
G1 X79.221 Y65.326 E2.07724
G1 X79.651 Y64.869 E2.08582
G1 X80.180 Y64.533 E2.09440
G1 X80.776 Y64.339 E2.10298
G1 X81.380 Y64.301 E2.11126 F1800.000
G1 X82.015 Y64.416 E2.12009
G1 X82.586 Y64.684 E2.12872
G1 X83.069 Y65.084 E2.13730
G1 X83.438 Y65.591 E2.14588
G1 X83.669 Y66.174 E2.15446
G1 X83.747 Y66.797 E2.16305
G1 X83.669 Y67.419 E2.17163
G1 X83.438 Y68.002 E2.18021
G1 X83.069 Y68.509 E2.18879
G1 X82.586 Y68.909 E2.19737
G1 X82.018 Y69.176 E2.20596
G1 X81.476 Y69.279 E2.21351
G1 X81.374 Y68.845 F7800.000
G1 X80.861 Y68.812 E2.22055 F1800.000
G1 X80.372 Y68.653 E2.22759
G1 X79.937 Y68.378 E2.23463
G1 X79.585 Y68.003 E2.24167
G1 X79.337 Y67.552 E2.24870
G1 X79.209 Y67.054 E2.25574
G1 X79.209 Y66.539 E2.26278
G1 X79.337 Y66.041 E2.26982
G1 X79.585 Y65.590 E2.27686
G1 X79.937 Y65.216 E2.28390
G1 X80.372 Y64.940 E2.29094
G1 X80.861 Y64.781 E2.29797
G1 X81.354 Y64.750 E2.30474 F1800.000
G1 X81.878 Y64.845 E2.31203
G1 X82.345 Y65.064 E2.31908
G1 X82.741 Y65.392 E2.32612
G1 X83.043 Y65.808 E2.33316
G1 X83.233 Y66.286 E2.34020
G1 X83.297 Y66.797 E2.34724
G1 X83.233 Y67.307 E2.35427
G1 X83.043 Y67.785 E2.36131
G1 X82.741 Y68.201 E2.36835
G1 X82.345 Y68.529 E2.37539
G1 X81.879 Y68.748 E2.38243
G1 X81.448 Y68.830 E2.38844
G1 X81.133 Y69.283 F7800.000
G1 E0.38844 F1920.00000
G92 E0
G1 X91.771 Y73.100 F7800.000
G1 E2.00000 F1920.00000
G1 X91.145 Y73.100 E2.00857 F1800.000
G1 X90.646 Y72.022 E2.02483
G1 X89.792 Y70.991 E2.04314
G1 X88.705 Y70.212 E2.06144
G1 X87.451 Y69.736 E2.07980
G1 X86.072 Y69.604 E2.09875
G1 X84.801 Y69.799 E2.11635
G1 X83.574 Y70.332 E2.13466
G1 X82.524 Y71.161 E2.15296
G1 X81.720 Y72.231 E2.17127
G1 X81.215 Y73.470 E2.18958
G1 X81.050 Y74.745 E2.20718
G1 X81.214 Y76.120 E2.22613
G1 X81.720 Y77.362 E2.24449
G1 X82.524 Y78.432 E2.26279
G1 X83.574 Y79.261 E2.28110
G1 X84.801 Y79.794 E2.29941
G1 X86.124 Y79.997 E2.31772
G1 X87.454 Y79.856 E2.33603
G1 X88.705 Y79.381 E2.35433
G1 X89.792 Y78.602 E2.37264
G1 X90.646 Y77.571 E2.39095
G1 X91.145 Y76.493 E2.40721
G1 X91.771 Y76.493 E2.41578
G1 X91.464 Y77.327 E2.42794
G1 X90.862 Y78.307 E2.44368
G1 X90.055 Y79.175 E2.45991
G1 X83.330 Y85.097 E2.58252
G1 X82.641 Y85.563 E2.59390
G1 X81.933 Y85.813 E2.60417
G1 X81.111 Y85.891 E2.61547
G1 X80.338 Y85.759 E2.62620
G1 X79.621 Y85.435 E2.63697
G1 X79.009 Y84.940 E2.64774
G1 X78.563 Y84.337 E2.65800
G1 X78.247 Y83.574 E2.66931
G1 X78.142 Y82.752 E2.68064
G1 X78.142 Y66.845 E2.89832
G1 X78.261 Y65.982 E2.91024
G1 X78.541 Y65.286 E2.92051
G1 X79.009 Y64.653 E2.93128
