; generated by Slic3r 1.2.9 on 2016-01-28 at 19:59:32

; external perimeters extrusion width = 0.50mm
; perimeters extrusion width = 0.50mm
; infill extrusion width = 0.50mm
; solid infill extrusion width = 0.50mm
; top infill extrusion width = 0.50mm

M107
M190 S70 ; set bed temperature
M104 S220 ; set temperature
G28 ; home all axes
M109 S220 ; wait for temperature to be reached
G21 ; set units to millimeters
G90 ; use absolute coordinates
M82 ; use absolute distances for extrusion
G92 E0
G1 Z0.350 F7800.000
G1 E-2.00000 F1920.00000
G92 E0
G1 X43.551 Y45.300 F7800.000
G1 E2.00000 F1920.00000
M204 S3000
G1 X44.303 Y44.693 E2.01321 F1800.000
G1 X45.435 Y43.996 E2.03140
G1 X46.314 Y43.599 E2.04461
G1 X47.585 Y43.210 E2.06280
G1 X48.537 Y43.047 E2.07601
G1 X49.420 Y42.972 E2.08814
G1 X112.749 Y42.972 E2.95473
G1 X113.193 Y42.991 E2.96082
G1 X114.155 Y43.073 E2.97403 F1800.000
G1 X115.454 Y43.353 E2.99222
G1 X116.327 Y43.661 E3.00488
G1 X117.551 Y44.273 E3.02361
G1 X118.351 Y44.814 E3.03683
G1 X118.878 Y45.221 E3.04594
G1 X125.662 Y51.195 E3.16963
G1 X126.035 Y51.557 E3.17674
G1 X126.913 Y52.501 E3.19439
G1 X127.542 Y53.328 E3.20859
G1 X128.216 Y54.426 E3.22624
G1 X128.669 Y55.361 E3.24044
G1 X129.114 Y56.571 E3.25809
G1 X129.396 Y57.736 E3.27449
G1 X129.412 Y57.865 E3.27627
G1 X129.451 Y58.504 E3.28503
G1 X129.451 Y61.496 E3.32598
G1 X129.396 Y62.264 E3.33651
G1 X129.114 Y63.429 E3.35291
G1 X128.669 Y64.639 E3.37056
G1 X128.216 Y65.573 E3.38476
G1 X127.542 Y66.672 E3.40241
G1 X126.913 Y67.499 E3.41661
G1 X126.035 Y68.443 E3.43426
G1 X125.662 Y68.805 E3.44137
G1 X118.878 Y74.779 E3.56506
G1 X118.351 Y75.186 E3.57418
G1 X117.551 Y75.727 E3.58739
G1 X116.365 Y76.325 E3.60558
G1 X115.454 Y76.647 E3.61879
G1 X114.155 Y76.927 E3.63698
G1 X113.193 Y77.009 E3.65019
G1 X112.749 Y77.028 E3.65628
G1 X49.420 Y77.028 E4.52286
G1 X48.537 Y76.953 E4.53500
G1 X47.585 Y76.790 E4.54821
G1 X46.314 Y76.401 E4.56640
G1 X45.434 Y76.003 E4.57961
G1 X44.303 Y75.307 E4.59780
G1 X43.551 Y74.700 E4.61101
G1 X42.632 Y73.741 E4.62920
G1 X42.058 Y72.965 E4.64241
G1 X41.409 Y71.804 E4.66059
G1 X41.049 Y70.908 E4.67381
G1 X40.714 Y69.622 E4.69199
G1 X40.592 Y68.664 E4.70521
G1 X40.549 Y68.000 E4.71432
G1 X40.549 Y52.000 E4.93326
G1 X40.592 Y51.335 E4.94238
G1 X40.714 Y50.378 E4.95559
G1 X41.049 Y49.092 E4.97377
G1 X41.409 Y48.196 E4.98699
G1 X42.058 Y47.035 E5.00517
G1 X42.632 Y46.259 E5.01839
G1 X43.500 Y45.354 E5.03555
G1 X43.832 Y45.647 F7800.000
G4 P29
G1 X44.583 Y45.040 E5.04876 F1800.000
G1 X45.618 Y44.403 E5.06540
G1 X46.498 Y44.006 E5.07861
G1 X47.661 Y43.650 E5.09524
G1 X48.612 Y43.487 E5.10846
G1 X49.420 Y43.418 E5.11955
G1 X112.749 Y43.418 E5.98614
G1 X113.155 Y43.435 E5.99171
G1 X114.117 Y43.517 E6.00492 F1800.000
G1 X115.306 Y43.774 E6.02156
G1 X116.178 Y44.082 E6.03422
G1 X117.301 Y44.643 E6.05140
G1 X118.101 Y45.184 E6.06461
G1 X118.583 Y45.556 E6.07295
G1 X125.367 Y51.530 E6.19664
G1 X125.708 Y51.861 E6.20314
G1 X126.587 Y52.805 E6.22079
G1 X127.161 Y53.561 E6.23378
G1 X127.836 Y54.660 E6.25143
G1 X128.250 Y55.514 E6.26442
G1 X128.695 Y56.725 E6.28207
G1 X128.953 Y57.791 E6.29707
G1 X128.969 Y57.919 E6.29885
G1 X129.004 Y58.504 E6.30686
G1 X129.004 Y61.496 E6.34781
G1 X128.953 Y62.209 E6.35759
G1 X128.695 Y63.275 E6.37260
G1 X128.250 Y64.486 E6.39024
G1 X127.836 Y65.340 E6.40324
G1 X127.161 Y66.439 E6.42088
G1 X126.587 Y67.195 E6.43387
G1 X125.708 Y68.139 E6.45152
G1 X125.367 Y68.470 E6.45802
G1 X118.583 Y74.444 E6.58172
G1 X118.101 Y74.816 E6.59005
G1 X117.301 Y75.357 E6.60327
G1 X116.216 Y75.905 E6.61990
G1 X115.306 Y76.226 E6.63311
G1 X114.117 Y76.483 E6.64975
G1 X112.749 Y76.582 E6.66853
G1 X49.420 Y76.582 E7.53511
G1 X48.612 Y76.513 E7.54621
G1 X47.661 Y76.350 E7.55942
G1 X46.498 Y75.994 E7.57606
G1 X45.618 Y75.597 E7.58927
G1 X44.583 Y74.959 E7.60591
G1 X43.832 Y74.353 E7.61912
G1 X42.991 Y73.475 E7.63576
G1 X42.416 Y72.699 E7.64897
G1 X41.823 Y71.638 E7.66560
G1 X41.463 Y70.742 E7.67882
G1 X41.157 Y69.565 E7.69545
G1 X41.034 Y68.608 E7.70867
G1 X40.996 Y68.000 E7.71700
G1 X40.996 Y52.000 E7.93594
G1 X41.034 Y51.392 E7.94428
G1 X41.157 Y50.434 E7.95749
G1 X41.463 Y49.258 E7.97412
G1 X41.823 Y48.362 E7.98734
G1 X42.416 Y47.301 E8.00397
G1 X42.991 Y46.525 E8.01718
G1 X43.780 Y45.701 E8.03279
G1 X44.112 Y45.994 F7800.000
G4 P29
G1 X44.863 Y45.388 E8.04601 F1800.000
G1 X45.802 Y44.810 E8.06109
G1 X46.682 Y44.412 E8.07430
G1 X47.736 Y44.090 E8.08939
G1 X48.688 Y43.927 E8.10260
G1 X49.420 Y43.864 E8.11266
G1 X112.749 Y43.864 E8.97925
G1 X113.117 Y43.880 E8.98430
G1 X114.079 Y43.962 E8.99751 F1800.000
G1 X115.157 Y44.195 E9.01259
G1 X116.029 Y44.503 E9.02525
G1 X117.051 Y45.013 E9.04089
G1 X117.851 Y45.554 E9.05410
G1 X118.288 Y45.891 E9.06165
G1 X125.072 Y51.865 E9.18535
G1 X125.381 Y52.165 E9.19125
G1 X126.260 Y53.110 E9.20889
G1 X126.781 Y53.795 E9.22067
G1 X127.456 Y54.894 E9.23832
G1 X127.831 Y55.668 E9.25010
G1 X128.276 Y56.879 E9.26775
G1 X128.510 Y57.845 E9.28135
G1 X128.558 Y58.504 E9.29039
G1 X128.558 Y61.496 E9.33134
G1 X128.510 Y62.155 E9.34037
G1 X128.276 Y63.121 E9.35398
G1 X127.831 Y64.332 E9.37162
G1 X127.456 Y65.106 E9.38340
G1 X126.781 Y66.205 E9.40105
G1 X126.260 Y66.890 E9.41283
G1 X125.381 Y67.835 E9.43048
G1 X125.072 Y68.135 E9.43638
G1 X118.288 Y74.109 E9.56007
G1 X117.851 Y74.446 E9.56763
G1 X117.051 Y74.987 E9.58084
G1 X116.067 Y75.484 E9.59592
G1 X115.157 Y75.806 E9.60914
G1 X114.079 Y76.038 E9.62422
G1 X112.749 Y76.136 E9.64248
G1 X49.420 Y76.136 E10.50907
G1 X48.688 Y76.073 E10.51913
G1 X47.736 Y75.910 E10.53234
G1 X46.682 Y75.588 E10.54742
G1 X45.802 Y75.190 E10.56064
G1 X44.863 Y74.612 E10.57572
G1 X44.112 Y74.006 E10.58893
G1 X43.349 Y73.210 E10.60402
G1 X42.775 Y72.434 E10.61723
G1 X42.238 Y71.471 E10.63231
G1 X41.878 Y70.576 E10.64553
G1 X41.600 Y69.509 E10.66061
G1 X41.477 Y68.551 E10.67382
G1 X41.442 Y68.000 E10.68138
G1 X41.442 Y52.000 E10.90032
G1 X41.477 Y51.449 E10.90788
G1 X41.600 Y50.491 E10.92109
G1 X41.878 Y49.424 E10.93617
G1 X42.238 Y48.529 E10.94939
G1 X42.775 Y47.566 E10.96447
G1 X43.349 Y46.790 E10.97768
G1 X44.060 Y46.048 E10.99174
G1 X44.393 Y46.342 F7800.000
G4 P29
G1 X45.144 Y45.735 E11.00495 F1800.000
G1 X45.986 Y45.217 E11.01849
G1 X46.866 Y44.819 E11.03170
G1 X47.811 Y44.530 E11.04523
G1 X48.763 Y44.367 E11.05844
G1 X49.420 Y44.311 E11.06747
G1 X112.749 Y44.311 E11.93406
G1 X113.079 Y44.325 E11.93859
G1 X114.041 Y44.407 E11.95180 F1800.000
G1 X115.008 Y44.615 E11.96533
G1 X115.880 Y44.924 E11.97799
G1 X116.801 Y45.383 E11.99207
G1 X117.601 Y45.923 E12.00528
G1 X117.993 Y46.226 E12.01206
G1 X124.777 Y52.200 E12.13576
G1 X125.054 Y52.470 E12.14105
G1 X125.933 Y53.414 E12.15869
G1 X126.401 Y54.028 E12.16926
G1 X127.075 Y55.127 E12.18691
G1 X127.412 Y55.822 E12.19748
G1 X127.857 Y57.033 E12.21512
G1 X128.067 Y57.900 E12.22733
G1 X128.112 Y58.504 E12.23562
G1 X128.112 Y61.496 E12.27657
G1 X128.067 Y62.100 E12.28486
G1 X127.857 Y62.967 E12.29706
G1 X127.412 Y64.178 E12.31471
G1 X127.075 Y64.873 E12.32528
G1 X126.401 Y65.972 E12.34292
G1 X125.933 Y66.586 E12.35349
G1 X125.054 Y67.530 E12.37114
G1 X124.777 Y67.800 E12.37643
G1 X117.993 Y73.774 E12.50012
G1 X117.601 Y74.077 E12.50691
G1 X116.801 Y74.617 E12.52012
G1 X115.918 Y75.063 E12.53365
G1 X115.008 Y75.385 E12.54686
G1 X114.041 Y75.593 E12.56039
G1 X112.749 Y75.689 E12.57813
G1 X49.420 Y75.689 E13.44472
G1 X48.763 Y75.633 E13.45375
G1 X47.811 Y75.470 E13.46696
G1 X46.866 Y75.181 E13.48049
G1 X45.986 Y74.783 E13.49370
G1 X45.144 Y74.265 E13.50724
G1 X44.393 Y73.658 E13.52045
G1 X43.708 Y72.944 E13.53398
G1 X43.134 Y72.168 E13.54719
G1 X42.652 Y71.305 E13.56072
G1 X42.292 Y70.409 E13.57394
G1 X42.043 Y69.452 E13.58747
G1 X41.920 Y68.494 E13.60068
G1 X41.888 Y68.000 E13.60746
G1 X41.888 Y52.000 E13.82640
G1 X41.920 Y51.506 E13.83318
G1 X42.043 Y50.548 E13.84640
G1 X42.292 Y49.591 E13.85993
G1 X42.652 Y48.695 E13.87314
G1 X43.134 Y47.832 E13.88667
G1 X43.708 Y47.056 E13.89988
G1 X44.341 Y46.396 E13.91239
G1 X44.673 Y46.689 F7800.000
G4 P29
G1 X45.424 Y46.082 E13.92560 F1800.000
G1 X46.170 Y45.623 E13.93758
G1 X47.050 Y45.226 E13.95079
G1 X47.887 Y44.970 E13.96278
G1 X48.838 Y44.807 E13.97599
G1 X49.420 Y44.757 E13.98398
G1 X113.042 Y44.770 E14.85457
G1 X114.004 Y44.852 E14.86779 F1800.000
G1 X114.859 Y45.036 E14.87977
G1 X115.732 Y45.345 E14.89243
G1 X116.551 Y45.752 E14.90496
G1 X117.351 Y46.293 E14.91817
G1 X117.698 Y46.561 E14.92417
G1 X124.482 Y52.535 E15.04786
G1 X124.728 Y52.774 E15.05255
G1 X125.606 Y53.718 E15.07019
G1 X126.020 Y54.262 E15.07955
G1 X126.695 Y55.361 E15.09720
G1 X126.993 Y55.976 E15.10655
G1 X127.438 Y57.187 E15.12420
G1 X127.624 Y57.954 E15.13501
G1 X127.665 Y58.504 E15.14255
G1 X127.665 Y61.496 E15.18350
G1 X127.624 Y62.046 E15.19104
G1 X127.438 Y62.813 E15.20185
G1 X126.993 Y64.024 E15.21949
G1 X126.695 Y64.639 E15.22885
G1 X126.020 Y65.738 E15.24650
G1 X125.606 Y66.282 E15.25585
G1 X124.728 Y67.226 E15.27350
G1 X124.482 Y67.465 E15.27818
G1 X117.698 Y73.439 E15.40188
G1 X117.351 Y73.707 E15.40788
G1 X116.551 Y74.248 E15.42109
G1 X115.770 Y74.642 E15.43307
G1 X114.859 Y74.964 E15.44629
G1 X114.004 Y75.148 E15.45827
G1 X112.749 Y75.243 E15.47548
G1 X49.420 Y75.243 E16.34207
G1 X48.838 Y75.193 E16.35007
G1 X47.887 Y75.030 E16.36328
G1 X47.050 Y74.774 E16.37526
G1 X46.170 Y74.377 E16.38847
G1 X45.424 Y73.918 E16.40045
G1 X44.673 Y73.311 E16.41366
G1 X44.067 Y72.679 E16.42564
G1 X43.493 Y71.903 E16.43885
G1 X43.066 Y71.139 E16.45084
G1 X42.706 Y70.243 E16.46405
G1 X42.485 Y69.395 E16.47603
G1 X42.363 Y68.438 E16.48924
G1 X42.335 Y68.000 E16.49524
G1 X42.335 Y52.000 E16.71419
G1 X42.363 Y51.562 E16.72019
G1 X42.485 Y50.605 E16.73340
G1 X42.706 Y49.757 E16.74538
G1 X43.066 Y48.861 E16.75859
G1 X43.493 Y48.097 E16.77057
G1 X44.067 Y47.321 E16.78378
G1 X44.621 Y46.743 E16.79474
G1 E14.79474 F1920.00000
G92 E0
G1 X93.992 Y69.205 F7800.000
G1 E2.00000 F1920.00000
G1 X93.624 Y69.713 E2.00858 F1800.000
G1 X93.141 Y70.112 E2.01716
G1 X92.573 Y70.379 E2.02575
G1 X91.957 Y70.497 E2.03433
G1 X91.331 Y70.458 E2.04291
G1 X90.735 Y70.264 E2.05149
G1 X90.205 Y69.928 E2.06007
G1 X89.776 Y69.471 E2.06865
G1 X89.485 Y68.941 E2.07693
G1 X89.318 Y68.317 E2.08576
G1 X89.318 Y67.686 E2.09439
G1 X89.474 Y67.079 E2.10297
G1 X89.776 Y66.529 E2.11155
G1 X90.205 Y66.072 E2.12014
G1 X90.735 Y65.736 E2.12872
G1 X91.331 Y65.542 E2.13730
G1 X91.935 Y65.504 E2.14558 F1800.000
G1 X92.570 Y65.619 E2.15441
G1 X93.141 Y65.888 E2.16304
G1 X93.624 Y66.287 E2.17162
G1 X93.992 Y66.795 E2.18020
G1 X94.223 Y67.378 E2.18878
G1 X94.302 Y68.000 E2.19736
G1 X94.223 Y68.622 E2.20595
G1 X94.020 Y69.136 E2.21350
G1 X93.598 Y68.989 F7800.000
G4 P29
G1 X93.296 Y69.405 E2.22054 F1800.000
G1 X92.899 Y69.733 E2.22758
G1 X92.434 Y69.952 E2.23462
G1 X91.929 Y70.048 E2.24166
G1 X91.415 Y70.016 E2.24869
G1 X90.926 Y69.857 E2.25573
G1 X90.492 Y69.581 E2.26277
G1 X90.140 Y69.206 E2.26981
G1 X89.902 Y68.773 E2.27657
G1 X89.764 Y68.258 E2.28386
G1 X89.764 Y67.743 E2.29092
G1 X89.892 Y67.245 E2.29796
G1 X90.140 Y66.794 E2.30499
G1 X90.492 Y66.419 E2.31203
G1 X90.926 Y66.143 E2.31907
G1 X91.415 Y65.984 E2.32611
G1 X91.909 Y65.953 E2.33287 F1800.000
G1 X92.433 Y66.048 E2.34016
G1 X92.899 Y66.267 E2.34722
G1 X93.296 Y66.595 E2.35426
G1 X93.598 Y67.011 E2.36129
G1 X93.788 Y67.490 E2.36833
G1 X93.852 Y68.000 E2.37537
G1 X93.788 Y68.510 E2.38241
G1 X93.626 Y68.919 E2.38842
G4 P1
G1 X93.839 Y69.427 F7800.000
G1 X94.618 Y69.059 F7800.000
G1 X94.752 Y68.000 E2.40303 F1800.000
G1 X94.659 Y67.266 E2.41316
G1 X94.387 Y66.578 E2.42328
G1 X93.952 Y65.979 E2.43341
G1 X93.382 Y65.508 E2.44353
G1 X92.707 Y65.190 E2.45374
G1 X91.961 Y65.056 E2.46411
G1 X91.247 Y65.101 E2.47390
G1 X90.543 Y65.329 E2.48403
G1 X89.918 Y65.726 E2.49415
G1 X89.412 Y66.265 E2.50428
G1 X89.344 Y66.389 E2.50621
G1 X89.143 Y66.337 E2.50905
G1 X89.143 Y53.663 E2.68249
G1 X89.344 Y53.611 E2.68533
G1 X89.412 Y53.735 E2.68727
G1 X89.918 Y54.274 E2.69739
G1 X90.543 Y54.671 E2.70752
G1 X91.247 Y54.899 E2.71764
G1 X91.985 Y54.946 E2.72777
G1 X92.712 Y54.807 E2.73789
G1 X93.382 Y54.492 E2.74802
G1 X93.952 Y54.021 E2.75814
G1 X94.387 Y53.422 E2.76827
G1 X94.659 Y52.734 E2.77839
G1 X94.752 Y52.000 E2.78852
G1 X94.618 Y50.941 E2.80313
G1 X98.611 Y54.456 E2.87592
G1 X98.495 Y54.648 E2.87898
G1 X98.108 Y54.500 E2.88465
G1 X96.614 Y54.358 E2.90519
G1 X95.231 Y54.570 E2.92434
G1 X93.898 Y55.150 E2.94423
G1 X92.757 Y56.050 E2.96412
G1 X91.883 Y57.212 E2.98401
G1 X91.335 Y58.558 E3.00391
G1 X91.155 Y59.946 E3.02306
G1 X91.332 Y61.436 E3.04359
G1 X91.883 Y62.788 E3.06356
G1 X92.757 Y63.950 E3.08345
G1 X93.898 Y64.850 E3.10335
G1 X95.231 Y65.430 E3.12324
G1 X96.668 Y65.651 E3.14313
G1 X98.113 Y65.498 E3.16302
G1 X98.495 Y65.352 E3.16861
G1 X98.611 Y65.544 E3.17167
G1 X94.674 Y69.010 E3.24344
G1 E1.24344 F1920.00000
G92 E0
G1 X91.957 Y54.497 F7800.000
G1 E2.00000 F1920.00000
G1 X91.331 Y54.458 E2.00858 F1800.000
G1 X90.735 Y54.264 E2.01716
G1 X90.205 Y53.928 E2.02575
G1 X89.776 Y53.471 E2.03433
G1 X89.485 Y52.941 E2.04260
G1 X89.318 Y52.317 E2.05143
G1 X89.318 Y51.686 E2.06006
G1 X89.468 Y51.101 E2.06834
G1 X89.774 Y50.532 E2.07717
G1 X90.205 Y50.072 E2.08580
G1 X90.735 Y49.736 E2.09438
G1 X91.331 Y49.542 E2.10297
G1 X91.935 Y49.504 E2.11124 F1800.000
G1 X92.570 Y49.619 E2.12007
G1 X93.141 Y49.888 E2.12870
G1 X93.624 Y50.287 E2.13728
G1 X93.992 Y50.795 E2.14587
G1 X94.223 Y51.378 E2.15445
G1 X94.302 Y52.000 E2.16303
G1 X94.223 Y52.622 E2.17161
G1 X93.992 Y53.205 E2.18019
G1 X93.624 Y53.713 E2.18877
G1 X93.141 Y54.112 E2.19736
G1 X92.573 Y54.379 E2.20594
G1 X92.031 Y54.483 E2.21349
G1 X91.929 Y54.048 F7800.000
G1 X91.415 Y54.016 E2.22053 F1800.000
G1 X90.926 Y53.857 E2.22757
G1 X90.492 Y53.581 E2.23461
G1 X90.140 Y53.206 E2.24165
G1 X89.902 Y52.773 E2.24841
G1 X89.764 Y52.258 E2.25570
G1 X89.764 Y51.743 E2.26276
G1 X89.887 Y51.264 E2.26952
G1 X90.139 Y50.795 E2.27681
G1 X90.492 Y50.419 E2.28386
G1 X90.926 Y50.143 E2.29090
G1 X91.415 Y49.984 E2.29794
G1 X91.909 Y49.953 E2.30470 F1800.000
G1 X92.433 Y50.048 E2.31199
G1 X92.899 Y50.267 E2.31905
G1 X93.296 Y50.595 E2.32609
G1 X93.598 Y51.011 E2.33313
G1 X93.788 Y51.490 E2.34016
G1 X93.852 Y52.000 E2.34720
G1 X93.788 Y52.510 E2.35424
G1 X93.598 Y52.989 E2.36128
G1 X93.296 Y53.405 E2.36832
G1 X92.899 Y53.733 E2.37536
G1 X92.434 Y53.952 E2.38239
G1 X92.003 Y54.034 E2.38841
G1 X91.688 Y54.486 F7800.000
G1 E0.38841 F1920.00000
G92 E0
G1 X102.326 Y58.304 F7800.000
G1 E2.00000 F1920.00000
G1 X101.699 Y58.304 E2.00857 F1800.000
G1 X101.200 Y57.225 E2.02483
G1 X100.347 Y56.195 E2.04314
G1 X99.259 Y55.416 E2.06144
G1 X98.005 Y54.939 E2.07980
G1 X96.627 Y54.807 E2.09875
G1 X95.356 Y55.002 E2.11635
G1 X94.129 Y55.536 E2.13466
G1 X93.079 Y56.365 E2.15296
G1 X92.275 Y57.434 E2.17127
G1 X91.770 Y58.673 E2.18958
G1 X91.605 Y59.949 E2.20718
G1 X91.769 Y61.323 E2.22613
G1 X92.275 Y62.566 E2.24448
G1 X93.079 Y63.635 E2.26279
G1 X94.129 Y64.464 E2.28110
G1 X95.356 Y64.998 E2.29941
G1 X96.678 Y65.201 E2.31772
G1 X98.009 Y65.060 E2.33603
G1 X99.259 Y64.584 E2.35433
G1 X100.347 Y63.805 E2.37264
G1 X101.200 Y62.775 E2.39095
G1 X101.699 Y61.696 E2.40721
G1 X102.326 Y61.696 E2.41578
G1 X102.019 Y62.530 E2.42794
G1 X101.417 Y63.511 E2.44368
G1 X100.609 Y64.379 E2.45991
G1 X93.884 Y70.300 E2.58252
G1 X93.195 Y70.766 E2.59390
G1 X92.453 Y71.028 E2.60467
G1 X91.669 Y71.095 E2.61544
G1 X90.893 Y70.962 E2.62621
G1 X90.176 Y70.638 E2.63698
G1 X89.564 Y70.144 E2.64775
G1 X89.117 Y69.540 E2.65802
G1 X88.802 Y68.777 E2.66933
G1 X88.696 Y67.956 E2.68066
G1 X88.696 Y52.048 E2.89834
G1 X88.816 Y51.185 E2.91026
G1 X89.095 Y50.489 E2.92053
G1 X89.564 Y49.856 E2.93130
G1 X90.176 Y49.362 E2.94207
G1 X90.893 Y49.038 E2.95284
G1 X91.669 Y48.905 E2.96361
G1 X92.417 Y48.969 E2.97388
G1 X93.198 Y49.236 E2.98518
G1 X93.884 Y49.700 E2.99651
G1 X100.609 Y55.621 E3.11913
G1 X101.417 Y56.489 E3.13535
G1 X102.019 Y57.470 E3.15110
G1 X102.300 Y58.233 E3.16223
G1 X102.857 Y58.502 F7800.000
G1 X102.825 Y58.621 E3.16392 F1800.000
G1 X102.783 Y58.677 E3.16487
G1 X102.673 Y58.740 E3.16660
G1 X101.586 Y58.750 E3.18149
