; generated by Slic3r 1.2.9 on 2016-01-28 at 20:53:37

; external perimeters extrusion width = 0.50mm
; perimeters extrusion width = 0.50mm
; infill extrusion width = 0.50mm
; solid infill extrusion width = 0.50mm
; top infill extrusion width = 0.50mm

M107
M190 S70 ; set bed temperature
M104 S220 ; set temperature
G28 ; home all axes
M109 S220 ; wait for temperature to be reached
G21 ; set units to millimeters
G90 ; use absolute coordinates
M82 ; use absolute distances for extrusion
G92 E0
G1 Z0.350 F7800.000
G1 E-2.00000 F1920.00000
G92 E0
G1 X32.882 Y33.903 F7800.000
G1 E2.00000 F1920.00000
M204 S3000
G1 X33.665 Y33.299 E2.01353 F1800.000
G1 X34.841 Y32.614 E2.03215
G1 X35.752 Y32.232 E2.04567
G1 X37.065 Y31.873 E2.06429
G1 X38.134 Y31.727 E2.07906
G1 X55.022 Y29.718 E2.31179
G1 X88.597 Y27.507 E2.77222
G1 X113.628 Y27.361 E3.11476
G1 X117.531 Y27.363 E3.16816
G1 X117.820 Y27.369 E3.17212 F1800.000
G1 X118.801 Y27.485 E3.18563
G1 X119.933 Y27.728 E3.20147
G1 X120.383 Y27.846 E3.20784
G1 X121.487 Y28.189 E3.22366
G1 X121.925 Y28.346 E3.23003
G1 X122.995 Y28.786 E3.24586
G1 X123.416 Y28.982 E3.25222
G1 X124.443 Y29.514 E3.26804
G1 X124.846 Y29.747 E3.27441
G1 X125.821 Y30.369 E3.29023
G1 X126.205 Y30.639 E3.29666
G1 X127.117 Y31.342 E3.31242
G1 X127.473 Y31.643 E3.31879
G1 X128.322 Y32.427 E3.33461
G1 X128.649 Y32.758 E3.34098
G1 X129.426 Y33.615 E3.35680
G1 X129.722 Y33.973 E3.36317
G1 X130.419 Y34.896 E3.37899
G1 X130.683 Y35.279 E3.38536
G1 X131.296 Y36.260 E3.40118
G1 X131.524 Y36.665 E3.40755
G1 X132.047 Y37.697 E3.42337
G1 X132.239 Y38.121 E3.42974
G1 X132.668 Y39.194 E3.44556
G1 X132.821 Y39.633 E3.45192
G1 X133.153 Y40.741 E3.46775
G1 X133.267 Y41.192 E3.47412
G1 X133.540 Y42.554 E3.49313
G1 X140.177 Y84.282 E4.07131
G1 X140.240 Y84.963 E4.08067
G1 X140.254 Y85.485 E4.08782
G1 X140.112 Y86.844 E4.10651
G1 X139.991 Y87.349 E4.11362
G1 X139.502 Y88.627 E4.13234
G1 X139.252 Y89.088 E4.13952
G1 X138.451 Y90.191 E4.15817
G1 X138.093 Y90.568 E4.16529
G1 X137.031 Y91.430 E4.18401
G1 X136.586 Y91.703 E4.19115
G1 X135.339 Y92.260 E4.20984
G1 X134.838 Y92.408 E4.21698
G1 X133.491 Y92.623 E4.23566
G1 X132.827 Y92.639 E4.24474
G1 X98.243 Y92.639 E4.71799
G1 X97.580 Y92.623 E4.72706
G1 X49.360 Y89.347 E5.38843
G1 X48.026 Y89.177 E5.40684
G1 X46.713 Y88.819 E5.42546
G1 X45.802 Y88.436 E5.43898
G1 X44.626 Y87.751 E5.45760
G1 X43.843 Y87.147 E5.47113
G1 X42.884 Y86.182 E5.48975
G1 X42.284 Y85.397 E5.50328
G1 X41.697 Y84.425 E5.51881
G1 X30.736 Y60.819 E5.87495
G1 X30.268 Y59.697 E5.89159
G1 X29.917 Y58.383 E5.91021
G1 X29.789 Y57.402 E5.92374
G1 X29.744 Y56.722 E5.93307
G1 X29.744 Y40.722 E6.15201
G1 X29.789 Y40.042 E6.16134
G1 X29.917 Y39.062 E6.17487
G1 X30.268 Y37.747 E6.19349
G1 X30.645 Y36.833 E6.20701
G1 X31.323 Y35.654 E6.22564
G1 X31.923 Y34.868 E6.23916
G1 X32.830 Y33.956 E6.25676
G1 X33.155 Y34.256 F7800.000
G4 P29
G1 X33.938 Y33.652 E6.27028 F1800.000
G1 X35.013 Y33.025 E6.28732
G1 X35.925 Y32.643 E6.30084
G1 X37.125 Y32.315 E6.31787
G1 X38.187 Y32.171 E6.33253
G1 X55.052 Y30.164 E6.56494
G1 X88.626 Y27.952 E7.02537
G1 X113.631 Y27.808 E7.36754
G1 X117.521 Y27.809 E7.42077
G1 X117.810 Y27.815 E7.42473 F1800.000
G1 X118.707 Y27.921 E7.43709
G1 X119.839 Y28.164 E7.45293
G1 X120.250 Y28.272 E7.45875
G1 X121.355 Y28.615 E7.47457
G1 X121.755 Y28.759 E7.48040
G1 X122.825 Y29.199 E7.49623
G1 X123.211 Y29.378 E7.50205
G1 X124.237 Y29.911 E7.51787
G1 X124.606 Y30.123 E7.52369
G1 X125.580 Y30.745 E7.53952
G1 X125.932 Y30.992 E7.54540
G1 X126.844 Y31.696 E7.56116
G1 X127.170 Y31.970 E7.56699
G1 X128.019 Y32.755 E7.58281
G1 X128.319 Y33.057 E7.58863
G1 X129.095 Y33.914 E7.60446
G1 X129.366 Y34.242 E7.61028
G1 X130.063 Y35.165 E7.62610
G1 X130.305 Y35.515 E7.63193
G1 X130.917 Y36.496 E7.64775
G1 X131.126 Y36.867 E7.65357
G1 X131.649 Y37.898 E7.66940
G1 X131.824 Y38.286 E7.67522
G1 X132.253 Y39.360 E7.69104
G1 X132.393 Y39.761 E7.69686
G1 X132.725 Y40.869 E7.71269
G1 X132.829 Y41.282 E7.71851
G1 X133.100 Y42.624 E7.73725
G1 X139.736 Y84.352 E8.31543
G1 X139.794 Y84.975 E8.32400
G1 X139.808 Y85.497 E8.33114
G1 X139.678 Y86.740 E8.34824
G1 X139.557 Y87.245 E8.35535
G1 X139.110 Y88.414 E8.37247
G1 X138.860 Y88.875 E8.37965
G1 X138.127 Y89.884 E8.39671
G1 X137.770 Y90.261 E8.40383
G1 X136.798 Y91.050 E8.42095
G1 X136.353 Y91.323 E8.42810
G1 X135.212 Y91.832 E8.44519
G1 X134.711 Y91.980 E8.45234
G1 X133.479 Y92.177 E8.46942
G1 X132.827 Y92.192 E8.47833
G1 X98.243 Y92.192 E8.95159
G1 X97.592 Y92.177 E8.96049
G1 X49.390 Y88.902 E9.62161
G1 X48.086 Y88.735 E9.63960
G1 X46.886 Y88.407 E9.65663
G1 X45.974 Y88.025 E9.67015
G1 X44.899 Y87.398 E9.68719
G1 X44.116 Y86.794 E9.70071
G1 X43.239 Y85.911 E9.71775
G1 X42.639 Y85.126 E9.73127
G1 X42.102 Y84.237 E9.74548
G1 X31.141 Y60.631 E10.10162
G1 X30.681 Y59.527 E10.11799
G1 X30.360 Y58.325 E10.13503
G1 X30.231 Y57.344 E10.14856
G1 X30.190 Y56.722 E10.15709
G1 X30.190 Y40.722 E10.37603
G1 X30.231 Y40.100 E10.38457
G1 X30.360 Y39.120 E10.39809
G1 X30.681 Y37.917 E10.41512
G1 X31.058 Y37.004 E10.42865
G1 X31.678 Y35.924 E10.44568
G1 X32.278 Y35.139 E10.45921
G1 X33.103 Y34.309 E10.47521
G1 X33.428 Y34.609 F7800.000
G4 P29
G1 X34.211 Y34.005 E10.48874 F1800.000
G1 X35.186 Y33.437 E10.50418
G1 X36.097 Y33.055 E10.51771
G1 X37.186 Y32.758 E10.53315
G1 X38.240 Y32.614 E10.54771
G1 X55.081 Y30.609 E10.77979
G1 X88.656 Y28.398 E11.24022
G1 X113.633 Y28.254 E11.58202
G1 X117.511 Y28.255 E11.63508
G1 X117.800 Y28.262 E11.63904 F1800.000
G1 X118.613 Y28.357 E11.65024
G1 X119.745 Y28.601 E11.66608
G1 X120.118 Y28.699 E11.67136
G1 X121.222 Y29.041 E11.68719
G1 X121.586 Y29.172 E11.69247
G1 X122.655 Y29.612 E11.70829
G1 X123.005 Y29.774 E11.71357
G1 X124.031 Y30.307 E11.72939
G1 X124.366 Y30.500 E11.73468
G1 X125.340 Y31.121 E11.75050
G1 X125.660 Y31.346 E11.75584
G1 X126.572 Y32.049 E11.77160
G1 X126.867 Y32.298 E11.77688
G1 X127.716 Y33.083 E11.79271
G1 X127.988 Y33.357 E11.79799
G1 X128.764 Y34.214 E11.81381
G1 X129.010 Y34.511 E11.81909
G1 X129.707 Y35.434 E11.83491
G1 X129.926 Y35.752 E11.84019
G1 X130.538 Y36.733 E11.85602
G1 X130.728 Y37.069 E11.86130
G1 X131.251 Y38.100 E11.87712
G1 X131.410 Y38.452 E11.88240
G1 X131.839 Y39.525 E11.89822
G1 X131.966 Y39.889 E11.90350
G1 X132.298 Y40.997 E11.91933
G1 X132.392 Y41.372 E11.92461
G1 X132.659 Y42.694 E11.94307
G1 X139.295 Y84.422 E12.52125
G1 X139.348 Y84.987 E12.52902
G1 X139.362 Y85.509 E12.53616
G1 X139.244 Y86.636 E12.55166
G1 X139.123 Y87.141 E12.55878
G1 X138.717 Y88.201 E12.57431
G1 X138.467 Y88.662 E12.58148
G1 X137.803 Y89.577 E12.59695
G1 X137.446 Y89.954 E12.60407
G1 X136.564 Y90.669 E12.61960
G1 X136.119 Y90.943 E12.62674
G1 X135.085 Y91.404 E12.64224
G1 X134.584 Y91.553 E12.64939
G1 X133.466 Y91.730 E12.66487
G1 X132.827 Y91.746 E12.67362
G1 X98.243 Y91.746 E13.14688
G1 X97.604 Y91.730 E13.15562
G1 X49.421 Y88.457 E13.81648
G1 X48.147 Y88.293 E13.83406
G1 X47.058 Y87.995 E13.84950
G1 X46.147 Y87.613 E13.86303
G1 X45.171 Y87.045 E13.87847
G1 X44.389 Y86.441 E13.89200
G1 X43.593 Y85.640 E13.90744
G1 X42.994 Y84.855 E13.92097
G1 X42.507 Y84.049 E13.93385
G1 X31.546 Y60.443 E14.28999
G1 X31.093 Y59.357 E14.30610
G1 X30.802 Y58.267 E14.32154
G1 X30.674 Y57.286 E14.33507
G1 X30.637 Y56.722 E14.34281
G1 X30.637 Y40.722 E14.56175
G1 X30.674 Y40.158 E14.56949
G1 X30.802 Y39.178 E14.58301
G1 X31.093 Y38.087 E14.59846
G1 X31.470 Y37.174 E14.61198
G1 X32.033 Y36.195 E14.62743
G1 X32.633 Y35.410 E14.64095
G1 X33.375 Y34.663 E14.65537
G1 X33.701 Y34.963 F7800.000
G4 P29
G1 X34.483 Y34.358 E14.66890 F1800.000
G1 X35.358 Y33.849 E14.68275
G1 X36.270 Y33.466 E14.69628
G1 X37.247 Y33.200 E14.71013
G1 X38.293 Y33.057 E14.72458
G1 X55.110 Y31.054 E14.95634
G1 X88.685 Y28.843 E15.41677
G1 X113.636 Y28.700 E15.75820
G1 X117.501 Y28.701 E15.81109
G1 X117.790 Y28.708 E15.81505 F1800.000
G1 X118.519 Y28.794 E15.82510
G1 X119.986 Y29.125 E15.84567
G1 X121.416 Y29.585 E15.86623
G1 X122.486 Y30.024 E15.88206
G1 X123.826 Y30.703 E15.90261
G1 X125.100 Y31.498 E15.92317
G1 X125.387 Y31.700 E15.92797
G1 X126.564 Y32.626 E15.94846
G1 X127.413 Y33.411 E15.96429
G1 X128.433 Y34.514 E15.98484
G1 X128.654 Y34.780 E15.98958
G1 X129.547 Y35.988 E16.01014
G1 X130.160 Y36.969 E16.02596
G1 X130.853 Y38.302 E16.04652
G1 X131.424 Y39.691 E16.06707
G1 X131.870 Y41.126 E16.08763
G1 X131.955 Y41.461 E16.09237
G1 X132.218 Y42.764 E16.11056
G1 X138.855 Y84.492 E16.68874
G1 X138.901 Y84.999 E16.69571
G1 X138.915 Y85.521 E16.70285
G1 X138.810 Y86.532 E16.71676
G1 X138.689 Y87.037 E16.72387
G1 X138.325 Y87.989 E16.73781
G1 X138.075 Y88.449 E16.74497
G1 X137.479 Y89.270 E16.75886
G1 X137.122 Y89.647 E16.76597
G1 X136.331 Y90.289 E16.77991
G1 X135.886 Y90.562 E16.78705
G1 X134.958 Y90.976 E16.80096
G1 X134.457 Y91.125 E16.80810
G1 X133.454 Y91.284 E16.82199
G1 X132.827 Y91.300 E16.83058
G1 X98.243 Y91.300 E17.30383
G1 X97.616 Y91.284 E17.31241
G1 X49.451 Y88.012 E17.97303
G1 X48.207 Y87.850 E17.99018
G1 X47.231 Y87.584 E18.00404
G1 X46.319 Y87.201 E18.01756
G1 X45.444 Y86.692 E18.03142
G1 X44.662 Y86.088 E18.04494
G1 X43.948 Y85.370 E18.05880
G1 X43.348 Y84.584 E18.07233
G1 X42.912 Y83.861 E18.08388
G1 X31.951 Y60.255 E18.44003
G1 X31.506 Y59.187 E18.45587
G1 X31.245 Y58.209 E18.46972
G1 X31.116 Y57.228 E18.48325
G1 X31.083 Y56.722 E18.49019
G1 X31.083 Y40.722 E18.70913
G1 X31.116 Y40.216 E18.71608
G1 X31.245 Y39.236 E18.72960
G1 X31.506 Y38.258 E18.74346
G1 X31.883 Y37.344 E18.75698
G1 X32.387 Y36.466 E18.77084
G1 X32.987 Y35.681 E18.78436
G1 X33.648 Y35.016 E18.79719
G1 X33.974 Y35.316 F7800.000
G4 P29
G1 X34.756 Y34.711 E18.81072 F1800.000
G1 X35.531 Y34.260 E18.82299
G1 X36.442 Y33.878 E18.83651
G1 X37.307 Y33.642 E18.84878
G1 X38.346 Y33.500 E18.86312
G1 X55.140 Y31.500 E19.09455
G1 X88.714 Y29.289 E19.55499
G1 X113.638 Y29.147 E19.89605
G1 X117.491 Y29.148 E19.94877
G1 X117.779 Y29.154 E19.95272 F1800.000
G1 X118.426 Y29.230 E19.96162
G1 X119.853 Y29.551 E19.98165
G1 X121.246 Y29.998 E20.00167
G1 X122.316 Y30.437 E20.01749
G1 X123.620 Y31.099 E20.03750
G1 X124.860 Y31.874 E20.05752
G1 X125.115 Y32.053 E20.06177
G1 X126.261 Y32.954 E20.08172
G1 X127.110 Y33.739 E20.09755
G1 X128.102 Y34.813 E20.11756
G1 X128.298 Y35.049 E20.12175
G1 X129.169 Y36.225 E20.14177
G1 X129.932 Y37.472 E20.16178
G1 X130.454 Y38.504 E20.17761
G1 X131.010 Y39.857 E20.19762
G1 X131.443 Y41.254 E20.21763
G1 X131.777 Y42.835 E20.23974
G1 X138.414 Y84.562 E20.81792
G1 X138.455 Y85.011 E20.82409
G1 X138.469 Y85.533 E20.83124
G1 X138.376 Y86.428 E20.84355
G1 X138.255 Y86.933 E20.85066
G1 X137.932 Y87.776 E20.86300
G1 X137.683 Y88.236 E20.87017
G1 X137.155 Y88.963 E20.88246
G1 X136.798 Y89.340 E20.88957
G1 X136.097 Y89.909 E20.90192
G1 X135.652 Y90.182 E20.90906
G1 X134.831 Y90.548 E20.92137
G1 X134.330 Y90.697 E20.92852
G1 X133.442 Y90.838 E20.94082
G1 X132.827 Y90.853 E20.94924
G1 X98.243 Y90.853 E21.42249
G1 X97.628 Y90.838 E21.43090
G1 X49.481 Y87.566 E22.09127
G1 X48.268 Y87.408 E22.10801
G1 X47.403 Y87.172 E22.12027
G1 X46.492 Y86.790 E22.13380
G1 X45.717 Y86.339 E22.14607
G1 X44.935 Y85.734 E22.15959
G1 X44.303 Y85.099 E22.17186
G1 X43.703 Y84.313 E22.18538
G1 X43.317 Y83.673 E22.19562
G1 X32.356 Y60.067 E22.55176
G1 X31.918 Y59.017 E22.56734
G1 X31.687 Y58.150 E22.57960
G1 X31.559 Y57.170 E22.59313
G1 X31.530 Y56.722 E22.59927
G1 X31.530 Y40.722 E22.81822
G1 X31.559 Y40.274 E22.82436
G1 X31.687 Y39.294 E22.83789
G1 X31.919 Y38.428 E22.85016
G1 X32.295 Y37.514 E22.86368
G1 X32.742 Y36.737 E22.87595
G1 X33.342 Y35.951 E22.88947
G1 X33.921 Y35.369 E22.90071
G1 E20.90071 F1920.00000
G92 E0
G1 X57.580 Y55.944 F7800.000
G1 E2.00000 F1920.00000
G1 X57.212 Y56.451 E2.00858 F1800.000
G1 X56.728 Y56.851 E2.01716
G1 X56.181 Y57.109 E2.02544
G1 X55.548 Y57.236 E2.03427
G1 X54.919 Y57.196 E2.04290
G1 X54.323 Y57.002 E2.05148
G1 X53.793 Y56.666 E2.06006
G1 X53.364 Y56.209 E2.06865
G1 X53.062 Y55.660 E2.07723
G1 X52.906 Y55.052 E2.08581
G1 X52.906 Y54.425 E2.09439
G1 X53.056 Y53.839 E2.10267
G1 X53.361 Y53.271 E2.11150
G1 X53.793 Y52.811 E2.12013
G1 X54.323 Y52.475 E2.12871
G1 X54.919 Y52.281 E2.13729
G1 X55.523 Y52.243 E2.14557 F1800.000
G1 X56.158 Y52.358 E2.15440
G1 X56.728 Y52.626 E2.16303
G1 X57.212 Y53.026 E2.17161
G1 X57.580 Y53.533 E2.18019
G1 X57.803 Y54.096 E2.18847
G1 X57.890 Y54.735 E2.19730
G1 X57.811 Y55.361 E2.20593
G1 X57.608 Y55.874 E2.21349
G1 X57.186 Y55.727 F7800.000
G4 P29
G1 X56.884 Y56.143 E2.22053 F1800.000
G1 X56.487 Y56.471 E2.22756
G1 X56.040 Y56.682 E2.23433
G1 X55.518 Y56.787 E2.24162
G1 X55.003 Y56.754 E2.24867
G1 X54.514 Y56.595 E2.25571
G1 X54.080 Y56.320 E2.26275
G1 X53.728 Y55.945 E2.26979
G1 X53.480 Y55.494 E2.27683
G1 X53.352 Y54.996 E2.28387
G1 X53.352 Y54.481 E2.29090
G1 X53.475 Y54.003 E2.29767
G1 X53.727 Y53.533 E2.30496
G1 X54.080 Y53.158 E2.31201
G1 X54.514 Y52.882 E2.31905
G1 X55.003 Y52.723 E2.32609
G1 X55.497 Y52.692 E2.33285 F1800.000
G1 X56.021 Y52.787 E2.34014
G1 X56.487 Y53.006 E2.34720
G1 X56.884 Y53.334 E2.35424
G1 X57.186 Y53.750 E2.36127
G1 X57.368 Y54.210 E2.36804
G1 X57.440 Y54.737 E2.37533
G1 X57.375 Y55.249 E2.38238
G1 X57.214 Y55.657 E2.38840
G4 P1
G1 X57.427 Y56.165 F7800.000
G1 X58.428 Y55.476 F7800.000
G4 P19
G1 X58.257 Y55.392 E2.39100 F1800.000
G4 P26
G1 X58.340 Y54.733 E2.40009
G4 P11
G1 X58.238 Y53.982 E2.41047
G1 X57.974 Y53.317 E2.42026
G1 X57.540 Y52.718 E2.43038
G1 X56.969 Y52.246 E2.44051
G1 X56.295 Y51.929 E2.45071
G1 X55.549 Y51.794 E2.46108
G1 X54.835 Y51.839 E2.47087
G1 X54.131 Y52.068 E2.48100
G1 X53.506 Y52.464 E2.49112
G1 X52.996 Y53.008 E2.50133
G1 X52.933 Y53.125 E2.50314
G1 X52.731 Y53.074 E2.50600
G1 X52.731 Y40.401 E2.67941
G1 X52.932 Y40.350 E2.68225
G1 X53.000 Y40.474 E2.68419
G1 X53.506 Y41.013 E2.69431
G1 X54.131 Y41.409 E2.70444
G1 X54.835 Y41.638 E2.71456
G1 X55.573 Y41.685 E2.72469
G1 X56.300 Y41.546 E2.73481
G1 X56.969 Y41.231 E2.74494
G1 X57.540 Y40.759 E2.75506
G1 X57.974 Y40.161 E2.76519
G1 X58.247 Y39.473 E2.77531
G1 X58.340 Y38.739 E2.78544
G1 X58.257 Y38.085 E2.79445
G4 P11
G1 X58.428 Y38.001 E2.79705
G1 X62.243 Y41.751 E2.87027
G1 X62.128 Y41.934 E2.87323
G1 X61.524 Y41.713 E2.88203
G1 X60.219 Y41.590 E2.89997
G1 X58.951 Y41.786 E2.91752
G1 X57.712 Y42.336 E2.93607
G1 X56.684 Y43.158 E2.95408
G1 X55.897 Y44.213 E2.97209
G1 X55.404 Y45.433 E2.99010
G1 X55.236 Y46.739 E3.00812
G1 X55.404 Y48.044 E3.02613
G1 X55.897 Y49.264 E3.04414
G1 X56.684 Y50.320 E3.06215
G1 X57.712 Y51.141 E3.08016
G1 X58.915 Y51.676 E3.09817
G1 X60.214 Y51.888 E3.11618
G1 X61.524 Y51.764 E3.13419
G1 X62.128 Y51.543 E3.14299
G1 X62.243 Y51.726 E3.14595
G1 X58.481 Y55.424 E3.21813
G1 E1.21813 F1920.00000
G92 E0
G1 X55.705 Y41.205 F7800.000
G1 E2.00000 F1920.00000
G1 X55.545 Y41.236 E2.00223 F1800.000
G4 P27
G1 X54.919 Y41.196 E2.01082
G1 X54.323 Y41.002 E2.01940
G1 X53.793 Y40.666 E2.02798
G1 X53.364 Y40.209 E2.03656
G1 X53.062 Y39.660 E2.04514
G1 X52.906 Y39.052 E2.05373
G1 X52.906 Y38.425 E2.06231
G1 X53.056 Y37.839 E2.07058
G1 X53.361 Y37.271 E2.07941
G1 X53.793 Y36.811 E2.08804
G1 X54.323 Y36.475 E2.09663
G1 X54.919 Y36.281 E2.10521
G1 X55.523 Y36.243 E2.11348 F1800.000
G1 X56.158 Y36.358 E2.12232
G1 X56.728 Y36.626 E2.13095
G1 X57.212 Y37.026 E2.13953
G1 X57.580 Y37.533 E2.14811
G1 X57.811 Y38.116 E2.15669
G1 X57.890 Y38.739 E2.16527
G1 X57.811 Y39.361 E2.17386
G1 X57.580 Y39.944 E2.18244
G1 X57.212 Y40.451 E2.19102
G1 X56.728 Y40.851 E2.19960
G1 X56.161 Y41.118 E2.20818
G1 X55.779 Y41.191 E2.21350
G1 X55.622 Y40.767 F7800.000
G4 P29
G1 X55.517 Y40.787 E2.21497 F1800.000
G4 P29
G1 X55.003 Y40.754 E2.22200
G1 X54.514 Y40.595 E2.22904
G1 X54.080 Y40.320 E2.23608
G1 X53.728 Y39.945 E2.24312
G1 X53.480 Y39.494 E2.25016
G1 X53.352 Y38.996 E2.25720
G1 X53.352 Y38.481 E2.26424
G1 X53.475 Y38.003 E2.27100
G1 X53.727 Y37.533 E2.27829
G1 X54.080 Y37.158 E2.28534
G1 X54.514 Y36.882 E2.29238
G1 X55.003 Y36.723 E2.29942
G1 X55.497 Y36.692 E2.30619 F1800.000
G1 X56.021 Y36.787 E2.31347
G1 X56.487 Y37.006 E2.32053
G1 X56.884 Y37.334 E2.32757
G1 X57.186 Y37.750 E2.33461
G1 X57.375 Y38.228 E2.34165
G1 X57.440 Y38.739 E2.34868
