; generated by Slic3r 1.2.9 on 2016-01-02 at 21:33:40

; external perimeters extrusion width = 0.50mm
; perimeters extrusion width = 0.50mm
; infill extrusion width = 0.50mm
; solid infill extrusion width = 0.50mm
; top infill extrusion width = 0.50mm

M107
M190 S60 ; set bed temperature
M104 S210 ; set temperature
G28 ; home all axes
M109 S210 ; wait for temperature to be reached
G21 ; set units to millimeters
G90 ; use absolute coordinates
M82 ; use absolute distances for extrusion
G92 E0
G1 Z0.350 F7800.000
G1 E-2.00000 F1920.00000
G92 E0
G1 X79.154 Y29.837 F7800.000
G1 E2.00000 F1920.00000
M204 S3000
G1 X80.219 Y28.829 E2.01114 F1500.000
G1 X81.500 Y28.511 E2.02117
G1 X88.500 Y28.511 E2.07435
G1 X89.913 Y28.904 E2.08549
G1 X90.921 Y29.969 E2.09664 F1500.000
G1 X91.239 Y31.250 E2.10666
G1 X91.239 Y88.750 E2.54350
G1 X90.846 Y90.163 E2.55465
G1 X89.781 Y91.171 E2.56579
G1 X88.500 Y91.489 E2.57582
G1 X81.500 Y91.489 E2.62900
G1 X80.087 Y91.096 E2.64014
G1 X79.079 Y90.031 E2.65128
G1 X78.761 Y88.750 E2.66131
G1 X78.761 Y31.250 E3.09815
G1 X79.134 Y29.909 E3.10873
G1 X79.399 Y29.909 F7800.000
G1 X80.452 Y28.988 E3.11935 F1500.000
G1 X81.500 Y28.757 E3.12750
G1 X88.500 Y28.757 E3.18068
G1 X89.842 Y29.149 E3.19130
G1 X90.762 Y30.202 E3.20192 F1500.000
G1 X90.993 Y31.250 E3.21008
G1 X90.993 Y88.750 E3.64692
G1 X90.601 Y90.092 E3.65754
G1 X89.548 Y91.012 E3.66816
G1 X88.500 Y91.243 E3.67631
G1 X81.500 Y91.243 E3.72949
G1 X80.158 Y90.851 E3.74012
G1 X79.238 Y89.798 E3.75074
G1 X79.007 Y88.750 E3.75889
G1 X79.007 Y31.250 E4.19573
G1 X79.378 Y29.981 E4.20578
G1 X79.644 Y29.984 F7800.000
G4 P31
G1 X80.682 Y29.158 E4.21585 F1500.000
G1 X81.500 Y29.004 E4.22218
G1 X88.500 Y29.004 E4.27536
G1 X89.767 Y29.395 E4.28543
G1 X90.592 Y30.432 E4.29550 F1500.000
G1 X90.746 Y31.250 E4.30183
G1 X90.746 Y88.750 E4.73867
G1 X90.355 Y90.017 E4.74874
G1 X89.318 Y90.842 E4.75881
G1 X88.500 Y90.996 E4.76514
G1 X81.500 Y90.996 E4.81832
G1 X80.233 Y90.605 E4.82839
G1 X79.408 Y89.568 E4.83846
G1 X79.254 Y88.750 E4.84478
G1 X79.254 Y31.250 E5.28163
G1 X79.622 Y30.056 E5.29112
G1 E3.29112 F1920.00000
G92 E0
G1 X84.857 Y37.107 F7800.000
G1 E2.00000 F1920.00000
G1 X84.857 Y85.393 E2.36684 F1500.000
G1 X87.857 Y85.393 E2.38963
G1 X87.857 Y88.107 E2.41025
G1 X82.143 Y88.107 E2.45367
G1 X82.143 Y31.893 E2.88074
G1 X87.857 Y31.893 E2.92416
G1 X87.857 Y37.107 E2.96378
G1 X84.932 Y37.107 E2.98600
G1 X85.104 Y37.354 F7800.000
G1 X85.104 Y85.146 E3.34909 F1500.000
G1 X88.104 Y85.146 E3.37188
G1 X88.104 Y88.354 E3.39625
G1 X81.896 Y88.354 E3.44341
G1 X81.896 Y31.646 E3.87423
G1 X88.104 Y31.646 E3.92139
G1 X88.104 Y37.354 E3.96475
G1 X85.179 Y37.354 E3.98697
G1 X85.350 Y37.600 F7800.000
G1 X85.350 Y84.900 E4.34632 F1500.000
G1 X88.350 Y84.900 E4.36911
G1 X88.350 Y88.600 E4.39722
G1 X81.650 Y88.600 E4.44812
G1 X81.650 Y31.400 E4.88269
G1 X88.350 Y31.400 E4.93359
G1 X88.350 Y37.600 E4.98069
G1 X85.425 Y37.600 E5.00291
G1 X84.850 Y37.600 F7800.000
G1 E3.00291 F1920.00000
G92 E0
G1 X87.720 Y32.174 F7800.000
G1 E2.00000 F1920.00000
G1 X87.576 Y32.030 E2.00156 F1500.000
G1 X87.227 Y32.030 E2.00421
G4 P11
G1 X87.720 Y32.523 E2.00953
G1 X87.720 Y32.873 E2.01219
G1 X86.877 Y32.030 E2.02126
G1 X86.528 Y32.030 E2.02392
G1 X87.720 Y33.222 E2.03675
G1 X87.720 Y33.571 E2.03940
G1 X86.179 Y32.030 E2.05599
G1 X85.830 Y32.030 E2.05865
G1 X87.720 Y33.920 E2.07900
G1 X87.720 Y34.269 E2.08166
G1 X85.481 Y32.030 E2.10576
G1 X85.132 Y32.030 E2.10842
G1 X87.720 Y34.618 E2.13628
G1 X87.720 Y34.967 E2.13894
G1 X84.783 Y32.030 E2.17056
G1 X84.434 Y32.030 E2.17322
G1 X87.720 Y35.316 E2.20860
G1 X87.720 Y35.665 E2.21126
G1 X84.085 Y32.030 E2.25040
G1 X83.736 Y32.030 E2.25306
G1 X87.720 Y36.014 E2.29595
G1 X87.720 Y36.363 E2.29861
G1 X83.387 Y32.030 E2.34527
G1 X83.037 Y32.030 E2.34792
G1 X87.720 Y36.713 E2.39834
G1 X87.629 Y36.970 E2.40042
G1 X82.688 Y32.030 E2.45361
G1 X82.339 Y32.030 E2.45626
G1 X87.280 Y36.970 E2.50945
G1 X86.930 Y36.970 E2.51211
G1 X82.280 Y32.320 E2.56218
G1 X82.280 Y32.669 E2.56484
G1 X86.581 Y36.970 E2.61115
G1 X86.232 Y36.970 E2.61380
G1 X82.280 Y33.018 E2.65636
G1 X82.280 Y33.367 E2.65901
G1 X85.883 Y36.970 E2.69781
G1 X85.534 Y36.970 E2.70046
G1 X82.280 Y33.716 E2.73550
G1 X82.280 Y34.065 E2.73816
G1 X85.185 Y36.970 E2.76943
G1 X84.836 Y36.970 E2.77209
G1 X82.280 Y34.414 E2.79961
G1 X82.280 Y34.763 E2.80227
G1 X84.720 Y37.204 E2.82854
G1 X84.720 Y37.553 E2.83120
G1 X82.280 Y35.112 E2.85747
G1 X82.280 Y35.461 E2.86013
G1 X84.720 Y37.902 E2.88640
G1 X84.720 Y38.251 E2.88906
G1 X82.280 Y35.810 E2.91533
G1 X82.280 Y36.160 E2.91799
G1 X84.720 Y38.600 E2.94426
G1 X84.720 Y38.949 E2.94692
G1 X82.280 Y36.509 E2.97319
G1 X82.280 Y36.858 E2.97585
G1 X84.720 Y39.298 E3.00212
G1 X84.720 Y39.647 E3.00478
G1 X82.280 Y37.207 E3.03105
G1 X82.280 Y37.556 E3.03371
G1 X84.720 Y39.996 E3.05998
G1 X84.720 Y40.345 E3.06264
G1 X82.280 Y37.905 E3.08891
G1 X82.280 Y38.254 E3.09157
G1 X84.720 Y40.695 E3.11784
G1 X84.720 Y41.044 E3.12050
G1 X82.280 Y38.603 E3.14677
G1 X82.280 Y38.952 E3.14943
G1 X84.720 Y41.393 E3.17570
G1 X84.720 Y41.742 E3.17836
G1 X82.280 Y39.301 E3.20463
G1 X82.280 Y39.651 E3.20729
G1 X84.720 Y42.091 E3.23357
G1 X84.720 Y42.440 E3.23622
G1 X82.280 Y40.000 E3.26250
G1 X82.280 Y40.349 E3.26515
G1 X84.720 Y42.789 E3.29143
G1 X84.720 Y43.138 E3.29408
G1 X82.280 Y40.698 E3.32036
G1 X82.280 Y41.047 E3.32301
G1 X84.720 Y43.487 E3.34929
G1 X84.720 Y43.836 E3.35194
G1 X82.280 Y41.396 E3.37822
G1 X82.280 Y41.745 E3.38087
G1 X84.720 Y44.185 E3.40715
G1 X84.720 Y44.535 E3.40980
G1 X82.280 Y42.094 E3.43608
G1 X82.280 Y42.443 E3.43873
G1 X84.720 Y44.884 E3.46501
G1 X84.720 Y45.233 E3.46766
G1 X82.280 Y42.792 E3.49394
G1 X82.280 Y43.141 E3.49660
G1 X84.720 Y45.582 E3.52287
G1 X84.720 Y45.931 E3.52553
G1 X82.280 Y43.491 E3.55180
G1 X82.280 Y43.840 E3.55446
G1 X84.720 Y46.280 E3.58073
G1 X84.720 Y46.629 E3.58339
G1 X82.280 Y44.189 E3.60966
G1 X82.280 Y44.538 E3.61232
G1 X84.720 Y46.978 E3.63859
G1 X84.720 Y47.327 E3.64125
G1 X82.280 Y44.887 E3.66752
G1 X82.280 Y45.236 E3.67018
G1 X84.720 Y47.676 E3.69645
G1 X84.720 Y48.026 E3.69911
G1 X82.280 Y45.585 E3.72538
G1 X82.280 Y45.934 E3.72804
G1 X84.720 Y48.375 E3.75431
G1 X84.720 Y48.724 E3.75697
G1 X82.280 Y46.283 E3.78324
G1 X82.280 Y46.632 E3.78590
G1 X84.720 Y49.073 E3.81217
G1 X84.720 Y49.422 E3.81483
G1 X82.280 Y46.982 E3.84110
G1 X82.280 Y47.331 E3.84376
G1 X84.720 Y49.771 E3.87003
G1 X84.720 Y50.120 E3.87269
G1 X82.280 Y47.680 E3.89896
G1 X82.280 Y48.029 E3.90162
G1 X84.720 Y50.469 E3.92789
G1 X84.720 Y50.818 E3.93055
G1 X82.280 Y48.378 E3.95682
G1 X82.280 Y48.727 E3.95948
G1 X84.720 Y51.167 E3.98575
G1 X84.720 Y51.516 E3.98841
G1 X82.280 Y49.076 E4.01468
G1 X82.280 Y49.425 E4.01734
G1 X84.720 Y51.866 E4.04361
G1 X84.720 Y52.215 E4.04627
G1 X82.280 Y49.774 E4.07254
G1 X82.280 Y50.123 E4.07520
G1 X84.720 Y52.564 E4.10147
G1 X84.720 Y52.913 E4.10413
G1 X82.280 Y50.473 E4.13040
G1 X82.280 Y50.822 E4.13306
G1 X84.720 Y53.262 E4.15933
G1 X84.720 Y53.611 E4.16199
G1 X82.280 Y51.171 E4.18826
G1 X82.280 Y51.520 E4.19092
G1 X84.720 Y53.960 E4.21719
G1 X84.720 Y54.309 E4.21985
G1 X82.280 Y51.869 E4.24612
G1 X82.280 Y52.218 E4.24878
G1 X84.720 Y54.658 E4.27506
G1 X84.720 Y55.007 E4.27771
G1 X82.280 Y52.567 E4.30399
G1 X82.280 Y52.916 E4.30664
G1 X84.720 Y55.357 E4.33292
G1 X84.720 Y55.706 E4.33557
G1 X82.280 Y53.265 E4.36185
G1 X82.280 Y53.614 E4.36450
G1 X84.720 Y56.055 E4.39078
G1 X84.720 Y56.404 E4.39343
G1 X82.280 Y53.963 E4.41971
G1 X82.280 Y54.313 E4.42236
G1 X84.720 Y56.753 E4.44864
G1 X84.720 Y57.102 E4.45129
G1 X82.280 Y54.662 E4.47757
G1 X82.280 Y55.011 E4.48022
G1 X84.720 Y57.451 E4.50650
G1 X84.720 Y57.800 E4.50915
G1 X82.280 Y55.360 E4.53543
G1 X82.280 Y55.709 E4.53809
G1 X84.720 Y58.149 E4.56436
G1 X84.720 Y58.498 E4.56702
G1 X82.280 Y56.058 E4.59329
G1 X82.280 Y56.407 E4.59595
G1 X84.720 Y58.848 E4.62222
G1 X84.720 Y59.197 E4.62488
G1 X82.280 Y56.756 E4.65115
G1 X82.280 Y57.105 E4.65381
G1 X84.720 Y59.546 E4.68008
G1 X84.720 Y59.895 E4.68274
G1 X82.280 Y57.454 E4.70901
G1 X82.280 Y57.804 E4.71167
G1 X84.720 Y60.244 E4.73794
G1 X84.720 Y60.593 E4.74060
G1 X82.280 Y58.153 E4.76687
G1 X82.280 Y58.502 E4.76953
G1 X84.720 Y60.942 E4.79580
G1 X84.720 Y61.291 E4.79846
G1 X82.280 Y58.851 E4.82473
G1 X82.280 Y59.200 E4.82739
G1 X84.720 Y61.640 E4.85366
G1 X84.720 Y61.989 E4.85632
G1 X82.280 Y59.549 E4.88259
G1 X82.280 Y59.898 E4.88525
G1 X84.720 Y62.338 E4.91152
G1 X84.720 Y62.688 E4.91418
G1 X82.280 Y60.247 E4.94045
G1 X82.280 Y60.596 E4.94311
G1 X84.720 Y63.037 E4.96938
G1 X84.720 Y63.386 E4.97204
G1 X82.280 Y60.945 E4.99831
G1 X82.280 Y61.294 E5.00097
G1 X84.720 Y63.735 E5.02724
G1 X84.720 Y64.084 E5.02990
G1 X82.280 Y61.644 E5.05617
G1 X82.280 Y61.993 E5.05883
G1 X84.720 Y64.433 E5.08510
G1 X84.720 Y64.782 E5.08776
G1 X82.280 Y62.342 E5.11403
G1 X82.280 Y62.691 E5.11669
G1 X84.720 Y65.131 E5.14296
G1 X84.720 Y65.480 E5.14562
G1 X82.280 Y63.040 E5.17189
G1 X82.280 Y63.389 E5.17455
G1 X84.720 Y65.829 E5.20082
G1 X84.720 Y66.179 E5.20348
G1 X82.280 Y63.738 E5.22975
G1 X82.280 Y64.087 E5.23241
G1 X84.720 Y66.528 E5.25868
G1 X84.720 Y66.877 E5.26134
G1 X82.280 Y64.436 E5.28761
G1 X82.280 Y64.785 E5.29027
G1 X84.720 Y67.226 E5.31655
G1 X84.720 Y67.575 E5.31920
G1 X82.280 Y65.135 E5.34548
G1 X82.280 Y65.484 E5.34813
G1 X84.720 Y67.924 E5.37441
G1 X84.720 Y68.273 E5.37706
G1 X82.280 Y65.833 E5.40334
G1 X82.280 Y66.182 E5.40599
G1 X84.720 Y68.622 E5.43227
G1 X84.720 Y68.971 E5.43492
G1 X82.280 Y66.531 E5.46120
G1 X82.280 Y66.880 E5.46385
G1 X84.720 Y69.320 E5.49013
G1 X84.720 Y69.669 E5.49278
G1 X82.280 Y67.229 E5.51906
G1 X82.280 Y67.578 E5.52171
G1 X84.720 Y70.019 E5.54799
G1 X84.720 Y70.368 E5.55064
G1 X82.280 Y67.927 E5.57692
G1 X82.280 Y68.276 E5.57958
G1 X84.720 Y70.717 E5.60585
G1 X84.720 Y71.066 E5.60851
G1 X82.280 Y68.626 E5.63478
G1 X82.280 Y68.975 E5.63744
G1 X84.720 Y71.415 E5.66371
G1 X84.720 Y71.764 E5.66637
G1 X82.280 Y69.324 E5.69264
G1 X82.280 Y69.673 E5.69530
G1 X84.720 Y72.113 E5.72157
G1 X84.720 Y72.462 E5.72423
G1 X82.280 Y70.022 E5.75050
G1 X82.280 Y70.371 E5.75316
G1 X84.720 Y72.811 E5.77943
G1 X84.720 Y73.160 E5.78209
G1 X82.280 Y70.720 E5.80836
G1 X82.280 Y71.069 E5.81102
G1 X84.720 Y73.510 E5.83729
G1 X84.720 Y73.859 E5.83995
G1 X82.280 Y71.418 E5.86622
G1 X82.280 Y71.767 E5.86888
G1 X84.720 Y74.208 E5.89515
G1 X84.720 Y74.557 E5.89781
G1 X82.280 Y72.116 E5.92408
G1 X82.280 Y72.466 E5.92674
G1 X84.720 Y74.906 E5.95301
G1 X84.720 Y75.255 E5.95567
G1 X82.280 Y72.815 E5.98194
G1 X82.280 Y73.164 E5.98460
G1 X84.720 Y75.604 E6.01087
G1 X84.720 Y75.953 E6.01353
G1 X82.280 Y73.513 E6.03980
G1 X82.280 Y73.862 E6.04246
G1 X84.720 Y76.302 E6.06873
G1 X84.720 Y76.651 E6.07139
G1 X82.280 Y74.211 E6.09766
G1 X82.280 Y74.560 E6.10032
G1 X84.720 Y77.001 E6.12659
G1 X84.720 Y77.350 E6.12925
G1 X82.280 Y74.909 E6.15552
G1 X82.280 Y75.258 E6.15818
G1 X84.720 Y77.699 E6.18445
G1 X84.720 Y78.048 E6.18711
G1 X82.280 Y75.607 E6.21338
G1 X82.280 Y75.957 E6.21604
G1 X84.720 Y78.397 E6.24231
G1 X84.720 Y78.746 E6.24497
G1 X82.280 Y76.306 E6.27124
G1 X82.280 Y76.655 E6.27390
G1 X84.720 Y79.095 E6.30017
G1 X84.720 Y79.444 E6.30283
G1 X82.280 Y77.004 E6.32911
G1 X82.280 Y77.353 E6.33176
G1 X84.720 Y79.793 E6.35804
G1 X84.720 Y80.142 E6.36069
G1 X82.280 Y77.702 E6.38697
G1 X82.280 Y78.051 E6.38962
G1 X84.720 Y80.491 E6.41590
G1 X84.720 Y80.841 E6.41855
G1 X82.280 Y78.400 E6.44483
G1 X82.280 Y78.749 E6.44748
G1 X84.720 Y81.190 E6.47376
G1 X84.720 Y81.539 E6.47641
G1 X82.280 Y79.098 E6.50269
G1 X82.280 Y79.447 E6.50534
G1 X84.720 Y81.888 E6.53162
G1 X84.720 Y82.237 E6.53427
G1 X82.280 Y79.797 E6.56055
G1 X82.280 Y80.146 E6.56320
G1 X84.720 Y82.586 E6.58948
G1 X84.720 Y82.935 E6.59214
G1 X82.280 Y80.495 E6.61841
G1 X82.280 Y80.844 E6.62107
G1 X84.720 Y83.284 E6.64734
G1 X84.720 Y83.633 E6.65000
G1 X82.280 Y81.193 E6.67627
G1 X82.280 Y81.542 E6.67893
G1 X84.720 Y83.982 E6.70520
G1 X84.720 Y84.332 E6.70786
G1 X82.280 Y81.891 E6.73413
G1 X82.280 Y82.240 E6.73679
G1 X84.720 Y84.681 E6.76306
G1 X84.720 Y85.030 E6.76572
G1 X82.280 Y82.589 E6.79199
G1 X82.280 Y82.938 E6.79465
G1 X84.720 Y85.379 E6.82092
G1 X84.871 Y85.530 F7800.000
G1 X87.312 Y87.970 E6.84719 F1500.000
G1 X86.962 Y87.970 E6.84985
G1 X82.280 Y83.288 E6.90026
G1 X82.280 Y83.637 E6.90292
G1 X86.613 Y87.970 E6.94957
G1 X86.264 Y87.970 E6.95223
G1 X82.280 Y83.986 E6.99513
G1 X82.280 Y84.335 E6.99779
G1 X85.915 Y87.970 E7.03692
G1 X85.566 Y87.970 E7.03958
G1 X82.280 Y84.684 E7.07496
G1 X82.280 Y85.033 E7.07762
G1 X85.217 Y87.970 E7.10924
G1 X84.868 Y87.970 E7.11190
G1 X82.280 Y85.382 E7.13976
G1 X82.280 Y85.731 E7.14242
G1 X84.519 Y87.970 E7.16652
G1 X84.170 Y87.970 E7.16918
G1 X82.280 Y86.080 E7.18952
G1 X82.280 Y86.429 E7.19218
G1 X83.821 Y87.970 E7.20877
G1 X83.471 Y87.970 E7.21143
G1 X82.280 Y86.779 E7.22426
G1 X82.280 Y87.128 E7.22691
G1 X83.122 Y87.970 E7.23599
G1 X82.773 Y87.970 E7.23864
G1 X82.280 Y87.477 E7.24396
G4 P5
G1 X82.280 Y87.826 E7.24661
G1 X82.424 Y87.970 E7.24817
G1 E5.24817 F1920.00000
G92 E0
G4 P11
G1 X85.220 Y85.530 F7800.000
G1 E2.00000 F1920.00000
G4 P4
G1 X87.661 Y87.970 E2.02627 F1500.000
G1 X87.720 Y87.681 E2.02852
G1 X85.569 Y85.530 E2.05168
G1 X85.918 Y85.530 E2.05434
G1 X87.720 Y87.332 E2.07373
G1 X87.720 Y86.982 E2.07639
G1 X86.268 Y85.530 E2.09203
G1 X86.617 Y85.530 E2.09469
G1 X87.720 Y86.633 E2.10657
G1 X87.720 Y86.284 E2.10923
G1 X86.966 Y85.530 E2.11735
G1 X87.315 Y85.530 E2.12000
G1 X87.720 Y85.935 E2.12437
G1 Z0.600 F7800.000
G1 E0.12437 F1920.00000
G92 E0
G4 P10
G1 X84.357 Y36.607 F7800.000
G1 E2.00000 F1920.00000
G1 X84.357 Y85.893 E2.67842 F1800.000
G1 X87.357 Y85.893 E2.71972
G1 X87.357 Y87.607 E2.74332
G1 X82.643 Y87.607 E2.80821
G1 X82.643 Y32.393 E3.56825
G1 X87.357 Y32.393 E3.63315
G1 X87.357 Y36.607 E3.69116
G1 X84.432 Y36.607 E3.73142
G1 X84.804 Y37.054 F7800.000
G1 X84.804 Y85.446 E4.39756 F1800.000
G1 X87.804 Y85.446 E4.43885
G1 X87.804 Y88.054 E4.47474
G1 X82.196 Y88.054 E4.55193
G1 X82.196 Y31.946 E5.32425
G1 X87.804 Y31.946 E5.40144
G1 X87.804 Y37.054 E5.47174
G1 X84.879 Y37.054 E5.51200
G1 X85.250 Y37.500 F7800.000
G1 X85.250 Y85.000 E6.16585 F1500.000
G1 X88.250 Y85.000 E6.20714
G1 X88.250 Y88.500 E6.25532
G1 X81.750 Y88.500 E6.34479
G1 X81.750 Y31.500 E7.12940
G1 X88.250 Y31.500 E7.21888
G1 X88.250 Y37.500 E7.30147
G1 X85.325 Y37.500 E7.34173
G1 X84.750 Y37.500 F7800.000
G1 X85.166 Y36.343 F7800.000
G1 X87.093 Y34.416 E7.37946 F1800.000
G1 X87.093 Y35.051 E7.38825
G1 X85.801 Y36.343 E7.41355
G1 X86.435 Y36.343 E7.42234
G1 X87.093 Y35.685 E7.43521
G1 E5.43521 F1920.00000
G92 E0
G4 P2
G1 X84.531 Y36.343 F7800.000
G1 E2.00000 F1920.00000
G4 P12
G1 X87.093 Y33.781 E2.05016 F1800.000
G1 X87.093 Y33.146 E2.05895
G1 X82.907 Y37.331 E2.14090
G1 X82.907 Y36.696 E2.14969
G1 X86.946 Y32.657 E2.22877
G1 X86.311 Y32.657 E2.23756
G1 X82.907 Y36.061 E2.30421
G1 X82.907 Y35.426 E2.31300
G1 X85.676 Y32.657 E2.36722
G1 X85.041 Y32.657 E2.37601
G1 X82.907 Y34.791 E2.41779
G1 X82.907 Y34.157 E2.42658
G1 X84.407 Y32.657 E2.45594
G1 X83.772 Y32.657 E2.46473
G1 X82.907 Y33.522 E2.48165
G1 X82.907 Y32.887 E2.49044
G1 X83.137 Y32.657 E2.49493
G1 E0.49493 F1920.00000
G92 E0
G4 P1
G1 X84.093 Y36.781 F7800.000
G1 E2.00000 F1920.00000
G1 X82.907 Y37.966 E2.02321 F1800.000
G1 X82.907 Y38.601 E2.03200
G1 X84.093 Y37.416 E2.05520
G1 X84.093 Y38.051 E2.06399
G1 X82.907 Y39.236 E2.08720
G1 X82.907 Y39.871 E2.09599
G1 X84.093 Y38.685 E2.11920
G1 X84.093 Y39.320 E2.12799
G1 X82.907 Y40.506 E2.15120
G1 X82.907 Y41.141 E2.15999
G1 X84.093 Y39.955 E2.18319
G1 X84.093 Y40.590 E2.19198
G1 X82.907 Y41.775 E2.21519
G1 X82.907 Y42.410 E2.22398
G1 X84.093 Y41.225 E2.24719
G1 X84.093 Y41.860 E2.25598
G1 X82.907 Y43.045 E2.27919
G1 X82.907 Y43.680 E2.28798
G1 X84.093 Y42.495 E2.31118
G1 X84.093 Y43.130 E2.31997
G1 X82.907 Y44.315 E2.34318
G1 X82.907 Y44.950 E2.35197
G1 X84.093 Y43.765 E2.37518
G1 X84.093 Y44.400 E2.38397
G1 X82.907 Y45.585 E2.40718
G1 X82.907 Y46.220 E2.41597
G1 X84.093 Y45.035 E2.43917
G1 X84.093 Y45.670 E2.44796
