; generated by Slic3r 1.2.9 on 2016-01-03 at 20:00:04

; external perimeters extrusion width = 0.50mm
; perimeters extrusion width = 0.50mm
; infill extrusion width = 0.50mm
; solid infill extrusion width = 0.50mm
; top infill extrusion width = 0.50mm

M107
M190 S60 ; set bed temperature
M104 S210 ; set temperature
G28 ; home all axes
M109 S210 ; wait for temperature to be reached
G21 ; set units to millimeters
G90 ; use absolute coordinates
M82 ; use absolute distances for extrusion
G92 E0
G1 Z0.300 F7800.000
G1 E-2.00000 F1920.00000
G92 E0
G1 X71.370 Y42.654 F7800.000
G1 E2.00000 F1920.00000
M204 S3000
G1 X71.767 Y42.041 E2.00355 F1500.000
G1 X71.999 Y41.738 E2.00541
G1 X72.367 Y41.326 E2.00809
G1 X72.660 Y41.044 E2.01007
G1 X73.073 Y40.706 E2.01266
G1 X73.418 Y40.467 E2.01471
G1 X73.769 Y40.265 E2.01667
G1 X74.255 Y40.024 E2.01931
G1 X74.754 Y39.835 E2.02191
G1 X75.144 Y39.722 E2.02388
G1 X75.685 Y39.610 E2.02657
G1 X76.063 Y39.560 E2.02842
G1 X76.793 Y39.523 E2.03198
G1 X93.354 Y39.527 E2.11250
G1 X93.937 Y39.560 E2.11534 F1500.000
G1 X94.315 Y39.610 E2.11719
G1 X94.856 Y39.722 E2.11988
G1 X95.246 Y39.835 E2.12185
G1 X95.745 Y40.024 E2.12445
G1 X96.125 Y40.204 E2.12649
G1 X96.582 Y40.467 E2.12905
G1 X96.927 Y40.706 E2.13110
G1 X97.340 Y41.044 E2.13369
G1 X97.633 Y41.326 E2.13567
G1 X98.001 Y41.738 E2.13835
G1 X98.233 Y42.041 E2.14021
G1 X98.630 Y42.654 E2.14376
G1 X106.907 Y56.998 E2.22429
G1 X107.170 Y57.519 E2.22712
G1 X107.316 Y57.872 E2.22898
G1 X107.489 Y58.396 E2.23166
G1 X107.586 Y58.791 E2.23364
G1 X107.672 Y59.317 E2.23623
G1 X107.707 Y59.736 E2.23828
G1 X107.707 Y60.264 E2.24084
G1 X107.672 Y60.683 E2.24288
G1 X107.586 Y61.209 E2.24548
G1 X107.489 Y61.604 E2.24745
G1 X107.316 Y62.128 E2.25014
G1 X107.170 Y62.481 E2.25200
G1 X106.907 Y63.002 E2.25483
G1 X98.553 Y77.471 E2.33607
G1 X98.233 Y77.959 E2.33891
G1 X98.001 Y78.262 E2.34076
G1 X97.633 Y78.674 E2.34345
G1 X97.340 Y78.956 E2.34543
G1 X96.927 Y79.294 E2.34802
G1 X96.582 Y79.533 E2.35006
G1 X96.125 Y79.796 E2.35263
G1 X95.745 Y79.976 E2.35467
G1 X95.246 Y80.165 E2.35726
G1 X94.856 Y80.278 E2.35924
G1 X94.315 Y80.390 E2.36193
G1 X93.937 Y80.440 E2.36378
G1 X93.207 Y80.477 E2.36733
G1 X76.793 Y80.477 E2.44714
G1 X76.063 Y80.440 E2.45070
G1 X75.685 Y80.390 E2.45255
G1 X75.144 Y80.278 E2.45524
G1 X74.754 Y80.165 E2.45721
G1 X74.255 Y79.976 E2.45981
G1 X73.769 Y79.735 E2.46244
G1 X73.418 Y79.533 E2.46441
G1 X73.073 Y79.294 E2.46645
G1 X72.660 Y78.956 E2.46905
G1 X72.367 Y78.674 E2.47102
G1 X71.999 Y78.262 E2.47371
G1 X71.767 Y77.959 E2.47557
G1 X71.370 Y77.346 E2.47912
G1 X63.093 Y63.002 E2.55964
G1 X62.830 Y62.481 E2.56248
G1 X62.684 Y62.128 E2.56433
G1 X62.511 Y61.604 E2.56702
G1 X62.414 Y61.209 E2.56900
G1 X62.328 Y60.683 E2.57159
G1 X62.293 Y60.264 E2.57363
G1 X62.293 Y59.736 E2.57620
G1 X62.328 Y59.317 E2.57824
G1 X62.414 Y58.791 E2.58083
G1 X62.511 Y58.396 E2.58281
G1 X62.684 Y57.872 E2.58550
G1 X62.830 Y57.519 E2.58735
G1 X63.093 Y56.998 E2.59019
G1 X71.332 Y42.719 E2.67035
G1 X71.540 Y42.753 F7800.000
G4 P31
G1 X71.932 Y42.149 E2.67385 F1500.000
G1 X72.146 Y41.869 E2.67556
G1 X72.514 Y41.457 E2.67825
G1 X72.785 Y41.197 E2.68007
G1 X73.198 Y40.859 E2.68267
G1 X73.517 Y40.638 E2.68455
G1 X73.974 Y40.374 E2.68712
G1 X74.324 Y40.208 E2.68901
G1 X74.824 Y40.020 E2.69160
G1 X75.184 Y39.915 E2.69343
G1 X75.725 Y39.803 E2.69611
G1 X76.075 Y39.757 E2.69783
G1 X76.793 Y39.720 E2.70132
G1 X93.343 Y39.724 E2.78179
G1 X93.925 Y39.757 E2.78463 F1500.000
G1 X94.275 Y39.803 E2.78634
G1 X94.816 Y39.915 E2.78903
G1 X95.176 Y40.020 E2.79086
G1 X95.676 Y40.208 E2.79345
G1 X96.026 Y40.374 E2.79534
G1 X96.483 Y40.638 E2.79790
G1 X96.802 Y40.859 E2.79979
G1 X97.215 Y41.197 E2.80238
G1 X97.486 Y41.457 E2.80421
G1 X97.854 Y41.869 E2.80689
G1 X98.068 Y42.149 E2.80861
G1 X98.460 Y42.753 E2.81211
G1 X106.731 Y57.087 E2.89258
G1 X106.994 Y57.608 E2.89541
G1 X107.129 Y57.934 E2.89713
G1 X107.302 Y58.458 E2.89981
G1 X107.392 Y58.823 E2.90164
G1 X107.478 Y59.349 E2.90423
G1 X107.509 Y59.736 E2.90612
G1 X107.509 Y60.264 E2.90868
G1 X107.478 Y60.651 E2.91057
G1 X107.392 Y61.177 E2.91317
G1 X107.302 Y61.542 E2.91499
G1 X107.129 Y62.066 E2.91768
G1 X106.994 Y62.392 E2.91939
G1 X106.731 Y62.913 E2.92223
G1 X98.388 Y77.363 E3.00336
G1 X98.068 Y77.851 E3.00620
G1 X97.854 Y78.131 E3.00791
G1 X97.486 Y78.543 E3.01060
G1 X97.215 Y78.803 E3.01242
G1 X96.802 Y79.141 E3.01502
G1 X96.483 Y79.362 E3.01690
G1 X96.026 Y79.626 E3.01947
G1 X95.676 Y79.792 E3.02136
G1 X95.176 Y79.980 E3.02395
G1 X94.816 Y80.085 E3.02578
G1 X94.275 Y80.197 E3.02846
G1 X93.925 Y80.243 E3.03018
G1 X93.207 Y80.280 E3.03367
G1 X76.793 Y80.280 E3.11348
G1 X76.074 Y80.243 E3.11698
G1 X75.725 Y80.197 E3.11869
G1 X75.184 Y80.085 E3.12138
G1 X74.824 Y79.980 E3.12321
G1 X74.324 Y79.792 E3.12580
G1 X73.974 Y79.626 E3.12769
G1 X73.517 Y79.362 E3.13025
G1 X73.198 Y79.141 E3.13214
G1 X72.785 Y78.803 E3.13473
G1 X72.514 Y78.543 E3.13656
G1 X72.146 Y78.131 E3.13925
G1 X71.932 Y77.851 E3.14096
G1 X71.540 Y77.247 E3.14446
G1 X63.269 Y62.913 E3.22493
G1 X63.006 Y62.392 E3.22776
G1 X62.871 Y62.066 E3.22948
G1 X62.698 Y61.542 E3.23216
G1 X62.608 Y61.177 E3.23399
G1 X62.522 Y60.651 E3.23658
G1 X62.491 Y60.264 E3.23847
G1 X62.491 Y59.736 E3.24103
G1 X62.522 Y59.349 E3.24292
G1 X62.608 Y58.823 E3.24552
G1 X62.698 Y58.458 E3.24734
G1 X62.871 Y57.934 E3.25003
G1 X63.006 Y57.608 E3.25174
G1 X63.269 Y57.087 E3.25458
G1 X71.503 Y42.817 E3.33468
G1 X71.711 Y42.851 F7800.000
G4 P31
G1 X72.097 Y42.257 E3.33813 F1500.000
G1 X72.293 Y42.000 E3.33970
G1 X72.661 Y41.588 E3.34239
G1 X72.910 Y41.349 E3.34406
G1 X73.322 Y41.011 E3.34666
G1 X73.616 Y40.809 E3.34839
G1 X74.072 Y40.545 E3.35095
G1 X74.394 Y40.393 E3.35268
G1 X74.893 Y40.204 E3.35528
G1 X75.224 Y40.108 E3.35695
G1 X75.765 Y39.996 E3.35964
G1 X76.086 Y39.954 E3.36121
G1 X76.793 Y39.917 E3.36466
G1 X93.332 Y39.921 E3.44507
G1 X93.914 Y39.954 E3.44791 F1500.000
G1 X94.235 Y39.996 E3.44948
G1 X94.776 Y40.108 E3.45217
G1 X95.107 Y40.204 E3.45384
G1 X95.606 Y40.393 E3.45644
G1 X95.928 Y40.545 E3.45817
G1 X96.384 Y40.809 E3.46073
G1 X96.678 Y41.011 E3.46247
G1 X97.090 Y41.349 E3.46506
G1 X97.339 Y41.588 E3.46674
G1 X97.707 Y42.000 E3.46942
G1 X97.903 Y42.257 E3.47099
G1 X98.289 Y42.851 E3.47444
G1 X106.555 Y57.176 E3.55485
G1 X106.818 Y57.697 E3.55769
G1 X106.942 Y57.996 E3.55926
G1 X107.115 Y58.520 E3.56195
G1 X107.197 Y58.855 E3.56362
G1 X107.284 Y59.381 E3.56622
G1 X107.312 Y59.736 E3.56795
G1 X107.312 Y60.264 E3.57051
G1 X107.284 Y60.619 E3.57225
G1 X107.197 Y61.145 E3.57484
G1 X107.115 Y61.480 E3.57652
G1 X106.942 Y62.004 E3.57920
G1 X106.818 Y62.303 E3.58078
G1 X106.555 Y62.824 E3.58361
G1 X98.223 Y77.255 E3.66463
G1 X97.903 Y77.743 E3.66747
G1 X97.707 Y78.000 E3.66904
G1 X97.339 Y78.412 E3.67173
G1 X97.090 Y78.651 E3.67340
G1 X96.678 Y78.989 E3.67600
G1 X96.384 Y79.191 E3.67773
G1 X95.928 Y79.455 E3.68029
G1 X95.606 Y79.607 E3.68203
G1 X95.107 Y79.796 E3.68462
G1 X94.776 Y79.892 E3.68630
G1 X94.235 Y80.004 E3.68898
G1 X93.914 Y80.046 E3.69056
G1 X93.207 Y80.083 E3.69400
G1 X76.793 Y80.083 E3.77381
G1 X76.086 Y80.046 E3.77725
G1 X75.765 Y80.004 E3.77882
G1 X75.224 Y79.892 E3.78151
G1 X74.893 Y79.796 E3.78319
G1 X74.394 Y79.607 E3.78578
G1 X74.072 Y79.455 E3.78751
G1 X73.616 Y79.191 E3.79008
G1 X73.322 Y78.989 E3.79181
G1 X72.910 Y78.651 E3.79440
G1 X72.661 Y78.412 E3.79608
G1 X72.293 Y78.000 E3.79876
G1 X72.097 Y77.743 E3.80034
G1 X71.711 Y77.149 E3.80378
G1 X63.445 Y62.824 E3.88420
G1 X63.182 Y62.303 E3.88703
G1 X63.058 Y62.004 E3.88861
G1 X62.885 Y61.480 E3.89129
G1 X62.803 Y61.145 E3.89297
G1 X62.716 Y60.619 E3.89556
G1 X62.688 Y60.264 E3.89729
G1 X62.688 Y59.736 E3.89986
G1 X62.716 Y59.381 E3.90159
G1 X62.803 Y58.855 E3.90418
G1 X62.885 Y58.520 E3.90586
G1 X63.058 Y57.996 E3.90855
G1 X63.182 Y57.697 E3.91012
G1 X63.445 Y57.176 E3.91295
G1 X71.674 Y42.916 E3.99301
G1 E1.99301 F1920.00000
G92 E0
G1 X103.838 Y62.023 F7800.000
G1 E2.00000 F1920.00000
G1 X103.409 Y62.467 E2.00300 F1500.000
G1 X102.874 Y62.907 E2.00637
G1 X102.240 Y63.323 E2.01006
G1 X101.475 Y63.691 E2.01418
G1 X100.613 Y64.017 E2.01867
G1 X99.642 Y64.258 E2.02353
G1 X98.616 Y64.418 E2.02858
G1 X97.533 Y64.479 E2.03385
G1 X96.135 Y64.417 E2.04066
G1 X95.839 Y65.101 E2.04428
G1 X95.498 Y65.771 E2.04793
G1 X95.116 Y66.417 E2.05158
G1 X94.401 Y67.447 E2.05768
G1 X95.145 Y68.615 E2.06441
G1 X95.631 Y69.577 E2.06965
G1 X96.009 Y70.556 E2.07476
G1 X96.285 Y71.512 E2.07960
G1 X96.434 Y72.422 E2.08408
G1 X96.497 Y73.269 E2.08821
G1 X96.455 Y74.026 E2.09189
G1 X96.341 Y74.709 E2.09526
G1 X96.171 Y75.302 E2.09826
G1 X95.937 Y75.798 E2.10093
G1 X95.657 Y76.225 E2.10341
G1 X95.342 Y76.578 E2.10571
G1 X94.993 Y76.864 E2.10791
G1 X94.609 Y77.086 E2.11006
G1 X94.186 Y77.245 E2.11226
G1 X93.722 Y77.342 E2.11456
G1 X93.213 Y77.371 E2.11704
G1 X92.667 Y77.326 E2.11971
G1 X92.068 Y77.176 E2.12271
G1 X91.420 Y76.933 E2.12607
G1 X90.742 Y76.591 E2.12976
G1 X90.040 Y76.113 E2.13389
G1 X89.400 Y75.594 E2.13790
G1 X88.636 Y74.811 E2.14322
G1 X87.978 Y73.995 E2.14832
G1 X87.388 Y73.093 E2.15356
G1 X86.747 Y71.862 E2.16031
G1 X85.752 Y71.956 E2.16517
G1 X85.000 Y71.979 E2.16882
G1 X84.248 Y71.956 E2.17248
G1 X83.253 Y71.862 E2.17734
G1 X82.612 Y73.093 E2.18409
G1 X82.022 Y73.995 E2.18933
G1 X81.363 Y74.812 E2.19444
G1 X80.672 Y75.529 E2.19928
G1 X79.959 Y76.114 E2.20376
G1 X79.258 Y76.591 E2.20789
G1 X78.580 Y76.933 E2.21158
G1 X77.932 Y77.176 E2.21494
G1 X77.333 Y77.326 E2.21794
G1 X76.787 Y77.371 E2.22061
G1 X76.278 Y77.342 E2.22309
G1 X75.814 Y77.245 E2.22539
G1 X75.391 Y77.086 E2.22759
G1 X75.007 Y76.864 E2.22974
G1 X74.658 Y76.578 E2.23194
G1 X74.343 Y76.225 E2.23424
G1 X74.063 Y75.798 E2.23672
G1 X73.829 Y75.302 E2.23939
G1 X73.659 Y74.709 E2.24239
G1 X73.545 Y74.024 E2.24576
G1 X73.505 Y73.396 E2.24882
G1 X73.566 Y72.418 E2.25359
G1 X73.695 Y71.608 E2.25758
G1 X73.991 Y70.554 E2.26290
G1 X74.369 Y69.577 E2.26800
G1 X74.855 Y68.615 E2.27323
G1 X75.599 Y67.447 E2.27997
G1 X74.884 Y66.417 E2.28607
G1 X74.502 Y65.771 E2.28971
G1 X74.161 Y65.101 E2.29337
G1 X73.865 Y64.417 E2.29699
G1 X72.467 Y64.479 E2.30380
G1 X71.391 Y64.418 E2.30904
G1 X70.354 Y64.257 E2.31414
G1 X69.387 Y64.017 E2.31898
G1 X68.525 Y63.691 E2.32346
G1 X67.760 Y63.323 E2.32759
G1 X67.126 Y62.907 E2.33128
G1 X66.591 Y62.467 E2.33465
G1 X66.162 Y62.023 E2.33765
G1 X65.850 Y61.572 E2.34031
G1 X65.621 Y61.117 E2.34279
G1 X65.472 Y60.667 E2.34510
G1 X65.399 Y60.222 E2.34729
G1 X65.399 Y59.778 E2.34945
G1 X65.472 Y59.333 E2.35164
G1 X65.621 Y58.883 E2.35395
G1 X65.850 Y58.428 E2.35642
G1 X66.162 Y57.977 E2.35909
G1 X66.591 Y57.533 E2.36209
G1 X67.126 Y57.093 E2.36546
G1 X67.760 Y56.677 E2.36915
G1 X68.525 Y56.309 E2.37327
G1 X69.387 Y55.983 E2.37776
G1 X70.358 Y55.742 E2.38262
G1 X71.384 Y55.582 E2.38767
G1 X72.467 Y55.521 E2.39294
G1 X73.865 Y55.583 E2.39975
G1 X74.161 Y54.899 E2.40337
G1 X74.502 Y54.229 E2.40703
G1 X74.884 Y53.583 E2.41067
G1 X75.599 Y52.553 E2.41677
G1 X74.855 Y51.385 E2.42350
G1 X74.369 Y50.423 E2.42874
G1 X73.991 Y49.444 E2.43385
G1 X73.715 Y48.488 E2.43869
G1 X73.566 Y47.578 E2.44317
G1 X73.503 Y46.731 E2.44730
G1 X73.545 Y45.974 E2.45099
G1 X73.659 Y45.291 E2.45435
G1 X73.829 Y44.698 E2.45735
G1 X74.063 Y44.202 E2.46002
G1 X74.343 Y43.775 E2.46250
G1 X74.658 Y43.422 E2.46480
G1 X75.007 Y43.136 E2.46700
G1 X75.391 Y42.914 E2.46915
G1 X75.814 Y42.755 E2.47135
G1 X76.278 Y42.658 E2.47365
G1 X76.787 Y42.629 E2.47613
G1 X77.333 Y42.674 E2.47880
G1 X77.932 Y42.824 E2.48180
G1 X78.580 Y43.067 E2.48516
G1 X79.258 Y43.409 E2.48885
G1 X79.959 Y43.886 E2.49298
G1 X80.672 Y44.471 E2.49746
G1 X81.363 Y45.188 E2.50230
G1 X82.022 Y46.005 E2.50741
G1 X82.612 Y46.907 E2.51265
G1 X83.253 Y48.138 E2.51940
G1 X84.248 Y48.044 E2.52426
G1 X85.000 Y48.021 E2.52792
G1 X85.752 Y48.044 E2.53158
G1 X86.747 Y48.138 E2.53643
G1 X87.388 Y46.907 E2.54318
G1 X87.982 Y45.999 E2.54846
G1 X88.205 Y45.706 E2.55025
G1 X88.634 Y45.191 E2.55351
G1 X89.328 Y44.471 E2.55837
G1 X90.039 Y43.888 E2.56284
G1 X90.854 Y43.347 E2.56760
G1 X91.418 Y43.068 E2.57066
G1 X92.066 Y42.825 E2.57402
G1 X92.716 Y42.668 E2.57727
G1 X93.213 Y42.629 E2.57970
G1 X93.581 Y42.650 E2.58149
G1 X93.722 Y42.658 E2.58218 F1500.000
G1 X94.186 Y42.755 E2.58448
G1 X94.609 Y42.914 E2.58668
G1 X94.993 Y43.136 E2.58883
G1 X95.342 Y43.422 E2.59103
G1 X95.657 Y43.775 E2.59333
G1 X95.937 Y44.202 E2.59581
G1 X96.171 Y44.698 E2.59848
G1 X96.341 Y45.291 E2.60148
G1 X96.455 Y45.974 E2.60484
G1 X96.497 Y46.731 E2.60853
G1 X96.434 Y47.578 E2.61266
G1 X96.285 Y48.488 E2.61714
G1 X96.009 Y49.444 E2.62198
G1 X95.631 Y50.423 E2.62709
G1 X95.145 Y51.385 E2.63233
G1 X94.401 Y52.553 E2.63906
G1 X95.116 Y53.583 E2.64516
G1 X95.498 Y54.229 E2.64880
G1 X95.839 Y54.899 E2.65246
G1 X96.135 Y55.583 E2.65608
G1 X97.533 Y55.521 E2.66289
G1 X98.609 Y55.582 E2.66813
G1 X99.646 Y55.743 E2.67323
G1 X100.613 Y55.983 E2.67807
G1 X101.475 Y56.309 E2.68256
G1 X102.240 Y56.677 E2.68668
G1 X102.874 Y57.093 E2.69037
G1 X103.409 Y57.533 E2.69374
G1 X103.838 Y57.977 E2.69674
G1 X104.150 Y58.428 E2.69941
G1 X104.379 Y58.883 E2.70188
G1 X104.528 Y59.333 E2.70419
G1 X104.601 Y59.778 E2.70638
G1 X104.601 Y60.222 E2.70854
G1 X104.528 Y60.667 E2.71073
G1 X104.379 Y61.117 E2.71304
G1 X104.150 Y61.572 E2.71552
G1 X103.881 Y61.962 E2.71782
G1 X104.000 Y62.135 F7800.000
G4 P31
G1 X103.543 Y62.612 E2.72103 F1500.000
G1 X102.991 Y63.066 E2.72450
G1 X102.337 Y63.495 E2.72831
G1 X101.553 Y63.873 E2.73254
G1 X100.671 Y64.205 E2.73712
G1 X99.683 Y64.451 E2.74207
G1 X98.634 Y64.614 E2.74723
G1 X97.534 Y64.676 E2.75259
G1 X96.262 Y64.620 E2.75878
G1 X96.018 Y65.185 E2.76177
G1 X95.670 Y65.866 E2.76549
G1 X95.282 Y66.523 E2.76920
G1 X94.638 Y67.451 E2.77470
G1 X95.317 Y68.517 E2.78084
G1 X95.811 Y69.497 E2.78617
G1 X96.196 Y70.493 E2.79137
G1 X96.478 Y71.469 E2.79631
G1 X96.630 Y72.399 E2.80089
G1 X96.695 Y73.267 E2.80512
G1 X96.651 Y74.048 E2.80893
G1 X96.533 Y74.753 E2.81240
G1 X96.356 Y75.372 E2.81553
G1 X96.109 Y75.895 E2.81834
G1 X95.814 Y76.345 E2.82096
G1 X95.479 Y76.721 E2.82341
G1 X95.105 Y77.027 E2.82576
G1 X94.693 Y77.265 E2.82807
G1 X94.242 Y77.435 E2.83042
G1 X93.748 Y77.538 E2.83287
G1 X93.211 Y77.568 E2.83548
G1 X92.635 Y77.521 E2.83830
G1 X92.010 Y77.365 E2.84143
G1 X91.340 Y77.114 E2.84490
G1 X90.642 Y76.761 E2.84871
G1 X89.922 Y76.271 E2.85294
G1 X89.267 Y75.740 E2.85704
G1 X88.488 Y74.942 E2.86246
G1 X87.819 Y74.111 E2.86765
G1 X87.218 Y73.193 E2.87299
G1 X86.634 Y72.070 E2.87914
G1 X85.765 Y72.153 E2.88338
G1 X85.000 Y72.177 E2.88710
G1 X84.235 Y72.153 E2.89082
G1 X83.366 Y72.070 E2.89507
G1 X82.782 Y73.193 E2.90122
G1 X82.181 Y74.111 E2.90655
G1 X81.511 Y74.943 E2.91175
G1 X80.806 Y75.674 E2.91669
G1 X80.077 Y76.272 E2.92127
G1 X79.358 Y76.761 E2.92550
G1 X78.660 Y77.114 E2.92931
G1 X77.990 Y77.365 E2.93278
G1 X77.365 Y77.521 E2.93591
G1 X76.789 Y77.568 E2.93872
G1 X76.252 Y77.538 E2.94134
G1 X75.758 Y77.435 E2.94379
G1 X75.307 Y77.265 E2.94614
G1 X74.895 Y77.027 E2.94845
G1 X74.521 Y76.721 E2.95080
G1 X74.186 Y76.345 E2.95325
G1 X73.891 Y75.895 E2.95586
G1 X73.644 Y75.372 E2.95868
G1 X73.467 Y74.753 E2.96181
G1 X73.349 Y74.047 E2.96529
G1 X73.307 Y73.396 E2.96846
G1 X73.370 Y72.396 E2.97333
G1 X73.503 Y71.565 E2.97742
G1 X73.804 Y70.492 E2.98284
G1 X74.189 Y69.497 E2.98803
G1 X74.683 Y68.517 E2.99337
G1 X75.362 Y67.451 E2.99951
G1 X74.718 Y66.523 E3.00500
G1 X74.330 Y65.866 E3.00872
G1 X73.982 Y65.185 E3.01243
G1 X73.738 Y64.620 E3.01543
G1 X72.466 Y64.676 E3.02162
G1 X71.370 Y64.614 E3.02695
G1 X70.315 Y64.450 E3.03215
G1 X69.329 Y64.205 E3.03709
G1 X68.447 Y63.873 E3.04167
G1 X67.663 Y63.495 E3.04590
G1 X67.009 Y63.066 E3.04970
G1 X66.457 Y62.612 E3.05318
G1 X66.009 Y62.149 E3.05631
G1 X65.680 Y61.673 E3.05912
G1 X65.438 Y61.193 E3.06174
G1 X65.280 Y60.714 E3.06419
G1 X65.202 Y60.238 E3.06654
G1 X65.202 Y59.762 E3.06885
G1 X65.280 Y59.286 E3.07120
G1 X65.438 Y58.807 E3.07365
G1 X65.680 Y58.327 E3.07626
G1 X66.009 Y57.851 E3.07907
G1 X66.457 Y57.388 E3.08221
G1 X67.009 Y56.934 E3.08568
G1 X67.663 Y56.505 E3.08948
G1 X68.447 Y56.127 E3.09372
