; generated by Slic3r 1.2.9 on 2016-01-03 at 20:44:12

; external perimeters extrusion width = 0.50mm
; perimeters extrusion width = 0.50mm
; infill extrusion width = 0.50mm
; solid infill extrusion width = 0.50mm
; top infill extrusion width = 0.50mm

M107
M190 S70 ; set bed temperature
M104 S220 ; set temperature
G28 ; home all axes
M109 S220 ; wait for temperature to be reached
G21 ; set units to millimeters
G90 ; use absolute coordinates
M82 ; use absolute distances for extrusion
G92 E0
G1 Z0.350 F7800.000
G1 E-2.00000 F1920.00000
G92 E0
G1 X63.508 Y36.666 F7800.000
G1 E2.00000 F1920.00000
M204 S3000
G1 X64.522 Y34.909 E2.02776 F1800.000
G1 X65.127 Y33.972 E2.04302
G1 X65.595 Y33.361 E2.05356
G1 X66.111 Y32.783 E2.06416
G1 X66.703 Y32.215 E2.07539
G1 X67.281 Y31.741 E2.08562
G1 X67.980 Y31.259 E2.09723
G1 X68.620 Y30.889 E2.10734
G1 X69.386 Y30.526 E2.11896
G1 X70.086 Y30.262 E2.12919
G1 X70.874 Y30.033 E2.14042
G1 X71.632 Y29.876 E2.15101
G1 X72.396 Y29.775 E2.16155
G1 X73.510 Y29.721 E2.17681
G1 X96.788 Y29.729 E2.49535
G1 X97.604 Y29.775 E2.50654 F1800.000
G1 X98.368 Y29.876 E2.51708
G1 X99.126 Y30.033 E2.52768
G1 X99.914 Y30.262 E2.53890
G1 X100.614 Y30.526 E2.54914
G1 X101.380 Y30.889 E2.56075
G1 X102.020 Y31.259 E2.57086
G1 X102.719 Y31.741 E2.58247
G1 X103.297 Y32.215 E2.59271
G1 X103.889 Y32.783 E2.60394
G1 X104.405 Y33.361 E2.61453
G1 X104.873 Y33.972 E2.62507
G1 X105.478 Y34.909 E2.64033
G1 X117.109 Y55.073 E2.95887
G1 X117.477 Y55.803 E2.97006
G1 X117.772 Y56.515 E2.98060
G1 X118.015 Y57.250 E2.99120
G1 X118.211 Y58.047 E3.00242
G1 X118.332 Y58.785 E3.01266
G1 X118.401 Y59.631 E3.02427
G1 X118.401 Y60.369 E3.03438
G1 X118.332 Y61.215 E3.04599
G1 X118.211 Y61.953 E3.05623
G1 X118.015 Y62.750 E3.06745
G1 X117.772 Y63.485 E3.07805
G1 X117.477 Y64.197 E3.08859
G1 X117.109 Y64.927 E3.09978
G1 X105.322 Y85.344 E3.42239
G1 X104.873 Y86.028 E3.43358
G1 X104.405 Y86.639 E3.44412
G1 X103.889 Y87.217 E3.45471
G1 X103.297 Y87.785 E3.46594
G1 X102.718 Y88.259 E3.47617
G1 X102.020 Y88.741 E3.48779
G1 X101.380 Y89.111 E3.49790
G1 X100.614 Y89.474 E3.50951
G1 X99.914 Y89.738 E3.51974
G1 X99.126 Y89.967 E3.53097
G1 X98.368 Y90.124 E3.54157
G1 X97.604 Y90.225 E3.55211
G1 X96.490 Y90.279 E3.56737
G1 X73.510 Y90.279 E3.88184
G1 X72.396 Y90.225 E3.89710
G1 X71.632 Y90.124 E3.90764
G1 X70.874 Y89.967 E3.91823
G1 X70.086 Y89.738 E3.92946
G1 X69.386 Y89.474 E3.93969
G1 X68.487 Y89.034 E3.95340
G1 X67.980 Y88.741 E3.96141
G1 X67.282 Y88.259 E3.97302
G1 X66.703 Y87.785 E3.98326
G1 X66.111 Y87.217 E3.99449
G1 X65.595 Y86.639 E4.00508
G1 X65.127 Y86.028 E4.01562
G1 X64.522 Y85.091 E4.03088
G1 X52.891 Y64.927 E4.34942
G1 X52.523 Y64.197 E4.36061
G1 X52.228 Y63.485 E4.37115
G1 X51.985 Y62.750 E4.38174
G1 X51.789 Y61.953 E4.39297
G1 X51.668 Y61.215 E4.40321
G1 X51.599 Y60.369 E4.41482
G1 X51.599 Y59.631 E4.42493
G1 X51.668 Y58.785 E4.43654
G1 X51.789 Y58.047 E4.44678
G1 X51.985 Y57.250 E4.45800
G1 X52.228 Y56.515 E4.46860
G1 X52.523 Y55.803 E4.47914
G1 X53.032 Y54.811 E4.49440
G1 X63.470 Y36.731 E4.78008
G1 X63.895 Y36.890 F7800.000
G4 P29
G1 X64.909 Y35.132 E4.80784 F1800.000
G1 X65.500 Y34.217 E4.82275
G1 X65.929 Y33.658 E4.83239
G1 X66.444 Y33.080 E4.84299
G1 X66.986 Y32.560 E4.85326
G1 X67.564 Y32.087 E4.86349
G1 X68.203 Y31.645 E4.87412
G1 X68.843 Y31.276 E4.88423
G1 X69.544 Y30.943 E4.89485
G1 X70.244 Y30.679 E4.90508
G1 X70.964 Y30.470 E4.91535
G1 X71.723 Y30.313 E4.92595
G1 X72.421 Y30.221 E4.93559
G1 X73.510 Y30.167 E4.95050
G1 X96.762 Y30.175 E5.26869
G1 X97.579 Y30.221 E5.27988 F1800.000
G1 X98.277 Y30.313 E5.28952
G1 X99.036 Y30.470 E5.30012
G1 X99.756 Y30.679 E5.31039
G1 X100.456 Y30.943 E5.32062
G1 X101.157 Y31.276 E5.33124
G1 X101.797 Y31.645 E5.34136
G1 X102.436 Y32.087 E5.35198
G1 X103.014 Y32.560 E5.36221
G1 X103.556 Y33.080 E5.37248
G1 X104.071 Y33.658 E5.38308
G1 X104.500 Y34.217 E5.39272
G1 X105.091 Y35.132 E5.40763
G1 X116.711 Y55.274 E5.72582
G1 X117.079 Y56.004 E5.73701
G1 X117.349 Y56.655 E5.74665
G1 X117.592 Y57.390 E5.75725
G1 X117.771 Y58.119 E5.76752
G1 X117.892 Y58.857 E5.77775
G1 X117.955 Y59.631 E5.78837
G1 X117.955 Y60.369 E5.79848
G1 X117.892 Y61.143 E5.80911
G1 X117.771 Y61.881 E5.81934
G1 X117.592 Y62.610 E5.82961
G1 X117.349 Y63.345 E5.84021
G1 X117.079 Y63.996 E5.84985
G1 X116.711 Y64.726 E5.86104
G1 X104.948 Y85.099 E6.18295
G1 X104.500 Y85.783 E6.19414
G1 X104.071 Y86.342 E6.20378
G1 X103.556 Y86.920 E6.21438
G1 X103.014 Y87.440 E6.22465
G1 X102.436 Y87.913 E6.23488
G1 X101.797 Y88.355 E6.24550
G1 X101.157 Y88.724 E6.25561
G1 X100.456 Y89.057 E6.26623
G1 X99.756 Y89.321 E6.27647
G1 X99.036 Y89.530 E6.28674
G1 X98.277 Y89.687 E6.29733
G1 X97.579 Y89.779 E6.30698
G1 X96.490 Y89.833 E6.32189
G1 X73.510 Y89.833 E6.63636
G1 X72.421 Y89.779 E6.65127
G1 X71.723 Y89.687 E6.66091
G1 X70.964 Y89.530 E6.67151
G1 X70.244 Y89.321 E6.68177
G1 X69.544 Y89.056 E6.69201
G1 X68.843 Y88.724 E6.70263
G1 X68.203 Y88.355 E6.71274
G1 X67.564 Y87.913 E6.72336
G1 X66.986 Y87.440 E6.73360
G1 X66.444 Y86.920 E6.74387
G1 X65.929 Y86.342 E6.75446
G1 X65.500 Y85.783 E6.76410
G1 X65.052 Y85.099 E6.77530
G1 X53.289 Y64.726 E7.09720
G1 X52.921 Y63.996 E7.10840
G1 X52.651 Y63.345 E7.11804
G1 X52.408 Y62.610 E7.12863
G1 X52.229 Y61.881 E7.13890
G1 X52.108 Y61.143 E7.14914
G1 X52.045 Y60.369 E7.15976
G1 X52.045 Y59.631 E7.16987
G1 X52.108 Y58.857 E7.18049
G1 X52.229 Y58.119 E7.19072
G1 X52.408 Y57.390 E7.20099
G1 X52.651 Y56.655 E7.21159
G1 X52.921 Y56.004 E7.22123
G1 X53.289 Y55.274 E7.23242
G1 X63.857 Y36.954 E7.52182
G1 X64.281 Y37.113 F7800.000
G4 P29
G1 X65.295 Y35.356 E7.54959 F1800.000
G1 X65.873 Y34.462 E7.56415
G1 X66.262 Y33.955 E7.57289
G1 X66.777 Y33.377 E7.58349
G1 X67.268 Y32.906 E7.59280
G1 X67.847 Y32.432 E7.60303
G1 X68.426 Y32.032 E7.61266
G1 X69.066 Y31.662 E7.62278
G1 X69.702 Y31.361 E7.63241
G1 X70.401 Y31.097 E7.64264
G1 X71.055 Y30.907 E7.65195
G1 X71.813 Y30.750 E7.66255
G1 X72.447 Y30.667 E7.67129
G1 X73.510 Y30.613 E7.68585
G1 X96.737 Y30.620 E8.00370
G1 X97.553 Y30.667 E8.01489 F1800.000
G1 X98.187 Y30.750 E8.02363
G1 X98.945 Y30.907 E8.03423
G1 X99.599 Y31.097 E8.04354
G1 X100.298 Y31.361 E8.05377
G1 X100.934 Y31.662 E8.06340
G1 X101.574 Y32.032 E8.07351
G1 X102.153 Y32.432 E8.08315
G1 X102.732 Y32.906 E8.09338
G1 X103.223 Y33.377 E8.10269
G1 X103.738 Y33.955 E8.11329
G1 X104.127 Y34.462 E8.12203
G1 X104.705 Y35.356 E8.13659
G1 X116.312 Y55.475 E8.45444
G1 X116.680 Y56.205 E8.46563
G1 X116.925 Y56.795 E8.47437
G1 X117.168 Y57.530 E8.48496
G1 X117.330 Y58.191 E8.49428
G1 X117.451 Y58.929 E8.50451
G1 X117.508 Y59.631 E8.51414
G1 X117.508 Y60.369 E8.52425
G1 X117.451 Y61.071 E8.53388
G1 X117.330 Y61.809 E8.54412
G1 X117.168 Y62.470 E8.55343
G1 X116.925 Y63.205 E8.56403
G1 X116.680 Y63.795 E8.57277
G1 X116.312 Y64.525 E8.58396
G1 X104.575 Y84.854 E8.90517
G1 X104.127 Y85.538 E8.91636
G1 X103.738 Y86.045 E8.92511
G1 X103.223 Y86.623 E8.93570
G1 X102.732 Y87.094 E8.94501
G1 X102.153 Y87.568 E8.95525
G1 X101.574 Y87.968 E8.96488
G1 X100.934 Y88.338 E8.97499
G1 X100.298 Y88.639 E8.98462
G1 X99.598 Y88.903 E8.99486
G1 X98.945 Y89.093 E9.00417
G1 X98.187 Y89.250 E9.01476
G1 X97.553 Y89.333 E9.02351
G1 X96.490 Y89.387 E9.03807
G1 X73.510 Y89.387 E9.35254
G1 X72.447 Y89.333 E9.36710
G1 X71.813 Y89.250 E9.37585
G1 X71.055 Y89.093 E9.38644
G1 X70.402 Y88.903 E9.39575
G1 X69.702 Y88.639 E9.40599
G1 X69.066 Y88.338 E9.41562
G1 X68.426 Y87.968 E9.42573
G1 X67.847 Y87.568 E9.43536
G1 X67.268 Y87.094 E9.44559
G1 X66.777 Y86.623 E9.45491
G1 X66.262 Y86.045 E9.46550
G1 X65.873 Y85.538 E9.47424
G1 X65.425 Y84.854 E9.48544
G1 X53.688 Y64.525 E9.80665
G1 X53.320 Y63.795 E9.81784
G1 X53.075 Y63.205 E9.82658
G1 X52.832 Y62.470 E9.83718
G1 X52.670 Y61.809 E9.84649
G1 X52.549 Y61.071 E9.85672
G1 X52.492 Y60.369 E9.86636
G1 X52.492 Y59.631 E9.87647
G1 X52.549 Y58.929 E9.88610
G1 X52.670 Y58.191 E9.89633
G1 X52.832 Y57.530 E9.90564
G1 X53.075 Y56.795 E9.91624
G1 X53.320 Y56.205 E9.92498
G1 X53.688 Y55.475 E9.93617
G1 X64.244 Y37.178 E10.22523
G1 X64.668 Y37.336 F7800.000
G4 P29
G1 X65.682 Y35.579 E10.25299 F1800.000
G1 X66.246 Y34.707 E10.26721
G1 X66.595 Y34.252 E10.27505
G1 X67.110 Y33.674 E10.28565
G1 X67.551 Y33.251 E10.29400
G1 X68.130 Y32.777 E10.30423
G1 X68.649 Y32.418 E10.31287
G1 X69.289 Y32.049 E10.32298
G1 X69.860 Y31.779 E10.33162
G1 X70.559 Y31.514 E10.34186
G1 X71.145 Y31.344 E10.35021
G1 X71.904 Y31.187 E10.36081
G1 X72.472 Y31.112 E10.36865
G1 X73.510 Y31.060 E10.38287
G1 X96.712 Y31.066 E10.70036
G1 X97.528 Y31.112 E10.71155 F1800.000
G1 X98.096 Y31.187 E10.71940
G1 X98.855 Y31.344 E10.72999
G1 X99.441 Y31.514 E10.73835
G1 X100.140 Y31.779 E10.74858
G1 X100.711 Y32.049 E10.75722
G1 X101.351 Y32.418 E10.76733
G1 X101.870 Y32.777 E10.77597
G1 X102.449 Y33.251 E10.78621
G1 X102.890 Y33.674 E10.79456
G1 X103.405 Y34.252 E10.80516
G1 X103.753 Y34.707 E10.81300
G1 X104.318 Y35.579 E10.82722
G1 X115.913 Y55.675 E11.14471
G1 X116.281 Y56.406 E11.15590
G1 X116.501 Y56.935 E11.16375
G1 X116.744 Y57.670 E11.17434
G1 X116.890 Y58.263 E11.18270
G1 X117.011 Y59.001 E11.19293
G1 X117.062 Y59.631 E11.20157
G1 X117.062 Y60.369 E11.21168
G1 X117.011 Y60.999 E11.22032
G1 X116.890 Y61.737 E11.23056
G1 X116.744 Y62.330 E11.23891
G1 X116.501 Y63.065 E11.24951
G1 X116.281 Y63.594 E11.25735
G1 X115.913 Y64.325 E11.26854
G1 X104.202 Y84.610 E11.58906
G1 X103.753 Y85.293 E11.60025
G1 X103.405 Y85.748 E11.60809
G1 X102.890 Y86.326 E11.61869
G1 X102.449 Y86.749 E11.62704
G1 X101.870 Y87.223 E11.63728
G1 X101.351 Y87.582 E11.64592
G1 X100.711 Y87.951 E11.65603
G1 X100.140 Y88.221 E11.66467
G1 X99.441 Y88.486 E11.67490
G1 X98.854 Y88.656 E11.68326
G1 X98.096 Y88.813 E11.69385
G1 X97.528 Y88.888 E11.70170
G1 X96.490 Y88.940 E11.71591
G1 X73.510 Y88.940 E12.03038
G1 X72.472 Y88.888 E12.04460
G1 X71.904 Y88.813 E12.05244
G1 X71.145 Y88.656 E12.06304
G1 X70.559 Y88.486 E12.07139
G1 X69.860 Y88.221 E12.08163
G1 X69.289 Y87.951 E12.09027
G1 X68.649 Y87.582 E12.10038
G1 X68.130 Y87.223 E12.10902
G1 X67.551 Y86.749 E12.11925
G1 X67.110 Y86.326 E12.12761
G1 X66.595 Y85.748 E12.13820
G1 X66.247 Y85.293 E12.14604
G1 X65.798 Y84.609 E12.15724
G1 X54.087 Y64.325 E12.47776
G1 X53.719 Y63.594 E12.48895
G1 X53.499 Y63.065 E12.49679
G1 X53.256 Y62.330 E12.50739
G1 X53.110 Y61.737 E12.51574
G1 X52.989 Y60.999 E12.52597
G1 X52.938 Y60.369 E12.53461
G1 X52.938 Y59.631 E12.54473
G1 X52.989 Y59.001 E12.55337
G1 X53.110 Y58.263 E12.56360
G1 X53.256 Y57.670 E12.57195
G1 X53.499 Y56.935 E12.58255
G1 X53.719 Y56.406 E12.59039
G1 X54.087 Y55.675 E12.60158
G1 X64.630 Y37.401 E12.89029
G1 X65.054 Y37.559 F7800.000
G4 P29
G1 X66.069 Y35.802 E12.91805 F1800.000
G1 X66.620 Y34.951 E12.93192
G1 X66.929 Y34.549 E12.93887
G1 X67.444 Y33.971 E12.94946
G1 X67.834 Y33.596 E12.95686
G1 X68.412 Y33.123 E12.96709
G1 X68.872 Y32.805 E12.97474
G1 X69.512 Y32.435 E12.98485
G1 X70.017 Y32.196 E12.99250
G1 X70.717 Y31.932 E13.00274
G1 X71.236 Y31.781 E13.01013
G1 X71.994 Y31.624 E13.02073
G1 X72.497 Y31.558 E13.02767
G1 X73.510 Y31.506 E13.04154
G1 X96.686 Y31.511 E13.35869
G1 X97.503 Y31.558 E13.36988 F1800.000
G1 X98.006 Y31.624 E13.37682
G1 X98.764 Y31.781 E13.38742
G1 X99.283 Y31.932 E13.39482
G1 X99.983 Y32.196 E13.40505
G1 X100.488 Y32.435 E13.41270
G1 X101.128 Y32.805 E13.42281
G1 X101.588 Y33.123 E13.43046
G1 X102.166 Y33.596 E13.44069
G1 X102.556 Y33.971 E13.44809
G1 X103.072 Y34.549 E13.45869
G1 X103.380 Y34.951 E13.46563
G1 X103.931 Y35.802 E13.47950
G1 X115.515 Y55.876 E13.79665
G1 X115.883 Y56.607 E13.80784
G1 X116.077 Y57.075 E13.81478
G1 X116.320 Y57.810 E13.82538
G1 X116.449 Y58.335 E13.83277
G1 X116.570 Y59.073 E13.84301
G1 X116.616 Y59.631 E13.85066
G1 X116.616 Y60.369 E13.86077
G1 X116.570 Y60.927 E13.86842
G1 X116.449 Y61.665 E13.87865
G1 X116.320 Y62.190 E13.88605
G1 X116.077 Y62.925 E13.89664
G1 X115.883 Y63.393 E13.90359
G1 X115.515 Y64.124 E13.91478
G1 X103.829 Y84.365 E14.23461
G1 X103.380 Y85.049 E14.24580
G1 X103.071 Y85.451 E14.25274
G1 X102.556 Y86.029 E14.26334
G1 X102.166 Y86.404 E14.27073
G1 X101.588 Y86.877 E14.28097
G1 X101.128 Y87.195 E14.28862
G1 X100.488 Y87.565 E14.29873
G1 X99.983 Y87.804 E14.30638
G1 X99.283 Y88.068 E14.31661
G1 X98.764 Y88.219 E14.32401
G1 X98.006 Y88.376 E14.33460
G1 X97.503 Y88.442 E14.34155
G1 X96.490 Y88.494 E14.35542
G1 X73.510 Y88.494 E14.66989
G1 X72.497 Y88.442 E14.68376
G1 X71.994 Y88.376 E14.69070
G1 X71.236 Y88.219 E14.70130
G1 X70.717 Y88.068 E14.70869
G1 X70.017 Y87.804 E14.71893
G1 X69.512 Y87.565 E14.72657
G1 X68.872 Y87.195 E14.73669
G1 X68.412 Y86.877 E14.74434
G1 X67.834 Y86.404 E14.75457
G1 X67.444 Y86.029 E14.76196
G1 X66.929 Y85.451 E14.77256
G1 X66.620 Y85.049 E14.77951
G1 X66.171 Y84.365 E14.79070
G1 X54.485 Y64.124 E15.11052
G1 X54.117 Y63.393 E15.12171
G1 X53.923 Y62.925 E15.12866
G1 X53.680 Y62.190 E15.13925
G1 X53.551 Y61.665 E15.14665
G1 X53.430 Y60.927 E15.15688
G1 X53.384 Y60.369 E15.16453
G1 X53.384 Y59.631 E15.17464
G1 X53.430 Y59.073 E15.18229
G1 X53.551 Y58.335 E15.19253
G1 X53.680 Y57.810 E15.19992
G1 X53.923 Y57.075 E15.21052
G1 X54.117 Y56.607 E15.21746
G1 X54.485 Y55.876 E15.22865
G1 X65.017 Y37.624 E15.51701
G1 E13.51701 F1920.00000
G92 E0
G1 X100.317 Y65.747 F7800.000
G1 E2.00000 F1920.00000
G1 X99.792 Y66.961 E2.01809 F1800.000
G1 X99.326 Y67.876 E2.03215
G1 X98.806 Y68.755 E2.04612
G1 X97.652 Y70.417 E2.07381
G1 X98.834 Y72.266 E2.10383
G1 X99.501 Y73.589 E2.12411
G1 X99.709 Y74.085 E2.13147
G1 X100.010 Y74.900 E2.14335
G1 X100.387 Y76.207 E2.16197
G1 X100.591 Y77.439 E2.17906
G1 X100.676 Y78.579 E2.19470
G1 X100.621 Y79.591 E2.20857
G1 X100.469 Y80.500 E2.22119
G1 X100.247 Y81.277 E2.23224
G1 X99.947 Y81.916 E2.24190
G1 X99.589 Y82.461 E2.25083
G1 X99.190 Y82.909 E2.25904
G1 X98.753 Y83.267 E2.26677
G1 X98.274 Y83.544 E2.27434
G1 X97.745 Y83.744 E2.28207
G1 X97.158 Y83.865 E2.29028
G1 X96.506 Y83.902 E2.29921
G1 X95.803 Y83.843 E2.30886
G1 X95.020 Y83.647 E2.31992
G1 X94.156 Y83.323 E2.33254
G1 X93.252 Y82.865 E2.34641
G1 X92.304 Y82.220 E2.36210
G1 X91.358 Y81.445 E2.37883
G1 X90.398 Y80.449 E2.39776
G1 X89.843 Y79.781 E2.40964
G1 X89.517 Y79.353 E2.41700
G1 X88.705 Y78.113 E2.43728
G1 X87.691 Y76.158 E2.46741
G1 X86.027 Y76.316 E2.49030
G1 X85.000 Y76.348 E2.50435
G1 X83.973 Y76.316 E2.51841
G1 X82.309 Y76.158 E2.54129
G1 X81.295 Y78.113 E2.57142
G1 X80.483 Y79.353 E2.59170
G1 X80.157 Y79.781 E2.59907
G1 X79.602 Y80.449 E2.61095
G1 X78.658 Y81.429 E2.62957
G1 X77.693 Y82.221 E2.64665
G1 X76.748 Y82.865 E2.66229
G1 X75.844 Y83.323 E2.67616
G1 X74.980 Y83.647 E2.68878
G1 X74.197 Y83.843 E2.69984
G1 X73.494 Y83.902 E2.70949
G1 X72.842 Y83.865 E2.71842
G1 X72.255 Y83.744 E2.72663
G1 X71.726 Y83.544 E2.73436
G1 X71.247 Y83.267 E2.74193
G1 X70.810 Y82.909 E2.74966
G1 X70.411 Y82.461 E2.75787
G1 X70.053 Y81.916 E2.76680
G1 X69.753 Y81.277 E2.77646
G1 X69.531 Y80.501 E2.78751
G1 X69.379 Y79.585 E2.80021
G1 X69.323 Y78.600 E2.81372
G1 X69.409 Y77.435 E2.82969
G1 X69.607 Y76.228 E2.84643
G1 X69.990 Y74.900 E2.86535
G1 X70.291 Y74.085 E2.87723
G1 X70.499 Y73.589 E2.88460
G1 X71.166 Y72.266 E2.90488
G1 X72.348 Y70.417 E2.93490
G1 X71.194 Y68.755 E2.96259
G1 X70.674 Y67.876 E2.97656
G1 X70.208 Y66.961 E2.99062
G1 X69.683 Y65.747 E3.00871
G1 X67.461 Y65.847 E3.03914
G1 X65.981 Y65.764 E3.05942
G1 X65.447 Y65.696 E3.06679
G1 X64.592 Y65.549 E3.07867
G1 X63.271 Y65.222 E3.09729
G1 X62.102 Y64.783 E3.11437
G1 X61.073 Y64.286 E3.13001
G1 X60.224 Y63.732 E3.14388
G1 X59.512 Y63.146 E3.15650
G1 X58.950 Y62.566 E3.16756
G1 X58.547 Y61.986 E3.17721
G1 X58.253 Y61.404 E3.18614
G1 X58.065 Y60.834 E3.19435
G1 X57.974 Y60.276 E3.20208
G1 X57.974 Y59.724 E3.20965
G1 X58.065 Y59.166 E3.21738
G1 X58.253 Y58.596 E3.22559
G1 X58.547 Y58.014 E3.23452
G1 X58.950 Y57.434 E3.24418
G1 X59.512 Y56.854 E3.25523
G1 X60.224 Y56.267 E3.26785
G1 X61.073 Y55.714 E3.28172
G1 X62.105 Y55.216 E3.29741
G1 X63.250 Y54.784 E3.31415
G1 X64.592 Y54.451 E3.33307
G1 X65.447 Y54.304 E3.34495
G1 X65.981 Y54.236 E3.35232
G1 X67.461 Y54.153 E3.37260
G1 X69.683 Y54.253 E3.40303
G1 X70.208 Y53.039 E3.42112
