; generated by Slic3r 1.2.9 on 2015-12-13 at 22:23:27

; external perimeters extrusion width = 0.50mm
; perimeters extrusion width = 0.50mm
; infill extrusion width = 0.50mm
; solid infill extrusion width = 0.50mm
; top infill extrusion width = 0.50mm

M107
M190 S60 ; set bed temperature
M104 S210 ; set temperature
G28 ; home all axes
M109 S210 ; wait for temperature to be reached
G21 ; set units to millimeters
G90 ; use absolute coordinates
M82 ; use absolute distances for extrusion
G92 E0
G1 Z0.350 F7800.000
G1 E-2.00000 F1920.00000
G92 E0
G1 X61.673 Y49.881 F7800.000
G1 E2.00000 F1920.00000
M204 S3000
G1 X62.331 Y49.068 E2.00795 F1500.000
G1 X62.803 Y48.543 E2.01331
G1 X63.543 Y47.803 E2.02126
G1 X64.068 Y47.331 E2.02662
G1 X64.881 Y46.673 E2.03457
G1 X65.452 Y46.258 E2.03993
G1 X66.330 Y45.688 E2.04789
G1 X66.941 Y45.335 E2.05324
G1 X67.873 Y44.860 E2.06120
G1 X68.518 Y44.573 E2.06656
G1 X69.434 Y44.221 E2.07401
G1 X70.166 Y43.980 E2.07987
G1 X71.177 Y43.709 E2.08782
G1 X71.867 Y43.562 E2.09318
G1 X72.901 Y43.399 E2.10113
G1 X73.602 Y43.325 E2.10649
G1 X75.000 Y43.261 E2.11712
G1 X95.353 Y43.270 E2.27174
G1 X96.398 Y43.325 E2.27970 F1500.000
G1 X97.099 Y43.399 E2.28506
G1 X98.133 Y43.562 E2.29301
G1 X98.823 Y43.709 E2.29837
G1 X99.834 Y43.980 E2.30632
G1 X100.505 Y44.198 E2.31168
G1 X101.482 Y44.573 E2.31963
G1 X102.127 Y44.860 E2.32499
G1 X103.059 Y45.335 E2.33294
G1 X103.670 Y45.688 E2.33830
G1 X104.548 Y46.258 E2.34625
G1 X105.119 Y46.673 E2.35161
G1 X105.932 Y47.331 E2.35957
G1 X106.456 Y47.803 E2.36492
G1 X107.197 Y48.543 E2.37288
G1 X107.669 Y49.067 E2.37823
G1 X108.327 Y49.881 E2.38619
G1 X108.742 Y50.452 E2.39155
G1 X109.312 Y51.330 E2.39950
G1 X109.665 Y51.941 E2.40486
G1 X110.140 Y52.873 E2.41281
G1 X110.427 Y53.518 E2.41817
G1 X110.779 Y54.434 E2.42562
G1 X111.020 Y55.166 E2.43148
G1 X111.291 Y56.177 E2.43943
G1 X111.438 Y56.866 E2.44479
G1 X111.601 Y57.901 E2.45274
G1 X111.675 Y58.602 E2.45810
G1 X111.730 Y59.647 E2.46605
G1 X111.730 Y60.353 E2.47141
G1 X111.675 Y61.398 E2.47937
G1 X111.601 Y62.100 E2.48472
G1 X111.438 Y63.133 E2.49268
G1 X111.291 Y63.823 E2.49804
G1 X111.020 Y64.834 E2.50599
G1 X110.802 Y65.505 E2.51135
G1 X110.427 Y66.482 E2.51930
G1 X110.140 Y67.127 E2.52466
G1 X109.695 Y68.001 E2.53211
G1 X109.312 Y68.670 E2.53797
G1 X108.742 Y69.548 E2.54592
G1 X108.327 Y70.119 E2.55128
G1 X107.669 Y70.932 E2.55923
G1 X107.197 Y71.457 E2.56459
G1 X106.457 Y72.197 E2.57254
G1 X105.932 Y72.669 E2.57790
G1 X105.119 Y73.327 E2.58585
G1 X104.548 Y73.742 E2.59121
G1 X103.670 Y74.312 E2.59917
G1 X103.001 Y74.694 E2.60502
G1 X102.127 Y75.140 E2.61248
G1 X101.482 Y75.427 E2.61784
G1 X100.505 Y75.802 E2.62579
G1 X99.834 Y76.020 E2.63115
G1 X98.823 Y76.291 E2.63910
G1 X98.133 Y76.438 E2.64446
G1 X97.099 Y76.601 E2.65241
G1 X96.398 Y76.675 E2.65777
G1 X95.000 Y76.739 E2.66840
G1 X75.000 Y76.739 E2.82035
G1 X73.602 Y76.675 E2.83098
G1 X72.836 Y76.591 E2.83683
G1 X71.867 Y76.438 E2.84429
G1 X71.177 Y76.291 E2.84965
G1 X70.166 Y76.020 E2.85760
G1 X69.495 Y75.802 E2.86296
G1 X68.518 Y75.427 E2.87091
G1 X67.873 Y75.140 E2.87627
G1 X66.941 Y74.665 E2.88422
G1 X66.330 Y74.312 E2.88958
G1 X65.452 Y73.742 E2.89753
G1 X64.881 Y73.327 E2.90289
G1 X64.068 Y72.669 E2.91085
G1 X63.544 Y72.197 E2.91620
G1 X62.803 Y71.457 E2.92416
G1 X62.331 Y70.932 E2.92952
G1 X61.673 Y70.119 E2.93747
G1 X61.222 Y69.493 E2.94332
G1 X60.688 Y68.670 E2.95078
G1 X60.335 Y68.059 E2.95614
G1 X59.860 Y67.127 E2.96409
G1 X59.573 Y66.482 E2.96945
G1 X59.198 Y65.505 E2.97740
G1 X58.980 Y64.834 E2.98276
G1 X58.709 Y63.823 E2.99071
G1 X58.562 Y63.133 E2.99607
G1 X58.399 Y62.100 E3.00402
G1 X58.325 Y61.398 E3.00938
G1 X58.270 Y60.353 E3.01733
G1 X58.270 Y59.647 E3.02269
G1 X58.325 Y58.602 E3.03065
G1 X58.399 Y57.901 E3.03600
G1 X58.562 Y56.867 E3.04396
G1 X58.709 Y56.177 E3.04932
G1 X58.980 Y55.166 E3.05727
G1 X59.198 Y54.495 E3.06263
G1 X59.573 Y53.518 E3.07058
G1 X59.860 Y52.873 E3.07594
G1 X60.335 Y51.941 E3.08389
G1 X60.688 Y51.330 E3.08925
G1 X61.258 Y50.452 E3.09720
G1 X61.629 Y49.942 E3.10199
G1 X61.864 Y50.036 F7800.000
G4 P31
G1 X62.523 Y49.223 E3.10994 F1500.000
G1 X62.978 Y48.718 E3.11511
G1 X63.718 Y47.978 E3.12306
G1 X64.223 Y47.523 E3.12822
G1 X65.036 Y46.864 E3.13617
G1 X65.586 Y46.465 E3.14134
G1 X66.464 Y45.894 E3.14929
G1 X67.052 Y45.555 E3.15445
G1 X67.985 Y45.079 E3.16240
G1 X68.606 Y44.803 E3.16757
G1 X69.522 Y44.451 E3.17502
G1 X70.229 Y44.218 E3.18068
G1 X71.240 Y43.947 E3.18863
G1 X71.905 Y43.806 E3.19380
G1 X72.939 Y43.642 E3.20175
G1 X73.615 Y43.571 E3.20691
G1 X75.000 Y43.507 E3.21745
G1 X95.340 Y43.516 E3.37197
G1 X96.385 Y43.571 E3.37993 F1500.000
G1 X97.061 Y43.642 E3.38509
G1 X98.095 Y43.806 E3.39304
G1 X98.760 Y43.947 E3.39820
G1 X99.771 Y44.218 E3.40616
G1 X100.417 Y44.428 E3.41132
G1 X101.394 Y44.803 E3.41927
G1 X102.015 Y45.080 E3.42443
G1 X102.948 Y45.555 E3.43239
G1 X103.536 Y45.895 E3.43755
G1 X104.414 Y46.465 E3.44550
G1 X104.964 Y46.864 E3.45067
G1 X105.777 Y47.523 E3.45862
G1 X106.282 Y47.977 E3.46378
G1 X107.022 Y48.718 E3.47173
G1 X107.477 Y49.223 E3.47689
G1 X108.136 Y50.036 E3.48485
G1 X108.535 Y50.586 E3.49001
G1 X109.105 Y51.464 E3.49796
G1 X109.445 Y52.052 E3.50313
G1 X109.921 Y52.985 E3.51108
G1 X110.197 Y53.606 E3.51624
G1 X110.549 Y54.522 E3.52370
G1 X110.782 Y55.229 E3.52936
G1 X111.053 Y56.240 E3.53731
G1 X111.194 Y56.905 E3.54247
G1 X111.358 Y57.939 E3.55042
G1 X111.429 Y58.615 E3.55559
G1 X111.484 Y59.660 E3.56354
G1 X111.484 Y60.340 E3.56870
G1 X111.429 Y61.385 E3.57665
G1 X111.358 Y62.061 E3.58182
G1 X111.194 Y63.095 E3.58977
G1 X111.053 Y63.760 E3.59493
G1 X110.782 Y64.771 E3.60289
G1 X110.572 Y65.417 E3.60805
G1 X110.197 Y66.394 E3.61600
G1 X109.920 Y67.015 E3.62116
G1 X109.475 Y67.889 E3.62862
G1 X109.105 Y68.536 E3.63428
G1 X108.535 Y69.414 E3.64223
G1 X108.136 Y69.964 E3.64739
G1 X107.477 Y70.777 E3.65535
G1 X107.022 Y71.282 E3.66051
G1 X106.282 Y72.022 E3.66846
G1 X105.777 Y72.477 E3.67362
G1 X104.964 Y73.136 E3.68158
G1 X104.414 Y73.535 E3.68674
G1 X103.536 Y74.105 E3.69469
G1 X102.889 Y74.475 E3.70035
G1 X102.015 Y74.920 E3.70781
G1 X101.394 Y75.197 E3.71297
G1 X100.417 Y75.572 E3.72092
G1 X99.771 Y75.782 E3.72609
G1 X98.760 Y76.053 E3.73404
G1 X98.095 Y76.194 E3.73920
G1 X97.061 Y76.358 E3.74715
G1 X96.385 Y76.429 E3.75232
G1 X95.000 Y76.493 E3.76285
G1 X75.000 Y76.493 E3.91479
G1 X73.615 Y76.429 E3.92533
G1 X72.875 Y76.348 E3.93099
G1 X71.905 Y76.194 E3.93844
G1 X71.241 Y76.053 E3.94361
G1 X70.229 Y75.782 E3.95156
G1 X69.583 Y75.572 E3.95672
G1 X68.606 Y75.197 E3.96467
G1 X67.985 Y74.920 E3.96984
G1 X67.052 Y74.445 E3.97779
G1 X66.464 Y74.106 E3.98295
G1 X65.586 Y73.535 E3.99090
G1 X65.036 Y73.136 E3.99607
G1 X64.223 Y72.477 E4.00402
G1 X63.718 Y72.023 E4.00918
G1 X62.978 Y71.282 E4.01714
G1 X62.523 Y70.777 E4.02230
G1 X61.864 Y69.964 E4.03025
G1 X61.429 Y69.359 E4.03591
G1 X60.895 Y68.536 E4.04337
G1 X60.555 Y67.948 E4.04853
G1 X60.080 Y67.015 E4.05648
G1 X59.803 Y66.394 E4.06164
G1 X59.428 Y65.417 E4.06960
G1 X59.218 Y64.771 E4.07476
G1 X58.947 Y63.760 E4.08271
G1 X58.806 Y63.095 E4.08787
G1 X58.642 Y62.061 E4.09583
G1 X58.571 Y61.385 E4.10099
G1 X58.516 Y60.340 E4.10894
G1 X58.516 Y59.660 E4.11410
G1 X58.571 Y58.615 E4.12206
G1 X58.642 Y57.939 E4.12722
G1 X58.806 Y56.905 E4.13517
G1 X58.947 Y56.240 E4.14034
G1 X59.218 Y55.229 E4.14829
G1 X59.428 Y54.583 E4.15345
G1 X59.803 Y53.606 E4.16140
G1 X60.080 Y52.985 E4.16657
G1 X60.555 Y52.052 E4.17452
G1 X60.894 Y51.464 E4.17968
G1 X61.465 Y50.586 E4.18763
G1 X61.820 Y50.097 E4.19223
G1 X62.056 Y50.191 F7800.000
G4 P31
G1 X62.714 Y49.378 E4.20018 F1500.000
G1 X63.152 Y48.892 E4.20515
G1 X63.892 Y48.152 E4.21310
G1 X64.378 Y47.714 E4.21807
G1 X65.191 Y47.055 E4.22602
G1 X65.720 Y46.671 E4.23099
G1 X66.598 Y46.101 E4.23894
G1 X67.164 Y45.774 E4.24391
G1 X68.097 Y45.299 E4.25186
G1 X68.694 Y45.033 E4.25682
G1 X69.610 Y44.681 E4.26428
G1 X70.293 Y44.456 E4.26974
G1 X71.304 Y44.185 E4.27770
G1 X71.944 Y44.049 E4.28266
G1 X72.978 Y43.885 E4.29062
G1 X73.628 Y43.817 E4.29558
G1 X75.000 Y43.754 E4.30602
G1 X95.327 Y43.762 E4.46045
G1 X96.372 Y43.817 E4.46840 F1500.000
G1 X97.022 Y43.885 E4.47337
G1 X98.056 Y44.049 E4.48132
G1 X98.696 Y44.185 E4.48629
G1 X99.707 Y44.456 E4.49424
G1 X100.329 Y44.658 E4.49921
G1 X101.306 Y45.033 E4.50716
G1 X101.903 Y45.299 E4.51212
G1 X102.836 Y45.774 E4.52008
G1 X103.402 Y46.101 E4.52504
G1 X104.280 Y46.671 E4.53300
G1 X104.809 Y47.055 E4.53796
G1 X105.622 Y47.714 E4.54592
G1 X106.108 Y48.152 E4.55088
G1 X106.848 Y48.892 E4.55884
G1 X107.286 Y49.378 E4.56380
G1 X107.944 Y50.191 E4.57175
G1 X108.329 Y50.720 E4.57672
G1 X108.899 Y51.598 E4.58467
G1 X109.226 Y52.164 E4.58964
G1 X109.701 Y53.097 E4.59759
G1 X109.967 Y53.694 E4.60256
G1 X110.319 Y54.610 E4.61002
G1 X110.544 Y55.293 E4.61548
G1 X110.815 Y56.304 E4.62343
G1 X110.951 Y56.944 E4.62840
G1 X111.115 Y57.978 E4.63635
G1 X111.183 Y58.628 E4.64132
G1 X111.238 Y59.673 E4.64927
G1 X111.238 Y60.327 E4.65424
G1 X111.183 Y61.372 E4.66219
G1 X111.115 Y62.022 E4.66716
G1 X110.951 Y63.056 E4.67511
G1 X110.815 Y63.696 E4.68008
G1 X110.544 Y64.707 E4.68803
G1 X110.342 Y65.329 E4.69300
G1 X109.967 Y66.306 E4.70095
G1 X109.701 Y66.903 E4.70592
G1 X109.256 Y67.777 E4.71337
G1 X108.899 Y68.402 E4.71883
G1 X108.329 Y69.280 E4.72679
G1 X107.944 Y69.809 E4.73175
G1 X107.286 Y70.622 E4.73971
G1 X106.848 Y71.108 E4.74467
G1 X106.108 Y71.848 E4.75263
G1 X105.622 Y72.286 E4.75759
G1 X104.809 Y72.944 E4.76554
G1 X104.280 Y73.329 E4.77051
G1 X103.402 Y73.899 E4.77846
G1 X102.778 Y74.255 E4.78393
G1 X101.903 Y74.701 E4.79138
G1 X101.306 Y74.967 E4.79635
G1 X100.329 Y75.342 E4.80430
G1 X99.707 Y75.544 E4.80927
G1 X98.696 Y75.815 E4.81722
G1 X98.056 Y75.951 E4.82219
G1 X97.022 Y76.115 E4.83014
G1 X96.372 Y76.183 E4.83511
G1 X95.000 Y76.246 E4.84554
G1 X75.000 Y76.246 E4.99749
G1 X73.628 Y76.183 E5.00793
G1 X72.913 Y76.104 E5.01339
G1 X71.944 Y75.951 E5.02084
G1 X71.304 Y75.815 E5.02581
G1 X70.293 Y75.544 E5.03376
G1 X69.671 Y75.342 E5.03873
G1 X68.694 Y74.967 E5.04668
G1 X68.097 Y74.701 E5.05165
G1 X67.164 Y74.226 E5.05960
G1 X66.598 Y73.899 E5.06457
G1 X65.720 Y73.329 E5.07252
G1 X65.191 Y72.945 E5.07749
G1 X64.378 Y72.286 E5.08544
G1 X63.892 Y71.848 E5.09041
G1 X63.152 Y71.108 E5.09836
G1 X62.714 Y70.622 E5.10333
G1 X62.056 Y69.809 E5.11128
G1 X61.636 Y69.225 E5.11674
G1 X61.101 Y68.402 E5.12420
G1 X60.774 Y67.836 E5.12917
G1 X60.299 Y66.903 E5.13712
G1 X60.033 Y66.306 E5.14209
G1 X59.658 Y65.329 E5.15004
G1 X59.456 Y64.707 E5.15500
G1 X59.185 Y63.696 E5.16296
G1 X59.049 Y63.056 E5.16792
G1 X58.885 Y62.022 E5.17588
G1 X58.817 Y61.372 E5.18084
G1 X58.762 Y60.327 E5.18880
G1 X58.762 Y59.673 E5.19376
G1 X58.817 Y58.628 E5.20172
G1 X58.885 Y57.978 E5.20668
G1 X59.049 Y56.944 E5.21463
G1 X59.185 Y56.304 E5.21960
G1 X59.456 Y55.293 E5.22755
G1 X59.658 Y54.671 E5.23252
G1 X60.033 Y53.694 E5.24047
G1 X60.299 Y53.097 E5.24544
G1 X60.774 Y52.164 E5.25339
G1 X61.101 Y51.598 E5.25836
G1 X61.671 Y50.720 E5.26631
G1 X62.011 Y50.252 E5.27071
G1 E3.27071 F1920.00000
G92 E0
G1 X88.443 Y63.233 F7800.000
G1 E2.00000 F1920.00000
G1 X87.531 Y63.988 E2.00899 F1500.000
G1 X86.459 Y64.492 E2.01799
G1 X85.297 Y64.713 E2.02698
G1 X84.115 Y64.639 E2.03598
G1 X82.989 Y64.273 E2.04497
G1 X81.990 Y63.639 E2.05396
G1 X81.179 Y62.776 E2.06296
G1 X80.609 Y61.739 E2.07195
G1 X80.314 Y60.592 E2.08095
G1 X80.314 Y59.408 E2.08994
G1 X80.609 Y58.261 E2.09893
G1 X81.179 Y57.224 E2.10793
G1 X81.990 Y56.361 E2.11692
G1 X82.989 Y55.727 E2.12592
G1 X84.115 Y55.361 E2.13491
G1 X84.296 Y55.349 E2.13629
G1 X85.297 Y55.287 E2.14390 F1500.000
G1 X86.459 Y55.508 E2.15290
G1 X87.531 Y56.012 E2.16189
G1 X88.443 Y56.767 E2.17089
G1 X89.139 Y57.725 E2.17988
G1 X89.574 Y58.825 E2.18887
G1 X89.723 Y60.000 E2.19787
G1 X89.574 Y61.175 E2.20686
G1 X89.139 Y62.275 E2.21586
G1 X88.487 Y63.172 E2.22428
G1 X88.262 Y63.063 F7800.000
G4 P31
G1 X87.398 Y63.778 E2.23280 F1500.000
G1 X86.383 Y64.256 E2.24132
G1 X85.281 Y64.466 E2.24984
G1 X84.162 Y64.395 E2.25836
G1 X83.095 Y64.049 E2.26689
G1 X82.148 Y63.448 E2.27541
G1 X81.380 Y62.630 E2.28393
G1 X80.840 Y61.647 E2.29245
G1 X80.561 Y60.561 E2.30097
G1 X80.561 Y59.439 E2.30949
G1 X80.840 Y58.353 E2.31801
G1 X81.380 Y57.370 E2.32653
G1 X82.148 Y56.552 E2.33506
G1 X83.095 Y55.951 E2.34358
G1 X84.162 Y55.605 E2.35210
G1 X84.312 Y55.595 E2.35324
G1 X85.281 Y55.534 E2.36062 F1500.000
G1 X86.383 Y55.744 E2.36914
G1 X87.398 Y56.222 E2.37766
G1 X88.262 Y56.937 E2.38618
G1 X88.921 Y57.844 E2.39470
G1 X89.334 Y58.887 E2.40322
G1 X89.474 Y60.000 E2.41175
G1 X89.334 Y61.113 E2.42027
G1 X88.921 Y62.156 E2.42879
G1 X88.306 Y63.002 E2.43674
G1 X88.081 Y62.893 F7800.000
G4 P31
G1 X87.265 Y63.568 E2.44479 F1500.000
G1 X86.306 Y64.019 E2.45284
G1 X85.265 Y64.218 E2.46088
G1 X84.208 Y64.151 E2.46893
G1 X83.201 Y63.824 E2.47698
G1 X82.306 Y63.256 E2.48503
G1 X81.581 Y62.484 E2.49308
G1 X81.071 Y61.556 E2.50113
G1 X80.807 Y60.530 E2.50917
G1 X80.807 Y59.470 E2.51722
G1 X81.071 Y58.444 E2.52527
G1 X81.581 Y57.516 E2.53332
G1 X82.306 Y56.744 E2.54137
G1 X83.201 Y56.176 E2.54941
G1 X84.208 Y55.849 E2.55746
G1 X84.327 Y55.841 E2.55837
G1 X85.265 Y55.782 E2.56551 F1500.000
G1 X86.306 Y55.981 E2.57356
G1 X87.265 Y56.432 E2.58161
G1 X88.081 Y57.107 E2.58966
G1 X88.703 Y57.964 E2.59770
G1 X89.093 Y58.949 E2.60575
G1 X89.226 Y60.000 E2.61380
G1 X89.093 Y61.051 E2.62185
G1 X88.703 Y62.036 E2.62990
G1 X88.125 Y62.832 E2.63738
G1 X88.205 Y63.377 F7800.000
G1 E0.63738 F1920.00000
G92 E0
G4 P29
G1 X77.177 Y60.559 F7800.000
G1 E2.00000 F1920.00000
G1 X76.970 Y61.083 E2.00428 F1500.000
G1 X76.639 Y61.539 E2.00856
G1 X76.204 Y61.898 E2.01284
G1 X75.695 Y62.138 E2.01712
G1 X75.141 Y62.243 E2.02140
G1 X74.579 Y62.208 E2.02568
G1 X74.043 Y62.034 E2.02996
G1 X73.567 Y61.732 E2.03425
G1 X73.181 Y61.321 E2.03853
G1 X72.910 Y60.827 E2.04281
G1 X72.770 Y60.282 E2.04709
G1 X72.770 Y59.718 E2.05137
G1 X72.917 Y59.147 E2.05585
G1 X73.185 Y58.675 E2.05997
G1 X73.567 Y58.268 E2.06422
G1 X74.046 Y57.964 E2.06852
G1 X74.599 Y57.791 E2.07293
G1 X75.141 Y57.757 E2.07705 F1500.000
G1 X75.695 Y57.862 E2.08133
G1 X76.204 Y58.102 E2.08562
G1 X76.641 Y58.463 E2.08992
G1 X76.977 Y58.936 E2.09432
G1 X77.177 Y59.441 E2.09845
G1 X77.248 Y60.000 E2.10273
G1 X77.187 Y60.485 E2.10645
G1 X76.937 Y60.497 F7800.000
G1 X76.752 Y60.963 E2.11025 F1500.000
G1 X76.458 Y61.369 E2.11406
G1 X76.071 Y61.688 E2.11787
G1 X75.618 Y61.902 E2.12168
G1 X75.126 Y61.996 E2.12548
G1 X74.625 Y61.964 E2.12929
G1 X74.149 Y61.809 E2.13310
G1 X73.725 Y61.541 E2.13691
G1 X73.382 Y61.175 E2.14072
G1 X73.141 Y60.736 E2.14452
G1 X73.016 Y60.251 E2.14833
G1 X73.016 Y59.749 E2.15214
G1 X73.147 Y59.240 E2.15614
G1 X73.384 Y58.823 E2.15978
G1 X73.725 Y58.459 E2.16357
G1 X74.150 Y58.190 E2.16739
G1 X74.644 Y58.035 E2.17132
G1 X75.126 Y58.004 E2.17499 F1500.000
G1 X75.618 Y58.098 E2.17880
G1 X76.071 Y58.312 E2.18260
G1 X76.459 Y58.633 E2.18643
G1 X76.759 Y59.054 E2.19036
G1 X76.937 Y59.503 E2.19402
G1 X76.999 Y60.000 E2.19783
G1 X76.946 Y60.423 E2.20107
G1 X76.696 Y60.436 F7800.000
G1 X76.535 Y60.844 E2.20440 F1500.000
G1 X76.277 Y61.199 E2.20774
G1 X75.938 Y61.479 E2.21107
G1 X75.541 Y61.665 E2.21441
G1 X75.110 Y61.748 E2.21774
G1 X74.672 Y61.720 E2.22108
G1 X74.254 Y61.585 E2.22441
G1 X73.884 Y61.349 E2.22775
G1 X73.583 Y61.029 E2.23108
G1 X73.372 Y60.645 E2.23442
G1 X73.263 Y60.219 E2.23775
G1 X73.263 Y59.781 E2.24109
G1 X73.378 Y59.333 E2.24460
G1 X73.584 Y58.970 E2.24777
G1 X73.884 Y58.651 E2.25110
G1 X74.255 Y58.415 E2.25444
G1 X74.689 Y58.279 E2.25790
G1 X75.110 Y58.252 E2.26110 F1500.000
G1 X75.541 Y58.335 E2.26443
G1 X75.938 Y58.521 E2.26777
G1 X76.277 Y58.802 E2.27111
G1 X76.541 Y59.173 E2.27457
G1 X76.696 Y59.564 E2.27777
G1 X76.751 Y60.000 E2.28110
G1 X76.706 Y60.361 E2.28387
G4 P18
G1 X76.997 Y60.755 F7800.000
G1 E0.28387 F1920.00000
G92 E0
G1 X92.770 Y60.282 F7800.000
G1 E2.00000 F1920.00000
G1 X92.770 Y59.718 E2.00428 F1500.000
G1 X92.917 Y59.147 E2.00876
G1 X93.185 Y58.675 E2.01288
G1 X93.567 Y58.268 E2.01713
G1 X94.046 Y57.964 E2.02143
