; generated by Slic3r 1.2.9 on 2015-12-14 at 00:10:04

; external perimeters extrusion width = 0.50mm
; perimeters extrusion width = 0.50mm
; infill extrusion width = 0.50mm
; solid infill extrusion width = 0.50mm
; top infill extrusion width = 0.50mm

M107
M190 S60 ; set bed temperature
M104 S210 ; set temperature
G28 ; home all axes
M109 S210 ; wait for temperature to be reached
G21 ; set units to millimeters
G90 ; use absolute coordinates
M82 ; use absolute distances for extrusion
G92 E0
G1 Z0.350 F7800.000
G1 E-2.00000 F1920.00000
G92 E0
G1 X61.673 Y49.881 F7800.000
G1 E2.00000 F1920.00000
M204 S3000
G1 X62.331 Y49.068 E2.00795 F1500.000
G1 X62.803 Y48.543 E2.01331
G1 X63.543 Y47.803 E2.02126
G1 X64.068 Y47.331 E2.02662
G1 X64.881 Y46.673 E2.03457
G1 X65.452 Y46.258 E2.03993
G1 X66.585 Y45.530 E2.05017
G1 X77.585 Y39.065 E2.14710
G1 X79.751 Y38.253 E2.16468
G1 X81.000 Y38.136 E2.17421
G1 X89.000 Y38.136 E2.23498
G1 X91.279 Y38.533 E2.25256
G1 X92.415 Y39.065 E2.26209 F1500.000
G1 X103.670 Y45.688 E2.36130
G1 X104.548 Y46.258 E2.36926
G1 X105.119 Y46.673 E2.37461
G1 X105.932 Y47.331 E2.38257
G1 X106.456 Y47.803 E2.38793
G1 X107.197 Y48.543 E2.39588
G1 X107.669 Y49.068 E2.40124
G1 X108.327 Y49.881 E2.40919
G1 X108.778 Y50.507 E2.41504
G1 X109.312 Y51.330 E2.42250
G1 X109.665 Y51.941 E2.42786
G1 X110.140 Y52.873 E2.43581
G1 X110.427 Y53.518 E2.44117
G1 X110.802 Y54.495 E2.44912
G1 X111.020 Y55.166 E2.45448
G1 X111.291 Y56.177 E2.46243
G1 X111.438 Y56.866 E2.46779
G1 X111.601 Y57.901 E2.47575
G1 X111.675 Y58.602 E2.48110
G1 X111.730 Y59.647 E2.48906
G1 X111.730 Y60.353 E2.49442
G1 X111.675 Y61.398 E2.50237
G1 X111.601 Y62.100 E2.50773
G1 X111.438 Y63.133 E2.51568
G1 X111.291 Y63.823 E2.52104
G1 X111.020 Y64.834 E2.52899
G1 X110.802 Y65.505 E2.53435
G1 X110.427 Y66.482 E2.54230
G1 X110.140 Y67.127 E2.54766
G1 X109.665 Y68.059 E2.55561
G1 X109.312 Y68.670 E2.56097
G1 X108.742 Y69.548 E2.56892
G1 X108.327 Y70.119 E2.57428
G1 X107.669 Y70.932 E2.58223
G1 X107.197 Y71.457 E2.58759
G1 X106.457 Y72.197 E2.59555
G1 X105.932 Y72.669 E2.60091
G1 X105.119 Y73.327 E2.60886
G1 X104.548 Y73.742 E2.61422
G1 X103.670 Y74.312 E2.62217
G1 X92.415 Y80.935 E2.72139
G1 X90.249 Y81.747 E2.73896
G1 X89.000 Y81.864 E2.74849
G1 X81.000 Y81.864 E2.80927
G1 X78.721 Y81.467 E2.82684
G1 X77.585 Y80.935 E2.83637
G1 X66.330 Y74.312 E2.93559
G1 X65.452 Y73.742 E2.94354
G1 X64.881 Y73.327 E2.94890
G1 X64.068 Y72.669 E2.95685
G1 X63.544 Y72.197 E2.96221
G1 X62.803 Y71.457 E2.97016
G1 X62.331 Y70.932 E2.97552
G1 X61.673 Y70.119 E2.98347
G1 X61.222 Y69.493 E2.98933
G1 X60.688 Y68.670 E2.99678
G1 X60.335 Y68.059 E3.00214
G1 X59.860 Y67.127 E3.01009
G1 X59.573 Y66.482 E3.01545
G1 X59.198 Y65.505 E3.02341
G1 X58.980 Y64.834 E3.02876
G1 X58.709 Y63.823 E3.03672
G1 X58.562 Y63.133 E3.04208
G1 X58.399 Y62.100 E3.05003
G1 X58.325 Y61.398 E3.05539
G1 X58.270 Y60.353 E3.06334
G1 X58.270 Y59.647 E3.06870
G1 X58.325 Y58.602 E3.07665
G1 X58.399 Y57.901 E3.08201
G1 X58.562 Y56.867 E3.08996
G1 X58.709 Y56.177 E3.09532
G1 X58.980 Y55.166 E3.10327
G1 X59.198 Y54.495 E3.10863
G1 X59.573 Y53.518 E3.11658
G1 X59.860 Y52.873 E3.12194
G1 X60.335 Y51.941 E3.12989
G1 X60.688 Y51.330 E3.13525
G1 X61.258 Y50.452 E3.14321
G1 X61.629 Y49.942 E3.14800
G1 X61.864 Y50.036 F7800.000
G4 P31
G1 X62.523 Y49.223 E3.15595 F1500.000
G1 X62.978 Y48.718 E3.16111
G1 X63.718 Y47.978 E3.16906
G1 X64.223 Y47.523 E3.17423
G1 X64.985 Y46.905 E3.18168
G1 X65.586 Y46.465 E3.18734
G1 X66.710 Y45.742 E3.19749
G1 X77.710 Y39.277 E3.29443
G1 X79.839 Y38.487 E3.31168
G1 X81.000 Y38.382 E3.32053
G1 X89.000 Y38.382 E3.38131
G1 X91.235 Y38.779 E3.39856
G1 X92.290 Y39.277 E3.40742 F1500.000
G1 X103.536 Y45.895 E3.50655
G1 X104.414 Y46.465 E3.51451
G1 X104.964 Y46.864 E3.51967
G1 X105.777 Y47.523 E3.52762
G1 X106.282 Y47.977 E3.53279
G1 X107.022 Y48.718 E3.54074
G1 X107.477 Y49.223 E3.54590
G1 X108.136 Y50.036 E3.55385
G1 X108.571 Y50.641 E3.55951
G1 X109.105 Y51.464 E3.56697
G1 X109.445 Y52.052 E3.57213
G1 X109.920 Y52.985 E3.58008
G1 X110.197 Y53.606 E3.58525
G1 X110.572 Y54.583 E3.59320
G1 X110.782 Y55.229 E3.59836
G1 X111.053 Y56.240 E3.60631
G1 X111.194 Y56.905 E3.61147
G1 X111.358 Y57.939 E3.61943
G1 X111.429 Y58.615 E3.62459
G1 X111.484 Y59.660 E3.63254
G1 X111.484 Y60.340 E3.63771
G1 X111.429 Y61.385 E3.64566
G1 X111.358 Y62.061 E3.65082
G1 X111.194 Y63.095 E3.65878
G1 X111.053 Y63.760 E3.66394
G1 X110.782 Y64.771 E3.67189
G1 X110.572 Y65.417 E3.67705
G1 X110.197 Y66.394 E3.68501
G1 X109.921 Y67.015 E3.69017
G1 X109.445 Y67.948 E3.69812
G1 X109.105 Y68.536 E3.70328
G1 X108.535 Y69.414 E3.71124
G1 X108.136 Y69.964 E3.71640
G1 X107.477 Y70.777 E3.72435
G1 X107.022 Y71.282 E3.72951
G1 X106.282 Y72.022 E3.73747
G1 X105.777 Y72.477 E3.74263
G1 X104.964 Y73.136 E3.75058
G1 X104.414 Y73.535 E3.75575
G1 X103.536 Y74.105 E3.76370
G1 X92.290 Y80.723 E3.86283
G1 X90.161 Y81.513 E3.88008
G1 X89.000 Y81.618 E3.88894
G1 X81.000 Y81.618 E3.94972
G1 X78.765 Y81.221 E3.96697
G1 X77.710 Y80.723 E3.97583
G1 X66.464 Y74.106 E4.07496
G1 X65.586 Y73.535 E4.08291
G1 X65.036 Y73.136 E4.08808
G1 X64.223 Y72.477 E4.09603
G1 X63.718 Y72.023 E4.10119
G1 X62.978 Y71.282 E4.10914
G1 X62.482 Y70.727 E4.11480
G1 X61.864 Y69.964 E4.12226
G1 X61.465 Y69.414 E4.12742
G1 X60.895 Y68.536 E4.13537
G1 X60.555 Y67.948 E4.14054
G1 X60.080 Y67.015 E4.14849
G1 X59.803 Y66.394 E4.15365
G1 X59.428 Y65.417 E4.16160
G1 X59.218 Y64.771 E4.16677
G1 X58.947 Y63.760 E4.17472
G1 X58.806 Y63.095 E4.17988
G1 X58.642 Y62.061 E4.18783
G1 X58.571 Y61.385 E4.19300
G1 X58.516 Y60.340 E4.20095
G1 X58.516 Y59.660 E4.20611
G1 X58.571 Y58.615 E4.21406
G1 X58.642 Y57.939 E4.21923
G1 X58.806 Y56.905 E4.22718
G1 X58.947 Y56.240 E4.23234
G1 X59.218 Y55.229 E4.24030
G1 X59.451 Y54.522 E4.24595
G1 X59.803 Y53.606 E4.25341
G1 X60.079 Y52.985 E4.25857
G1 X60.555 Y52.052 E4.26653
G1 X60.894 Y51.464 E4.27169
G1 X61.465 Y50.586 E4.27964
G1 X61.820 Y50.097 E4.28423
G1 X62.056 Y50.191 F7800.000
G4 P31
G1 X62.714 Y49.378 E4.29219 F1500.000
G1 X63.152 Y48.892 E4.29715
G1 X63.892 Y48.152 E4.30511
G1 X64.378 Y47.714 E4.31007
G1 X65.140 Y47.097 E4.31753
G1 X65.720 Y46.671 E4.32299
G1 X66.835 Y45.955 E4.33306
G1 X77.835 Y39.490 E4.42999
G1 X81.000 Y38.629 E4.45491
G1 X89.000 Y38.629 E4.51569
G1 X92.165 Y39.490 E4.54061
G1 X103.402 Y46.101 E4.63966 F1500.000
G1 X104.280 Y46.671 E4.64761
G1 X104.809 Y47.055 E4.65258
G1 X105.622 Y47.714 E4.66053
G1 X106.108 Y48.152 E4.66550
G1 X106.848 Y48.892 E4.67345
G1 X107.286 Y49.378 E4.67842
G1 X107.944 Y50.191 E4.68637
G1 X108.329 Y50.720 E4.69134
G1 X108.899 Y51.598 E4.69929
G1 X109.226 Y52.164 E4.70426
G1 X109.701 Y53.097 E4.71221
G1 X109.967 Y53.694 E4.71718
G1 X110.342 Y54.671 E4.72513
G1 X110.544 Y55.293 E4.73010
G1 X110.815 Y56.304 E4.73805
G1 X110.961 Y57.008 E4.74351
G1 X111.115 Y57.978 E4.75097
G1 X111.183 Y58.628 E4.75594
G1 X111.238 Y59.673 E4.76389
G1 X111.238 Y60.327 E4.76885
G1 X111.183 Y61.372 E4.77681
G1 X111.115 Y62.022 E4.78177
G1 X110.951 Y63.056 E4.78973
G1 X110.815 Y63.696 E4.79469
G1 X110.544 Y64.707 E4.80265
G1 X110.342 Y65.329 E4.80761
G1 X109.967 Y66.306 E4.81557
G1 X109.701 Y66.903 E4.82053
G1 X109.226 Y67.836 E4.82848
G1 X108.899 Y68.402 E4.83345
G1 X108.329 Y69.280 E4.84140
G1 X107.944 Y69.809 E4.84637
G1 X107.286 Y70.622 E4.85432
G1 X106.848 Y71.108 E4.85929
G1 X106.108 Y71.848 E4.86724
G1 X105.622 Y72.286 E4.87221
G1 X104.809 Y72.945 E4.88016
G1 X104.280 Y73.329 E4.88513
G1 X103.402 Y73.899 E4.89308
G1 X92.165 Y80.510 E4.99213
G1 X89.000 Y81.371 E5.01705
G1 X81.000 Y81.371 E5.07783
G1 X77.835 Y80.510 E5.10275
G1 X66.598 Y73.899 E5.20180
G1 X65.720 Y73.329 E5.20975
G1 X65.140 Y72.903 E5.21521
G1 X64.378 Y72.286 E5.22267
G1 X63.892 Y71.848 E5.22764
G1 X63.152 Y71.108 E5.23559
G1 X62.714 Y70.622 E5.24056
G1 X62.056 Y69.809 E5.24851
G1 X61.636 Y69.225 E5.25397
G1 X61.101 Y68.402 E5.26143
G1 X60.774 Y67.836 E5.26639
G1 X60.299 Y66.903 E5.27435
G1 X60.033 Y66.306 E5.27931
G1 X59.658 Y65.329 E5.28727
G1 X59.456 Y64.707 E5.29223
G1 X59.185 Y63.696 E5.30019
G1 X59.049 Y63.056 E5.30515
G1 X58.885 Y62.022 E5.31311
G1 X58.817 Y61.372 E5.31807
G1 X58.762 Y60.327 E5.32602
G1 X58.762 Y59.673 E5.33099
G1 X58.817 Y58.628 E5.33894
G1 X58.885 Y57.978 E5.34391
G1 X59.049 Y56.944 E5.35186
G1 X59.185 Y56.304 E5.35683
G1 X59.456 Y55.293 E5.36478
G1 X59.681 Y54.610 E5.37025
G1 X60.033 Y53.694 E5.37770
G1 X60.299 Y53.097 E5.38267
G1 X60.774 Y52.164 E5.39062
G1 X61.101 Y51.598 E5.39559
G1 X61.671 Y50.720 E5.40354
G1 X62.011 Y50.252 E5.40794
G1 E3.40794 F1920.00000
G92 E0
G1 X88.562 Y62.224 F7800.000
G1 E2.00000 F1920.00000
G1 X88.078 Y62.891 E2.00626 F1500.000
G1 X87.263 Y63.565 E2.01430
G1 X86.305 Y64.016 E2.02234
G1 X85.265 Y64.214 E2.03038
G1 X84.209 Y64.148 E2.03842
G1 X83.202 Y63.821 E2.04647
G1 X82.308 Y63.254 E2.05451
G1 X81.584 Y62.482 E2.06255
G1 X81.074 Y61.555 E2.07059
G1 X80.810 Y60.529 E2.07863
G1 X80.810 Y59.471 E2.08668
G1 X81.074 Y58.445 E2.09472
G1 X81.584 Y57.518 E2.10276
G1 X82.308 Y56.746 E2.11080
G1 X83.202 Y56.179 E2.11884
G1 X84.209 Y55.852 E2.12688
G1 X84.312 Y55.845 E2.12767
G1 X85.265 Y55.786 E2.13493 F1500.000
G1 X86.305 Y55.984 E2.14297
G1 X87.263 Y56.435 E2.15101
G1 X88.078 Y57.109 E2.15905
G1 X88.700 Y57.966 E2.16709
G1 X89.090 Y58.950 E2.17514
G1 X89.223 Y60.000 E2.18318
G1 X89.090 Y61.050 E2.19122
G1 X88.700 Y62.034 E2.19926
G1 X88.607 Y62.164 E2.20048
G1 X88.363 Y62.080 F7800.000
G4 P31
G1 X87.897 Y62.721 E2.20650 F1500.000
G1 X87.130 Y63.356 E2.21407
G1 X86.228 Y63.780 E2.22163
G1 X85.250 Y63.967 E2.22920
G1 X84.255 Y63.904 E2.23677
G1 X83.308 Y63.596 E2.24434
G1 X82.467 Y63.062 E2.25191
G1 X81.785 Y62.336 E2.25948
G1 X81.305 Y61.463 E2.26705
G1 X81.057 Y60.498 E2.27462
G1 X81.057 Y59.502 E2.28219
G1 X81.305 Y58.537 E2.28976
G1 X81.785 Y57.664 E2.29732
G1 X82.467 Y56.938 E2.30489
G1 X83.308 Y56.404 E2.31246
G1 X84.255 Y56.096 E2.32003
G1 X84.575 Y56.076 E2.32246
G1 X85.250 Y56.033 E2.32760 F1500.000
G1 X86.228 Y56.220 E2.33517
G1 X87.130 Y56.644 E2.34274
G1 X87.897 Y57.279 E2.35031
G1 X88.483 Y58.085 E2.35788
G1 X88.850 Y59.012 E2.36544
G1 X88.974 Y60.000 E2.37301
G1 X88.850 Y60.988 E2.38058
G1 X88.483 Y61.915 E2.38815
G1 X88.407 Y62.019 E2.38913
G1 X88.164 Y61.935 F7800.000
G4 P31
G1 X87.716 Y62.551 E2.39491 F1500.000
G1 X86.997 Y63.146 E2.40201
G1 X86.151 Y63.544 E2.40911
G1 X85.234 Y63.719 E2.41620
G1 X84.302 Y63.660 E2.42330
G1 X83.413 Y63.372 E2.43039
G1 X82.625 Y62.871 E2.43749
G1 X81.985 Y62.190 E2.44459
G1 X81.535 Y61.372 E2.45168
G1 X81.303 Y60.467 E2.45878
G1 X81.303 Y59.533 E2.46588
G1 X81.535 Y58.628 E2.47297
G1 X81.985 Y57.810 E2.48007
G1 X82.625 Y57.129 E2.48716
G1 X83.413 Y56.628 E2.49426
G1 X84.302 Y56.340 E2.50136 F1500.000
G1 X85.234 Y56.281 E2.50845
G1 X86.151 Y56.456 E2.51555
G1 X86.997 Y56.854 E2.52264
G1 X87.716 Y57.449 E2.52974
G1 X88.265 Y58.205 E2.53684
G1 X88.609 Y59.073 E2.54393
G1 X88.726 Y60.000 E2.55103
G1 X88.609 Y60.927 E2.55812
G1 X88.265 Y61.795 E2.56522
G1 X88.208 Y61.874 E2.56596
G1 X88.367 Y62.392 F7800.000
G1 E0.56596 F1920.00000
G92 E0
G4 P29
G1 X77.179 Y60.547 F7800.000
G1 E2.00000 F1920.00000
G1 X76.970 Y61.083 E2.00437 F1500.000
G1 X76.637 Y61.541 E2.00867
G1 X76.186 Y61.906 E2.01308
G1 X75.695 Y62.138 E2.01721
G1 X75.141 Y62.243 E2.02149
G1 X74.579 Y62.208 E2.02577
G1 X74.043 Y62.034 E2.03005
G1 X73.567 Y61.732 E2.03433
G1 X73.185 Y61.325 E2.03858
G1 X72.917 Y60.853 E2.04269
G1 X72.770 Y60.282 E2.04718
G1 X72.770 Y59.718 E2.05146
G1 X72.910 Y59.173 E2.05574
G1 X73.181 Y58.679 E2.06002
G1 X73.567 Y58.268 E2.06430
G1 X74.046 Y57.964 E2.06861
G1 X74.599 Y57.791 E2.07301
G1 X75.141 Y57.757 E2.07714 F1500.000
G1 X75.695 Y57.862 E2.08142
G1 X76.204 Y58.102 E2.08570
G1 X76.639 Y58.461 E2.08998
G1 X76.970 Y58.917 E2.09426
G1 X77.177 Y59.441 E2.09854
G1 X77.248 Y60.000 E2.10282
G1 X77.188 Y60.473 E2.10644
G1 X76.937 Y60.497 F7800.000
G1 X76.752 Y60.963 E2.11025 F1500.000
G1 X76.456 Y61.370 E2.11407
G1 X76.054 Y61.696 E2.11800
G1 X75.618 Y61.902 E2.12167
G1 X75.126 Y61.996 E2.12548
G1 X74.625 Y61.964 E2.12929
G1 X74.149 Y61.809 E2.13309
G1 X73.725 Y61.541 E2.13690
G1 X73.384 Y61.177 E2.14069
G1 X73.147 Y60.760 E2.14433
G1 X73.016 Y60.251 E2.14833
G1 X73.016 Y59.749 E2.15214
G1 X73.141 Y59.264 E2.15595
G1 X73.382 Y58.825 E2.15975
G1 X73.725 Y58.459 E2.16356
G1 X74.150 Y58.190 E2.16738
G1 X74.644 Y58.035 E2.17132
G1 X75.126 Y58.004 E2.17498 F1500.000
G1 X75.618 Y58.098 E2.17879
G1 X76.071 Y58.312 E2.18260
G1 X76.458 Y58.631 E2.18640
G1 X76.752 Y59.037 E2.19021
G1 X76.937 Y59.503 E2.19402
G1 X76.999 Y60.000 E2.19783
G1 X76.946 Y60.423 E2.20107
G1 X76.696 Y60.436 F7800.000
G1 X76.535 Y60.844 E2.20440 F1500.000
G1 X76.276 Y61.199 E2.20774
G1 X75.923 Y61.486 E2.21120
G1 X75.541 Y61.665 E2.21440
G1 X75.110 Y61.748 E2.21774
G1 X74.672 Y61.720 E2.22107
G1 X74.254 Y61.585 E2.22441
G1 X73.884 Y61.349 E2.22774
G1 X73.584 Y61.030 E2.23107
G1 X73.378 Y60.667 E2.23424
G1 X73.263 Y60.219 E2.23775
G1 X73.263 Y59.781 E2.24109
G1 X73.372 Y59.355 E2.24442
G1 X73.583 Y58.971 E2.24776
G1 X73.884 Y58.651 E2.25109
G1 X74.255 Y58.415 E2.25443
G1 X74.689 Y58.279 E2.25789
G1 X75.110 Y58.252 E2.26109 F1500.000
G1 X75.541 Y58.335 E2.26443
G1 X75.938 Y58.521 E2.26776
G1 X76.277 Y58.801 E2.27110
G1 X76.535 Y59.156 E2.27443
G1 X76.696 Y59.564 E2.27777
G1 X76.751 Y60.000 E2.28110
G1 X76.706 Y60.361 E2.28387
G4 P18
G1 X76.997 Y60.755 F7800.000
G1 E0.28387 F1920.00000
G92 E0
G1 X92.770 Y60.282 F7800.000
G1 E2.00000 F1920.00000
G1 X92.770 Y59.718 E2.00428 F1500.000
G1 X92.910 Y59.173 E2.00856
G1 X93.181 Y58.679 E2.01284
G1 X93.567 Y58.268 E2.01712
G1 X94.046 Y57.964 E2.02143
G1 X94.599 Y57.791 E2.02583
G1 X95.141 Y57.757 E2.02996 F1500.000
G1 X95.695 Y57.862 E2.03424
G1 X96.204 Y58.102 E2.03852
G1 X96.639 Y58.461 E2.04280
G1 X96.970 Y58.917 E2.04708
G1 X97.177 Y59.441 E2.05136
G1 X97.248 Y60.000 E2.05565
G1 X97.177 Y60.559 E2.05993
G1 X96.970 Y61.083 E2.06421
G1 X96.637 Y61.541 E2.06851
G1 X96.186 Y61.906 E2.07292
G1 X95.695 Y62.138 E2.07704
G1 X95.141 Y62.243 E2.08133
G1 X94.579 Y62.208 E2.08561
G1 X94.043 Y62.034 E2.08989
G1 X93.567 Y61.732 E2.09417
G1 X93.185 Y61.325 E2.09841
G1 X92.917 Y60.853 E2.10253
G1 X92.789 Y60.354 E2.10645
G1 X93.016 Y60.251 F7800.000
G1 X93.016 Y59.749 E2.11025 F1500.000
G1 X93.141 Y59.264 E2.11406
G1 X93.382 Y58.825 E2.11787
G1 X93.725 Y58.459 E2.12168
G1 X94.150 Y58.190 E2.12550
G1 X94.644 Y58.035 E2.12943
G1 X95.126 Y58.004 E2.13310 F1500.000
G1 X95.618 Y58.098 E2.13690
G1 X96.071 Y58.312 E2.14071
G1 X96.458 Y58.631 E2.14452
G1 X96.752 Y59.037 E2.14833
G1 X96.937 Y59.503 E2.15214
G1 X96.999 Y60.000 E2.15594
G1 X96.937 Y60.497 E2.15975
G1 X96.752 Y60.963 E2.16356
G1 X96.456 Y61.370 E2.16738
G1 X96.054 Y61.696 E2.17131
G1 X95.618 Y61.902 E2.17498
G1 X95.126 Y61.996 E2.17879
G1 X94.625 Y61.964 E2.18259
G1 X94.149 Y61.809 E2.18640
G1 X93.725 Y61.541 E2.19021
G1 X93.384 Y61.177 E2.19400
G1 X93.147 Y60.760 E2.19764
G1 X93.035 Y60.323 E2.20107
G1 X93.263 Y60.219 F7800.000
G1 X93.263 Y59.781 E2.20440 F1500.000
G1 X93.372 Y59.355 E2.20774
G1 X93.583 Y58.971 E2.21107
G1 X93.884 Y58.651 E2.21441
G1 X94.255 Y58.415 E2.21775
G1 X94.689 Y58.279 E2.22121
G1 X95.110 Y58.252 E2.22441 F1500.000
G1 X95.541 Y58.335 E2.22774
G1 X95.938 Y58.521 E2.23108
G1 X96.277 Y58.801 E2.23441
G1 X96.535 Y59.156 E2.23775
G1 X96.696 Y59.564 E2.24108
G1 X96.751 Y60.000 E2.24442
G1 X96.696 Y60.436 E2.24775
G1 X96.535 Y60.844 E2.25109
G1 X96.276 Y61.199 E2.25443
G1 X95.923 Y61.486 E2.25789
G1 X95.541 Y61.665 E2.26109
G1 X95.110 Y61.748 E2.26442
G1 X94.672 Y61.720 E2.26776
G1 X94.254 Y61.585 E2.27109
G1 X93.884 Y61.349 E2.27443
G1 X93.584 Y61.030 E2.27776
G1 X93.378 Y60.667 E2.28093
G1 X93.281 Y60.292 E2.28387
G1 X92.865 Y60.033 F7800.000
G1 E0.28387 F1920.00000
G92 E0
G1 X88.357 Y69.357 F7800.000
G1 E2.00000 F1920.00000
G1 X88.357 Y74.482 E2.03894 F1500.000
G1 X81.643 Y74.482 E2.08995
G1 X81.643 Y69.357 E2.12888
G1 X75.017 Y69.357 E2.17922
G1 X74.022 Y69.305 E2.18679
G1 X73.055 Y69.152 E2.19423
G1 X72.109 Y68.898 E2.20167
G1 X71.194 Y68.548 E2.20911
G1 X70.322 Y68.103 E2.21655
