; generated by Slic3r 1.2.9 on 2015-11-28 at 22:09:01

; external perimeters extrusion width = 0.50mm
; perimeters extrusion width = 0.50mm
; infill extrusion width = 0.50mm
; solid infill extrusion width = 0.50mm
; top infill extrusion width = 0.50mm

M107
M190 S70 ; set bed temperature
M104 S220 ; set temperature
G28 ; home all axes
M109 S220 ; wait for temperature to be reached
G21 ; set units to millimeters
G90 ; use absolute coordinates
M82 ; use absolute distances for extrusion
G92 E0
G1 Z0.350 F7800.000
G1 E-2.00000 F1920.00000
G92 E0
G1 X48.794 Y61.894 F7800.000
G1 E2.00000 F1920.00000
M204 S3000
G1 X49.324 Y61.489 E2.00913 F1800.000
G1 X79.320 Y41.489 E2.50247
G1 X79.648 Y41.288 E2.50773
G1 X80.287 Y40.926 E2.51778
G1 X80.982 Y40.598 E2.52829
G1 X81.667 Y40.335 E2.53834
G1 X82.432 Y40.105 E2.54927
G1 X83.119 Y39.951 E2.55890
G1 X83.879 Y39.839 E2.56941
G1 X84.611 Y39.785 E2.57946
G1 X85.379 Y39.784 E2.58997
G1 X86.111 Y39.838 E2.60002
G1 X86.871 Y39.951 E2.61053 F1800.000
G1 X87.588 Y40.111 E2.62058
G1 X88.323 Y40.334 E2.63109
G1 X89.008 Y40.597 E2.64114
G1 X89.703 Y40.925 E2.65165
G1 X90.670 Y41.488 E2.66696
G1 X120.671 Y61.479 E3.16029
G1 X121.202 Y61.884 E3.16943
G1 X122.164 Y62.719 E3.18686
G1 X123.050 Y63.714 E3.20509
G1 X123.769 Y64.766 E3.22252
G1 X124.375 Y65.953 E3.24076
G1 X124.805 Y67.151 E3.25819
G1 X125.092 Y68.453 E3.27642
G1 X125.205 Y69.722 E3.29385
G1 X125.154 Y71.053 E3.31209
G1 X124.943 Y72.309 E3.32952
G1 X124.556 Y73.585 E3.34775
G1 X124.035 Y74.747 E3.36518
G1 X123.339 Y75.883 E3.38342
G1 X122.574 Y76.834 E3.40012
G1 X121.580 Y77.800 E3.41908
G1 X120.557 Y78.558 E3.43651
G1 X119.394 Y79.209 E3.45474
G1 X118.213 Y79.685 E3.47217
G1 X116.923 Y80.021 E3.49041
G1 X115.660 Y80.183 E3.50784
G1 X114.996 Y80.225 E3.51694
G1 X54.998 Y80.225 E4.33796
G1 X54.332 Y80.183 E4.34709
G1 X53.070 Y80.021 E4.36450
G1 X51.781 Y79.684 E4.38273
G1 X50.601 Y79.209 E4.40014
G1 X49.396 Y78.526 E4.41909
G1 X48.417 Y77.799 E4.43577
G1 X47.457 Y76.876 E4.45401
G1 X46.660 Y75.884 E4.47142
G1 X45.964 Y74.748 E4.48965
G1 X45.443 Y73.587 E4.50705
G1 X45.057 Y72.312 E4.52529
G1 X44.846 Y71.057 E4.54270
G1 X44.795 Y69.726 E4.56093
G1 X44.908 Y68.459 E4.57834
G1 X45.194 Y67.158 E4.59657
G1 X45.624 Y65.960 E4.61397
G1 X46.230 Y64.774 E4.63221
G1 X46.948 Y63.723 E4.64961
G1 X47.834 Y62.728 E4.66784
G1 X48.737 Y61.943 E4.68423
G1 X49.087 Y62.230 F7800.000
G4 P29
G1 X49.572 Y61.860 E4.69258 F1800.000
G1 X79.568 Y41.860 E5.18592
G1 X79.867 Y41.676 E5.19073
G1 X80.507 Y41.315 E5.20078
G1 X81.142 Y41.015 E5.21039
G1 X81.827 Y40.751 E5.22044
G1 X82.530 Y40.541 E5.23047
G1 X83.216 Y40.387 E5.24010
G1 X83.911 Y40.284 E5.24972
G1 X84.644 Y40.230 E5.25977
G1 X85.346 Y40.230 E5.26938
G1 X86.079 Y40.283 E5.27943
G1 X86.774 Y40.386 E5.28905 F1800.000
G1 X87.490 Y40.547 E5.29909
G1 X88.163 Y40.750 E5.30871
G1 X88.848 Y41.014 E5.31876
G1 X89.484 Y41.314 E5.32837
G1 X90.422 Y41.859 E5.34323
G1 X120.424 Y61.850 E5.83657
G1 X120.910 Y62.221 E5.84492
G1 X121.871 Y63.056 E5.86235
G1 X122.682 Y63.966 E5.87903
G1 X123.401 Y65.018 E5.89646
G1 X123.955 Y66.103 E5.91314
G1 X124.385 Y67.302 E5.93057
G1 X124.647 Y68.493 E5.94725
G1 X124.760 Y69.761 E5.96468
G1 X124.713 Y70.979 E5.98136
G1 X124.511 Y72.183 E5.99806
G1 X124.149 Y73.402 E6.01546
G1 X123.628 Y74.564 E6.03289
G1 X122.991 Y75.603 E6.04957
G1 X122.193 Y76.596 E6.06700
G1 X121.314 Y77.441 E6.08368
G1 X120.291 Y78.200 E6.10111
G1 X119.228 Y78.795 E6.11779
G1 X118.046 Y79.271 E6.13522
G1 X116.867 Y79.578 E6.15190
G1 X115.603 Y79.740 E6.16933
G1 X114.996 Y79.779 E6.17766
G1 X54.998 Y79.779 E6.99867
G1 X54.388 Y79.740 E7.00703
G1 X53.127 Y79.578 E7.02444
G1 X51.947 Y79.270 E7.04111
G1 X50.767 Y78.795 E7.05852
G1 X49.662 Y78.167 E7.07592
G1 X48.683 Y77.441 E7.09260
G1 X47.805 Y76.596 E7.10927
G1 X47.007 Y75.604 E7.12668
G1 X46.371 Y74.565 E7.14336
G1 X45.850 Y73.404 E7.16077
G1 X45.497 Y72.238 E7.17744
G1 X45.287 Y70.983 E7.19485
G1 X45.240 Y69.766 E7.21153
G1 X45.353 Y68.498 E7.22894
G1 X45.615 Y67.308 E7.24561
G1 X46.044 Y66.111 E7.26302
G1 X46.598 Y65.025 E7.27970
G1 X47.316 Y63.975 E7.29711
G1 X48.126 Y63.065 E7.31378
G1 X49.030 Y62.280 E7.33016
G1 X49.379 Y62.567 F7800.000
G4 P29
G1 X49.819 Y62.231 E7.33774 F1800.000
G1 X80.087 Y42.065 E7.83544
G1 X80.726 Y41.703 E7.84548
G1 X81.302 Y41.431 E7.85420
G1 X81.988 Y41.168 E7.86425
G1 X82.627 Y40.976 E7.87339
G1 X83.314 Y40.822 E7.88301
G1 X83.944 Y40.729 E7.89173
G1 X84.677 Y40.675 E7.90178
G1 X85.314 Y40.675 E7.91050
G1 X86.046 Y40.729 E7.92055
G1 X86.676 Y40.822 E7.92927 F1800.000
G1 X87.393 Y40.982 E7.93931
G1 X88.003 Y41.167 E7.94803
G1 X88.688 Y41.430 E7.95808
G1 X89.264 Y41.702 E7.96680
G1 X90.175 Y42.230 E7.98121
G1 X120.176 Y62.222 E8.47454
G1 X120.617 Y62.558 E8.48212
G1 X121.578 Y63.393 E8.49955
G1 X122.313 Y64.218 E8.51467
G1 X123.032 Y65.270 E8.53210
G1 X123.535 Y66.254 E8.54723
G1 X123.965 Y67.453 E8.56466
G1 X124.203 Y68.532 E8.57978
G1 X124.316 Y69.801 E8.59721
G1 X124.273 Y70.905 E8.61233
G1 X124.071 Y72.109 E8.62904
G1 X123.742 Y73.219 E8.64488
G1 X123.220 Y74.381 E8.66231
G1 X122.643 Y75.324 E8.67743
G1 X121.845 Y76.316 E8.69486
G1 X121.048 Y77.082 E8.70999
G1 X120.025 Y77.841 E8.72742
G1 X119.061 Y78.381 E8.74254
G1 X117.879 Y78.857 E8.75997
G1 X116.810 Y79.136 E8.77509
G1 X115.547 Y79.297 E8.79252
G1 X114.996 Y79.332 E8.80008
G1 X54.998 Y79.332 E9.62109
G1 X54.445 Y79.297 E9.62867
G1 X53.183 Y79.135 E9.64607
G1 X52.114 Y78.856 E9.66120
G1 X50.934 Y78.381 E9.67860
G1 X49.928 Y77.809 E9.69444
G1 X48.949 Y77.082 E9.71113
G1 X48.152 Y76.316 E9.72625
G1 X47.355 Y75.325 E9.74366
G1 X46.778 Y74.382 E9.75878
G1 X46.258 Y73.222 E9.77619
G1 X45.937 Y72.164 E9.79131
G1 X45.727 Y70.909 E9.80872
G1 X45.684 Y69.805 E9.82384
G1 X45.797 Y68.538 E9.84124
G1 X46.035 Y67.459 E9.85636
G1 X46.464 Y66.262 E9.87377
G1 X46.967 Y65.277 E9.88889
G1 X47.685 Y64.227 E9.90630
G1 X48.419 Y63.402 E9.92142
G1 X49.323 Y62.616 E9.93780
G1 X49.672 Y62.904 F7800.000
G4 P29
G1 X50.067 Y62.603 E9.94460 F1800.000
G1 X80.307 Y42.453 E10.44185
G1 X80.946 Y42.092 E10.45190
G1 X81.463 Y41.848 E10.45972
G1 X82.148 Y41.584 E10.46976
G1 X82.725 Y41.412 E10.47800
G1 X83.412 Y41.258 E10.48763
G1 X83.977 Y41.174 E10.49546
G1 X84.709 Y41.120 E10.50550
G1 X85.281 Y41.120 E10.51333
G1 X86.013 Y41.174 E10.52337
G1 X86.579 Y41.257 E10.53119 F1800.000
G1 X87.295 Y41.418 E10.54124
G1 X87.842 Y41.583 E10.54906
G1 X88.528 Y41.847 E10.55911
G1 X89.045 Y42.091 E10.56693
G1 X89.927 Y42.602 E10.58089
G1 X119.929 Y62.593 E11.07423
G1 X120.324 Y62.894 E11.08103
G1 X121.285 Y63.730 E11.09846
G1 X121.945 Y64.470 E11.11202
G1 X122.664 Y65.522 E11.12945
G1 X123.115 Y66.405 E11.14302
G1 X123.545 Y67.604 E11.16045
G1 X123.758 Y68.572 E11.17402
G1 X123.871 Y69.841 E11.19145
G1 X123.833 Y70.831 E11.20502
G1 X123.631 Y72.035 E11.22172
G1 X123.335 Y73.036 E11.23601
G1 X122.813 Y74.199 E11.25344
G1 X122.295 Y75.044 E11.26701
G1 X121.497 Y76.037 E11.28444
G1 X120.782 Y76.724 E11.29800
G1 X119.759 Y77.483 E11.31543
G1 X118.894 Y77.967 E11.32900
G1 X117.713 Y78.443 E11.34643
G1 X116.753 Y78.693 E11.36000
G1 X115.490 Y78.855 E11.37743
G1 X114.996 Y78.886 E11.38420
G1 X54.998 Y78.886 E12.20522
G1 X54.502 Y78.854 E12.21201
G1 X53.240 Y78.692 E12.22942
G1 X52.281 Y78.442 E12.24299
G1 X51.101 Y77.967 E12.26040
G1 X50.236 Y77.482 E12.27396
G1 X49.215 Y76.724 E12.29137
G1 X48.500 Y76.037 E12.30493
G1 X47.703 Y75.045 E12.32234
G1 X47.186 Y74.200 E12.33591
G1 X46.665 Y73.039 E12.35332
G1 X46.378 Y72.090 E12.36688
G1 X46.167 Y70.835 E12.38429
G1 X46.129 Y69.845 E12.39786
G1 X46.242 Y68.578 E12.41526
G1 X46.455 Y67.610 E12.42883
G1 X46.884 Y66.412 E12.44624
G1 X47.335 Y65.529 E12.45980
G1 X48.053 Y64.479 E12.47721
G1 X48.712 Y63.739 E12.49078
G1 X49.616 Y62.953 E12.50716
G1 X49.965 Y63.241 F7800.000
G4 P29
G1 X50.315 Y62.974 E12.51318 F1800.000
G1 X80.526 Y42.842 E13.00997
G1 X81.166 Y42.481 E13.02002
G1 X81.623 Y42.265 E13.02695
G1 X82.308 Y42.001 E13.03699
G1 X82.823 Y41.847 E13.04434
G1 X83.509 Y41.693 E13.05397
G1 X84.010 Y41.619 E13.06089
G1 X84.742 Y41.565 E13.07094
G1 X85.248 Y41.565 E13.07786
G1 X85.980 Y41.619 E13.08791
G1 X86.481 Y41.693 E13.09484 F1800.000
G1 X87.198 Y41.853 E13.10488
G1 X87.682 Y42.000 E13.11181
G1 X88.367 Y42.264 E13.12186
G1 X88.825 Y42.480 E13.12878
G1 X89.680 Y42.973 E13.14229
G1 X119.681 Y62.965 E13.63563
G1 X120.031 Y63.231 E13.64165
G1 X120.992 Y64.067 E13.65908
G1 X121.576 Y64.722 E13.67109
G1 X122.295 Y65.774 E13.68852
G1 X122.695 Y66.556 E13.70053
G1 X123.125 Y67.754 E13.71796
G1 X123.313 Y68.612 E13.72997
G1 X123.427 Y69.880 E13.74740
G1 X123.393 Y70.758 E13.75941
G1 X123.191 Y71.961 E13.77611
G1 X122.927 Y72.854 E13.78885
G1 X122.406 Y74.016 E13.80628
G1 X121.947 Y74.764 E13.81829
G1 X121.149 Y75.757 E13.83572
G1 X120.517 Y76.365 E13.84773
G1 X119.494 Y77.124 E13.86516
G1 X118.728 Y77.553 E13.87717
G1 X117.546 Y78.029 E13.89460
G1 X116.697 Y78.250 E13.90661
G1 X115.433 Y78.412 E13.92404
G1 X114.996 Y78.440 E13.93004
G1 X54.998 Y78.440 E14.75106
G1 X54.559 Y78.412 E14.75707
G1 X53.297 Y78.250 E14.77448
G1 X52.448 Y78.028 E14.78649
G1 X51.268 Y77.553 E14.80390
G1 X50.502 Y77.124 E14.81591
G1 X49.481 Y76.366 E14.83332
G1 X48.848 Y75.757 E14.84533
G1 X48.051 Y74.765 E14.86274
G1 X47.593 Y74.017 E14.87475
G1 X47.072 Y72.856 E14.89216
G1 X46.818 Y72.016 E14.90417
G1 X46.607 Y70.762 E14.92158
G1 X46.573 Y69.885 E14.93358
G1 X46.686 Y68.618 E14.95099
G1 X46.875 Y67.760 E14.96300
G1 X47.304 Y66.563 E14.98041
G1 X47.704 Y65.781 E14.99242
G1 X48.422 Y64.731 E15.00983
G1 X49.005 Y64.076 E15.02184
G1 X49.909 Y63.290 E15.03822
G1 E13.03822 F1920.00000
G92 E0
G1 X86.343 Y73.137 F7800.000
G1 E2.00000 F1920.00000
G1 X85.271 Y73.341 E2.01493 F1800.000
G1 X84.182 Y73.273 E2.02985
G1 X83.145 Y72.935 E2.04478
G1 X82.224 Y72.351 E2.05971
G1 X81.477 Y71.556 E2.07464
G1 X80.952 Y70.600 E2.08956
G1 X80.680 Y69.542 E2.10451
G1 X80.683 Y68.443 E2.11955
G1 X80.952 Y67.396 E2.13434
G1 X81.477 Y66.440 E2.14927
G1 X82.224 Y65.645 E2.16420
G1 X83.145 Y65.060 E2.17912
G1 X84.182 Y64.723 E2.19405
G1 X85.261 Y64.655 E2.20884 F1800.000
G1 X86.341 Y64.858 E2.22388
G1 X87.330 Y65.324 E2.23883
G1 X88.170 Y66.019 E2.25375
G1 X88.811 Y66.901 E2.26868
G1 X89.213 Y67.916 E2.28361
G1 X89.350 Y68.998 E2.29854
G1 X89.213 Y70.080 E2.31346
G1 X88.811 Y71.094 E2.32839
G1 X88.170 Y71.977 E2.34332
G1 X87.330 Y72.672 E2.35824
G1 X86.410 Y73.105 E2.37215
G1 X86.204 Y72.709 F7800.000
G4 P29
G1 X85.243 Y72.892 E2.38553 F1800.000
G4 P0
G1 X84.267 Y72.831 E2.39891
G1 X83.336 Y72.528 E2.41230
G1 X82.511 Y72.004 E2.42568
G1 X81.841 Y71.291 E2.43907
G1 X81.370 Y70.434 E2.45245
G1 X81.126 Y69.486 E2.46585
G1 X81.129 Y68.500 E2.47934
G1 X81.370 Y67.561 E2.49260
G1 X81.841 Y66.704 E2.50598
G1 X82.511 Y65.991 E2.51937
G1 X83.336 Y65.467 E2.53275
G1 X84.267 Y65.165 E2.54613
G1 X85.234 Y65.104 E2.55939 F1800.000
G1 X86.203 Y65.287 E2.57289
G1 X87.089 Y65.703 E2.58628
G1 X87.842 Y66.327 E2.59967
G1 X88.417 Y67.118 E2.61305
G1 X88.777 Y68.028 E2.62643
G1 X88.900 Y68.998 E2.63982
G1 X88.777 Y69.968 E2.65320
G1 X88.417 Y70.878 E2.66659
G1 X87.842 Y71.669 E2.67997
G1 X87.089 Y72.292 E2.69335
G1 X86.271 Y72.677 E2.70571
G1 X86.064 Y72.281 F7800.000
G4 P29
G1 X85.215 Y72.443 E2.71755 F1800.000
G4 P4
G1 X84.351 Y72.389 E2.72939
G1 X83.528 Y72.121 E2.74123
G1 X82.797 Y71.658 E2.75307
G1 X82.205 Y71.027 E2.76492
G1 X81.788 Y70.269 E2.77676
G1 X81.573 Y69.430 E2.78860
G1 X81.575 Y68.557 E2.80055
G1 X81.788 Y67.727 E2.81227
G1 X82.205 Y66.969 E2.82412
G1 X82.797 Y66.338 E2.83596
G1 X83.528 Y65.874 E2.84780
G1 X84.351 Y65.607 E2.85964
G1 X85.206 Y65.553 E2.87136 F1800.000
G1 X86.064 Y65.715 E2.88331
G1 X86.847 Y66.083 E2.89516
G1 X87.514 Y66.635 E2.90700
G1 X88.023 Y67.335 E2.91884
G1 X88.341 Y68.139 E2.93068
G1 X88.450 Y68.998 E2.94252
G1 X88.341 Y69.856 E2.95436
G1 X88.023 Y70.661 E2.96620
G1 X87.514 Y71.361 E2.97804
G1 X86.847 Y71.912 E2.98988
G1 X86.132 Y72.249 E3.00070
G1 X85.940 Y72.765 F7800.000
G1 X93.019 Y70.338 F7800.000
G1 X92.820 Y69.353 E3.01445 F1800.000
G1 X92.857 Y68.341 E3.02831
G1 X93.120 Y67.382 E3.04192
G1 X93.602 Y66.500 E3.05567
G1 X94.275 Y65.753 E3.06943
G1 X95.101 Y65.177 E3.08320
G1 X96.036 Y64.804 E3.09698
G1 X97.021 Y64.652 E3.11062 F1800.000
G1 X98.025 Y64.724 E3.12439
G1 X98.988 Y65.021 E3.13819
G1 X99.866 Y65.534 E3.15210
G1 X100.589 Y66.218 E3.16572
G1 X101.143 Y67.057 E3.17947
G1 X101.488 Y68.000 E3.19322
G1 X101.602 Y68.975 E3.20664
G1 X101.550 Y69.652 E3.21593
G1 X101.396 Y70.310 E3.22519
G1 X101.002 Y71.196 E3.23846
G1 X100.393 Y71.996 E3.25221
G1 X99.617 Y72.636 E3.26598
G1 X98.725 Y73.079 E3.27961
G1 X97.736 Y73.316 E3.29353
G1 X96.727 Y73.322 E3.30734
G1 X95.744 Y73.101 E3.32112
G1 X94.838 Y72.664 E3.33489
G1 X94.060 Y72.040 E3.34853
G1 X93.436 Y71.242 E3.36240
G1 X93.051 Y70.406 E3.37499
G1 X93.446 Y70.198 F7800.000
G4 P29
G1 X93.268 Y69.316 E3.38731 F1800.000
G4 P3
G1 X93.301 Y68.409 E3.39973
G1 X93.536 Y67.550 E3.41191
G1 X93.969 Y66.760 E3.42424
G1 X94.572 Y66.089 E3.43658
G1 X95.314 Y65.573 E3.44895
G1 X96.154 Y65.238 E3.46133
G1 X97.039 Y65.101 E3.47358 F1800.000
G1 X97.942 Y65.166 E3.48597
G1 X98.808 Y65.433 E3.49836
G1 X99.597 Y65.894 E3.51087
G1 X100.245 Y66.507 E3.52308
G1 X100.741 Y67.259 E3.53541
G1 X101.050 Y68.105 E3.54773
G1 X101.154 Y68.984 E3.55985
G1 X101.108 Y69.583 E3.56808
G1 X100.971 Y70.168 E3.57629
G1 X100.615 Y70.967 E3.58826
G1 X100.069 Y71.685 E3.60060
G1 X99.372 Y72.259 E3.61296
G1 X98.571 Y72.657 E3.62519
G1 X97.682 Y72.870 E3.63771
G1 X96.775 Y72.875 E3.65012
G1 X95.892 Y72.677 E3.66251
G1 X95.077 Y72.284 E3.67488
G1 X94.380 Y71.725 E3.68712
G1 X93.820 Y71.007 E3.69957
G1 X93.478 Y70.266 E3.71074
G1 X93.873 Y70.059 F7800.000
G4 P29
G1 X93.716 Y69.279 E3.72162 F1800.000
G4 P6
G1 X93.745 Y68.477 E3.73261
G1 X93.953 Y67.719 E3.74336
G1 X94.336 Y67.020 E3.75426
G1 X94.870 Y66.426 E3.76519
G1 X95.527 Y65.969 E3.77615
G1 X96.272 Y65.671 E3.78714
G1 X97.057 Y65.550 E3.79801 F1800.000
G1 X97.859 Y65.607 E3.80901
G1 X98.627 Y65.844 E3.82000
G1 X99.327 Y66.253 E3.83110
G1 X99.901 Y66.796 E3.84191
G1 X100.340 Y67.461 E3.85282
G1 X100.613 Y68.209 E3.86370
G1 X100.705 Y68.993 E3.87451
G1 X100.665 Y69.515 E3.88168
G1 X100.546 Y70.025 E3.88884
G1 X100.228 Y70.738 E3.89952
G1 X99.745 Y71.373 E3.91044
G1 X99.128 Y71.882 E3.92139
G1 X98.418 Y72.235 E3.93224
G1 X97.628 Y72.424 E3.94336
G1 X96.823 Y72.429 E3.95437
G1 X96.039 Y72.252 E3.96536
G1 X95.317 Y71.904 E3.97634
G1 X94.700 Y71.409 E3.98716
G1 X94.203 Y70.773 E3.99820
G1 X93.905 Y70.127 E4.00795
G1 X93.388 Y69.937 F7800.000
G1 E2.00795 F1920.00000
G92 E0
G1 X112.268 Y70.059 F7800.000
G1 E2.00000 F1920.00000
G1 X112.268 Y69.653 E2.00555 F1800.000
G1 X112.439 Y68.985 E2.01499
G1 X112.772 Y68.380 E2.02443
G1 X113.244 Y67.878 E2.03387
G1 X113.831 Y67.505 E2.04339
G1 X114.505 Y67.293 E2.05305
G1 X115.171 Y67.252 E2.06218 F1800.000
G1 X115.848 Y67.381 E2.07162
G1 X116.472 Y67.674 E2.08106
G1 X117.004 Y68.114 E2.09049
G1 X117.409 Y68.672 E2.09993
G1 X117.663 Y69.314 E2.10937
G1 X117.750 Y70.004 E2.11889
G1 X117.655 Y70.703 E2.12855
G1 X117.409 Y71.324 E2.13768
G1 X117.000 Y71.886 E2.14720
G1 X116.452 Y72.331 E2.15686
G1 X115.848 Y72.615 E2.16599
G1 X115.171 Y72.744 E2.17543
G1 X114.482 Y72.701 E2.18487
G1 X113.826 Y72.488 E2.19431
G1 X113.244 Y72.118 E2.20375
G1 X112.772 Y71.615 E2.21319
G1 X112.439 Y71.011 E2.22263
G1 X112.268 Y70.343 E2.23207
G1 X112.268 Y70.134 E2.23493
G1 X112.714 Y70.059 F7800.000
G1 X112.714 Y69.709 E2.23971 F1800.000
G1 X112.858 Y69.150 E2.24760
G1 X113.136 Y68.645 E2.25550
G1 X113.530 Y68.224 E2.26339
G1 X114.021 Y67.913 E2.27134
G1 X114.587 Y67.735 E2.27946
G1 X115.142 Y67.701 E2.28707 F1800.000
G1 X115.709 Y67.809 E2.29497
G1 X116.231 Y68.054 E2.30287
G1 X116.676 Y68.422 E2.31076
G1 X117.015 Y68.889 E2.31866
G1 X117.227 Y69.425 E2.32655
G1 X117.300 Y70.001 E2.33450
G1 X117.220 Y70.589 E2.34261
G1 X117.015 Y71.107 E2.35023
G1 X116.674 Y71.576 E2.35818
G1 X116.213 Y71.950 E2.36630
G1 X115.709 Y72.187 E2.37391
G1 X115.142 Y72.295 E2.38181
G1 X114.566 Y72.259 E2.38971
G1 X114.018 Y72.081 E2.39760
