; generated by Slic3r 1.2.9 on 2015-12-20 at 01:37:38

; external perimeters extrusion width = 0.50mm
; perimeters extrusion width = 0.50mm
; infill extrusion width = 0.50mm
; solid infill extrusion width = 0.50mm
; top infill extrusion width = 0.50mm

M107
M190 S60 ; set bed temperature
M104 S210 ; set temperature
G28 ; home all axes
M109 S210 ; wait for temperature to be reached
G21 ; set units to millimeters
G90 ; use absolute coordinates
M82 ; use absolute distances for extrusion
G92 E0
G1 Z0.350 F7800.000
G1 E-2.00000 F1920.00000
G92 E0
G1 X78.805 Y55.500 F7800.000
G1 E2.00000 F1920.00000
M204 S3000
G1 X79.109 Y55.128 E2.00365 F1500.000
G1 X79.836 Y54.354 E2.01172
G1 X80.334 Y53.936 E2.01666
G1 X81.451 Y53.224 E2.02673
G1 X82.072 Y52.931 E2.03194
G1 X83.082 Y52.603 E2.04001
G1 X83.476 Y52.497 E2.04311
G1 X83.977 Y52.419 E2.04696
G1 X85.036 Y52.352 E2.05502
G1 X85.434 Y52.356 E2.05805
G1 X85.948 Y52.414 E2.06197 F1500.000
G1 X86.990 Y52.613 E2.07004
G1 X87.577 Y52.795 E2.07471
G1 X88.812 Y53.368 E2.08505
G1 X89.392 Y53.736 E2.09026
G1 X90.209 Y54.413 E2.09833
G1 X90.486 Y54.662 E2.10115
G1 X90.847 Y55.067 E2.10528
G1 X91.471 Y55.926 E2.11334
G1 X91.664 Y56.232 E2.11609
G1 X91.910 Y56.728 E2.12029
G1 X92.300 Y57.714 E2.12836
G1 X92.455 Y58.240 E2.13252
G1 X92.509 Y58.538 E2.13482
G1 X92.654 Y59.774 E2.14427
G1 X92.654 Y60.226 E2.14771
G1 X92.624 Y60.550 E2.15018
G1 X92.509 Y61.462 E2.15717
G1 X92.417 Y61.918 E2.16070
G1 X92.300 Y62.286 E2.16363
G1 X91.910 Y63.272 E2.17169
G1 X91.664 Y63.768 E2.17589
G1 X91.471 Y64.074 E2.17864
G1 X90.847 Y64.933 E2.18671
G1 X90.486 Y65.338 E2.19083
G1 X89.392 Y66.264 E2.20172
G1 X88.812 Y66.632 E2.20694
G1 X87.577 Y67.205 E2.21728
G1 X86.990 Y67.387 E2.22195
G1 X85.948 Y67.586 E2.23001
G1 X85.434 Y67.644 E2.23394
G1 X85.036 Y67.648 E2.23696
G1 X83.977 Y67.581 E2.24503
G1 X83.476 Y67.503 E2.24887
G1 X83.082 Y67.397 E2.25198
G1 X82.072 Y67.069 E2.26004
G1 X81.451 Y66.776 E2.26526
G1 X80.334 Y66.064 E2.27532
G1 X79.836 Y65.646 E2.28027
G1 X79.109 Y64.872 E2.28833
G1 X78.805 Y64.500 E2.29198
G1 X78.566 Y64.137 E2.29528
G1 X78.054 Y63.207 E2.30335
G1 X77.864 Y62.777 E2.30692
G1 X77.728 Y62.354 E2.31030
G1 X77.464 Y61.326 E2.31836
G1 X77.378 Y60.644 E2.32358
G1 X77.378 Y59.356 E2.33337
G1 X77.464 Y58.674 E2.33858
G1 X77.728 Y57.646 E2.34665
G1 X77.864 Y57.223 E2.35003
G1 X78.054 Y56.793 E2.35360
G1 X78.566 Y55.863 E2.36166
G1 X78.763 Y55.563 E2.36439
G1 X78.999 Y55.651 F7800.000
G4 P31
G1 X79.289 Y55.297 E2.36787 F1500.000
G1 X80.015 Y54.523 E2.37594
G1 X80.469 Y54.142 E2.38044
G1 X81.583 Y53.432 E2.39048
G1 X82.148 Y53.165 E2.39522
G1 X83.158 Y52.837 E2.40329
G1 X83.537 Y52.736 E2.40627
G1 X83.992 Y52.665 E2.40977
G1 X85.051 Y52.598 E2.41783
G1 X85.414 Y52.602 E2.42059
G1 X85.902 Y52.656 E2.42431 F1500.000
G1 X86.944 Y52.855 E2.43238
G1 X87.478 Y53.021 E2.43663
G1 X88.707 Y53.591 E2.44692
G1 X89.235 Y53.926 E2.45167
G1 X90.052 Y54.603 E2.45973
G1 X90.319 Y54.843 E2.46246
G1 X90.647 Y55.212 E2.46621
G1 X91.271 Y56.071 E2.47427
G1 X91.447 Y56.349 E2.47678
G1 X91.681 Y56.818 E2.48076
G1 X92.071 Y57.805 E2.48882
G1 X92.215 Y58.298 E2.49272
G1 X92.265 Y58.568 E2.49481
G1 X92.408 Y59.794 E2.50419
G1 X92.408 Y60.206 E2.50731
G1 X92.380 Y60.519 E2.50970
G1 X92.265 Y61.432 E2.51669
G1 X92.177 Y61.861 E2.52002
G1 X92.071 Y62.195 E2.52268
G1 X91.681 Y63.182 E2.53075
G1 X91.447 Y63.651 E2.53472
G1 X91.271 Y63.929 E2.53723
G1 X90.647 Y64.788 E2.54529
G1 X90.319 Y65.157 E2.54904
G1 X89.235 Y66.074 E2.55983
G1 X88.707 Y66.409 E2.56458
G1 X87.478 Y66.979 E2.57487
G1 X86.944 Y67.145 E2.57912
G1 X85.902 Y67.344 E2.58719
G1 X85.414 Y67.398 E2.59091
G1 X85.051 Y67.402 E2.59367
G1 X83.992 Y67.335 E2.60173
G1 X83.537 Y67.264 E2.60523
G1 X83.158 Y67.163 E2.60821
G1 X82.148 Y66.835 E2.61628
G1 X81.583 Y66.568 E2.62102
G1 X80.469 Y65.858 E2.63106
G1 X80.015 Y65.477 E2.63556
G1 X79.289 Y64.703 E2.64363
G1 X78.999 Y64.349 E2.64711
G1 X78.782 Y64.018 E2.65011
G1 X78.270 Y63.088 E2.65817
G1 X78.097 Y62.697 E2.66143
G1 X77.966 Y62.292 E2.66465
G1 X77.703 Y61.264 E2.67272
G1 X77.624 Y60.644 E2.67747
G1 X77.624 Y59.356 E2.68726
G1 X77.703 Y58.736 E2.69200
G1 X77.966 Y57.708 E2.70007
G1 X78.097 Y57.303 E2.70330
G1 X78.270 Y56.912 E2.70655
G1 X78.782 Y55.982 E2.71461
G1 X78.958 Y55.714 E2.71705
G1 X79.193 Y55.803 F7800.000
G4 P31
G1 X79.468 Y55.465 E2.72035 F1500.000
G1 X80.195 Y54.692 E2.72842
G1 X80.604 Y54.349 E2.73247
G1 X81.715 Y53.640 E2.74249
G1 X82.225 Y53.400 E2.74676
G1 X83.234 Y53.072 E2.75483
G1 X83.597 Y52.975 E2.75768
G1 X84.008 Y52.910 E2.76084
G1 X85.067 Y52.844 E2.76890
G1 X85.393 Y52.847 E2.77138
G1 X85.855 Y52.898 E2.77492 F1500.000
G1 X86.898 Y53.097 E2.78298
G1 X87.379 Y53.246 E2.78681
G1 X88.602 Y53.814 E2.79705
G1 X89.078 Y54.116 E2.80133
G1 X89.895 Y54.792 E2.80939
G1 X90.152 Y55.024 E2.81202
G1 X90.448 Y55.357 E2.81540
G1 X91.072 Y56.216 E2.82347
G1 X91.230 Y56.467 E2.82572
G1 X91.452 Y56.909 E2.82948
G1 X91.842 Y57.896 E2.83754
G1 X91.976 Y58.355 E2.84118
G1 X92.020 Y58.599 E2.84306
G1 X92.163 Y59.815 E2.85236
G1 X92.163 Y60.185 E2.85518
G1 X92.136 Y60.488 E2.85749
G1 X92.020 Y61.401 E2.86447
G1 X91.938 Y61.803 E2.86759
G1 X91.842 Y62.104 E2.86999
G1 X91.452 Y63.091 E2.87806
G1 X91.230 Y63.533 E2.88181
G1 X91.072 Y63.784 E2.88407
G1 X90.448 Y64.643 E2.89213
G1 X90.152 Y64.976 E2.89551
G1 X89.078 Y65.884 E2.90621
G1 X88.602 Y66.186 E2.91048
G1 X87.379 Y66.754 E2.92073
G1 X86.898 Y66.903 E2.92456
G1 X85.855 Y67.102 E2.93262
G1 X85.393 Y67.153 E2.93615
G1 X85.067 Y67.156 E2.93863
G1 X84.008 Y67.090 E2.94670
G1 X83.597 Y67.025 E2.94985
G1 X83.234 Y66.928 E2.95271
G1 X82.225 Y66.600 E2.96077
G1 X81.715 Y66.360 E2.96505
G1 X80.604 Y65.651 E2.97507
G1 X80.195 Y65.308 E2.97912
G1 X79.468 Y64.535 E2.98718
G1 X79.193 Y64.197 E2.99049
G1 X78.998 Y63.900 E2.99320
G1 X78.486 Y62.970 E3.00126
G1 X78.330 Y62.617 E3.00419
G1 X78.205 Y62.231 E3.00727
G1 X77.941 Y61.203 E3.01533
G1 X77.871 Y60.644 E3.01961
G1 X77.871 Y59.356 E3.02940
G1 X77.941 Y58.797 E3.03368
G1 X78.205 Y57.769 E3.04175
G1 X78.330 Y57.383 E3.04483
G1 X78.486 Y57.030 E3.04776
G1 X78.998 Y56.100 E3.05582
G1 X79.152 Y55.865 E3.05796
G1 E1.05796 F1920.00000
G92 E0
G1 X86.973 Y61.074 F7800.000
G1 E2.00000 F1920.00000
G1 X86.639 Y61.538 E2.00434 F1500.000
G1 X86.204 Y61.898 E2.00864
G1 X85.694 Y62.138 E2.01292
G1 X85.140 Y62.243 E2.01720
G1 X84.578 Y62.208 E2.02148
G1 X84.042 Y62.034 E2.02576
G1 X83.565 Y61.731 E2.03005
G1 X83.176 Y61.312 E2.03439
G1 X82.909 Y60.827 E2.03860
G1 X82.769 Y60.282 E2.04288
G1 X82.769 Y59.718 E2.04716
G1 X82.907 Y59.182 E2.05136
G1 X83.179 Y58.680 E2.05571
G1 X83.566 Y58.268 E2.06000
G1 X84.042 Y57.966 E2.06428
G1 X84.578 Y57.792 E2.06856
G1 X85.130 Y57.757 E2.07277 F1500.000
G1 X85.692 Y57.861 E2.07711
G1 X86.204 Y58.102 E2.08140
G1 X86.638 Y58.461 E2.08568
G1 X86.969 Y58.917 E2.08996
G1 X87.176 Y59.441 E2.09424
G1 X87.247 Y60.000 E2.09852
G1 X87.176 Y60.559 E2.10280
G1 X87.000 Y61.004 E2.10644
G1 X86.755 Y60.955 F7800.000
G4 P31
G1 X86.457 Y61.368 E2.11031 F1500.000
G1 X86.070 Y61.688 E2.11412
G1 X85.617 Y61.902 E2.11793
G1 X85.125 Y61.996 E2.12174
G1 X84.624 Y61.964 E2.12555
G1 X84.148 Y61.809 E2.12936
G1 X83.724 Y61.540 E2.13317
G1 X83.377 Y61.167 E2.13704
G1 X83.140 Y60.736 E2.14078
G1 X83.015 Y60.251 E2.14458
G1 X83.015 Y59.749 E2.14839
G1 X83.138 Y59.273 E2.15213
G1 X83.381 Y58.825 E2.15600
G1 X83.725 Y58.459 E2.15981
G1 X84.148 Y58.191 E2.16362
G1 X84.624 Y58.036 E2.16743
G1 X85.115 Y58.005 E2.17117 F1500.000
G1 X85.616 Y58.098 E2.17504
G1 X86.070 Y58.312 E2.17885
G1 X86.457 Y58.631 E2.18266
G1 X86.751 Y59.037 E2.18647
G1 X86.936 Y59.503 E2.19027
G1 X86.999 Y60.000 E2.19408
G1 X86.936 Y60.497 E2.19789
G1 X86.782 Y60.885 E2.20106
G1 X86.537 Y60.836 F7800.000
G4 P31
G1 X86.276 Y61.199 E2.20445 F1500.000
G1 X85.937 Y61.479 E2.20779
G1 X85.540 Y61.665 E2.21113
G1 X85.109 Y61.748 E2.21446
G1 X84.671 Y61.720 E2.21780
G1 X84.253 Y61.585 E2.22113
G1 X83.883 Y61.349 E2.22447
G1 X83.578 Y61.022 E2.22787
G1 X83.371 Y60.645 E2.23113
G1 X83.262 Y60.219 E2.23447
G1 X83.262 Y59.781 E2.23780
G1 X83.369 Y59.364 E2.24107
G1 X83.582 Y58.971 E2.24447
G1 X83.883 Y58.651 E2.24781
G1 X84.253 Y58.415 E2.25114
G1 X84.671 Y58.280 E2.25448
G1 X85.100 Y58.253 E2.25774 F1500.000
G1 X85.540 Y58.334 E2.26114
G1 X85.937 Y58.521 E2.26448
G1 X86.276 Y58.801 E2.26781
G1 X86.534 Y59.156 E2.27115
G1 X86.695 Y59.564 E2.27448
G1 X86.750 Y60.000 E2.27782
G1 X86.695 Y60.436 E2.28115
G1 X86.565 Y60.766 E2.28385
G4 P1
G1 X86.754 Y61.227 F7800.000
G1 E0.28385 F1920.00000
G92 E0
G1 X88.871 Y61.760 F7800.000
G1 E2.00000 F1920.00000
G4 P12
G1 X88.710 Y62.121 E2.00301 F1500.000
G1 X88.157 Y62.882 E2.01015
G1 X87.297 Y63.607 E2.01870
G1 X86.278 Y64.080 E2.02723
G1 X85.348 Y64.258 E2.03443
G1 X85.202 Y64.270 E2.03554
G1 X84.266 Y64.211 E2.04266
G1 X83.191 Y63.876 E2.05122
G1 X82.248 Y63.275 E2.05971
G1 X81.505 Y62.463 E2.06807
G1 X81.045 Y61.626 E2.07533
G1 X80.760 Y60.563 E2.08369
G1 X80.760 Y59.437 E2.09225
G1 X81.045 Y58.374 E2.10061
G1 X81.505 Y57.537 E2.10787
G1 X82.246 Y56.728 E2.11620
G1 X83.195 Y56.122 E2.12476
G1 X84.249 Y55.790 E2.13315
G1 X85.202 Y55.730 E2.14040
G1 X85.348 Y55.742 E2.14152
G1 X86.278 Y55.920 E2.14872 F1500.000
G1 X87.297 Y56.393 E2.15725
G1 X88.157 Y57.118 E2.16579
G1 X88.710 Y57.879 E2.17294
G1 X88.779 Y58.008 E2.17405
G1 X89.139 Y58.917 E2.18148
G1 X89.277 Y60.000 E2.18977
G1 X89.158 Y61.006 E2.19747
G1 X88.899 Y61.690 E2.20303
G1 X89.100 Y61.850 F7800.000
G4 P31
G1 X89.003 Y62.096 E2.20504 F1500.000
G1 X88.919 Y62.252 E2.20638
G1 X88.339 Y63.051 E2.21388
G1 X87.431 Y63.816 E2.22290
G1 X86.355 Y64.316 E2.23192
G1 X85.381 Y64.502 E2.23945
G1 X85.204 Y64.517 E2.24080
G1 X84.221 Y64.455 E2.24828
G1 X83.087 Y64.101 E2.25731
G1 X82.089 Y63.465 E2.26630
G1 X81.407 Y62.739 E2.27386
G1 X81.298 Y62.599 E2.27521
G1 X80.818 Y61.726 E2.28278
G1 X80.513 Y60.594 E2.29169
G1 X80.513 Y59.406 E2.30072
G1 X80.818 Y58.274 E2.30962
G1 X81.298 Y57.401 E2.31719
G1 X81.407 Y57.261 E2.31854
G1 X82.087 Y56.537 E2.32609
G1 X83.089 Y55.897 E2.33512
G1 X84.210 Y55.546 E2.34404
G1 X85.204 Y55.483 E2.35161
G1 X85.381 Y55.498 E2.35295
G1 X86.355 Y55.683 E2.36049 F1500.000
G1 X87.431 Y56.184 E2.36950
G1 X88.339 Y56.949 E2.37852
G1 X88.919 Y57.748 E2.38602
G1 X89.003 Y57.904 E2.38737
G1 X89.375 Y58.843 E2.39504
G1 X89.525 Y60.000 E2.40391
G1 X89.401 Y61.049 E2.41193
G1 X89.375 Y61.157 E2.41278
G1 X89.128 Y61.781 E2.41787
G1 X89.329 Y61.941 F7800.000
G4 P31
G1 X89.227 Y62.201 E2.41999 F1500.000
G1 X89.128 Y62.384 E2.42158
G1 X88.520 Y63.220 E2.42943
G1 X87.564 Y64.026 E2.43892
G1 X86.431 Y64.553 E2.44842
G1 X85.414 Y64.747 E2.45628
G1 X85.206 Y64.764 E2.45787
G1 X84.176 Y64.699 E2.46571
G1 X82.982 Y64.327 E2.47521
G1 X81.929 Y63.655 E2.48470
G1 X81.220 Y62.899 E2.49257
G1 X81.092 Y62.735 E2.49416
G1 X80.592 Y61.827 E2.50203
G1 X80.525 Y61.629 E2.50362
G1 X80.267 Y60.625 E2.51149
G1 X80.267 Y59.375 E2.52100
G1 X80.525 Y58.371 E2.52887
G1 X80.592 Y58.173 E2.53045
G1 X81.092 Y57.265 E2.53833
G1 X81.220 Y57.101 E2.53991
G1 X81.929 Y56.346 E2.54778
G1 X82.983 Y55.673 E2.55728
G1 X84.172 Y55.301 E2.56675
G1 X85.206 Y55.236 E2.57462
G1 X85.414 Y55.253 E2.57620
G1 X86.431 Y55.447 E2.58407 F1500.000
G1 X87.564 Y55.974 E2.59356
G1 X88.520 Y56.780 E2.60306
G1 X89.128 Y57.616 E2.61091
G1 X89.227 Y57.799 E2.61250
G1 X89.610 Y58.768 E2.62041
G1 X89.644 Y58.907 E2.62150
G1 X89.773 Y60.000 E2.62986
G1 X89.644 Y61.093 E2.63822
G1 X89.610 Y61.232 E2.63931
G1 X89.357 Y61.871 E2.64453
G1 X89.053 Y61.982 F7800.000
G1 E0.64453 F1920.00000
G92 E0
G1 X88.968 Y58.945 F7800.000
G1 E2.00000 F1920.00000
G1 X86.050 Y56.027 E2.03225 F1500.000
G1 X85.608 Y55.942 E2.03578
G1 X89.061 Y59.396 E2.07395
G1 X89.109 Y59.802 E2.07715
G1 X85.177 Y55.870 E2.12061
G1 X84.836 Y55.887 E2.12328
G1 X89.124 Y60.175 E2.17068
G1 X89.086 Y60.496 E2.17320
G1 X84.499 Y55.909 E2.22391
G1 X84.171 Y55.940 E2.22648
G1 X86.106 Y57.875 E2.24787
G1 X85.560 Y57.687 F7800.000
G1 X83.897 Y56.024 E2.26625 F1500.000
G1 X83.627 Y56.112 E2.26848
G1 X85.137 Y57.623 E2.28518
G1 X84.800 Y57.644 E2.28782
G1 X83.356 Y56.200 E2.30378
G1 X83.112 Y56.314 E2.30589
G1 X84.489 Y57.691 E2.32111
G1 X84.218 Y57.779 E2.32333
G1 X82.893 Y56.454 E2.33798
G1 X82.674 Y56.593 E2.34000
G1 X83.960 Y57.879 E2.35422
G1 X83.741 Y58.018 E2.35625
G1 X82.456 Y56.733 E2.37046
G1 X82.265 Y56.901 E2.37244
G1 X83.522 Y58.157 E2.38633
G1 X83.343 Y58.337 E2.38831
G1 X82.086 Y57.080 E2.40220
G1 X81.911 Y57.264 E2.40418
G1 X83.169 Y58.522 E2.41809
G1 X83.018 Y58.729 E2.42009
G1 X81.740 Y57.451 E2.43422
G1 X81.579 Y57.648 E2.43621
G1 X82.892 Y58.961 E2.45073
G1 X82.772 Y59.200 E2.45281
G1 X81.451 Y57.879 E2.46741
G1 X81.324 Y58.111 E2.46948
G1 X82.699 Y59.485 E2.48467
G1 X82.632 Y59.777 E2.48701
G1 X81.197 Y58.342 E2.50287
G1 X81.110 Y58.613 E2.50510
G1 X82.632 Y60.135 E2.52192
G1 X82.679 Y60.540 E2.52511
G1 X81.034 Y58.896 E2.54328
G1 X80.959 Y59.179 E2.54557
G1 X82.850 Y61.070 E2.56648
G1 X83.947 Y62.167 F7800.000
G1 X85.817 Y64.038 E2.58716 F1500.000
G1 X85.516 Y64.095 E2.58955
G1 X80.897 Y59.475 E2.64062
G1 X80.897 Y59.834 E2.64342
G1 X85.192 Y64.128 E2.69089
G1 X84.809 Y64.104 E2.69389
G1 X80.897 Y60.192 E2.73713
G1 X80.920 Y60.574 E2.74012
G1 X84.427 Y64.080 E2.77888
G1 X83.932 Y63.944 E2.78289
G1 X81.052 Y61.064 E2.81473
G1 X81.215 Y61.585 E2.81900
G1 X83.411 Y63.782 E2.84328
G1 X82.501 Y63.231 F7800.000
G1 X82.008 Y62.737 E2.84873 F1500.000
G1 E0.84873 F1920.00000
G92 E0
G1 X84.478 Y62.339 F7800.000
G1 E2.00000 F1920.00000
G1 X86.118 Y63.980 E2.01814 F1500.000
G1 X86.392 Y63.895 E2.02038
G1 X84.863 Y62.367 E2.03727
G1 X85.215 Y62.360 E2.04002
G1 X86.637 Y63.781 E2.05573
G1 X86.881 Y63.668 E2.05784
G1 X85.516 Y62.302 E2.07294
G1 X85.795 Y62.223 E2.07520
G1 X87.126 Y63.554 E2.08992
G1 X87.345 Y63.415 E2.09195
G1 X86.038 Y62.108 E2.10639
G1 X86.277 Y61.988 E2.10848
G1 X87.540 Y63.251 E2.12244
G1 X87.734 Y63.087 E2.12443
G1 X86.473 Y61.825 E2.13837
G1 X86.669 Y61.663 E2.14036
G1 X87.925 Y62.920 E2.15425
G1 X88.105 Y62.740 E2.15623
G1 X86.832 Y61.468 E2.17029
G1 X86.982 Y61.260 E2.17230
G1 X88.262 Y62.539 E2.18644
G1 X88.413 Y62.332 E2.18845
G1 X87.118 Y61.037 E2.20276
G1 X87.219 Y60.780 E2.20492
G1 X88.564 Y62.124 E2.21978
G1 X88.688 Y61.890 E2.22185
G1 X87.314 Y60.516 E2.23704
G1 X87.354 Y60.198 E2.23955
G1 X88.787 Y61.631 E2.25539
G1 X88.887 Y61.372 E2.25756
G1 X87.374 Y59.860 E2.27428
G1 X87.323 Y59.449 E2.27751
G1 X88.986 Y61.113 E2.29590
G1 X89.048 Y60.817 E2.29827
G1 X87.136 Y58.904 E2.31940
G1 X88.745 Y58.363 F7800.000
G4 P20
G1 X86.660 Y56.278 E2.34245 F1500.000
G1 X87.783 Y57.043 F7800.000
G1 X88.145 Y57.404 E2.34644 F1500.000
G1 Z0.600 F7800.000
G1 E0.34644 F1920.00000
G92 E0
G4 P2
G1 X87.460 Y61.201 F7800.000
G1 E2.00000 F1920.00000
G1 X87.411 Y61.326 E2.00185 F1200.000
G1 X87.005 Y61.884 E2.01134
G1 X86.478 Y62.320 E2.02075
G1 X85.871 Y62.613 E2.03003
G1 X85.172 Y62.746 E2.03983
G1 X84.483 Y62.703 E2.04933
G1 X83.827 Y62.490 E2.05882
G1 X83.245 Y62.120 E2.06832
G1 X82.773 Y61.617 E2.07781
G1 X82.441 Y61.013 E2.08731
G1 X82.269 Y60.345 E2.09680
G1 X82.269 Y59.655 E2.10630
G1 X82.432 Y59.020 E2.11533
G1 X82.767 Y58.389 E2.12516
G1 X83.245 Y57.880 E2.13477
G1 X83.827 Y57.510 E2.14427
G1 X84.483 Y57.297 E2.15376
G1 X85.138 Y57.256 E2.16280 F1200.000
G1 X85.842 Y57.379 E2.17263
G1 X86.474 Y57.677 E2.18224
G1 X87.012 Y58.122 E2.19185
G1 X87.423 Y58.706 E2.20168
G1 X87.664 Y59.316 E2.21071
G1 X87.751 Y60.000 E2.22021
G1 X87.664 Y60.684 E2.22970
G1 X87.488 Y61.131 E2.23632
G1 X87.045 Y61.037 F7800.000
G4 P29
G1 X87.016 Y61.109 E2.23739 F1200.000
G1 X86.677 Y61.576 E2.24533
G1 X86.235 Y61.941 E2.25322
G1 X85.730 Y62.185 E2.26095
G1 X85.144 Y62.297 E2.26917
G1 X84.568 Y62.261 E2.27711
G1 X84.019 Y62.083 E2.28505
G1 X83.532 Y61.774 E2.29299
G1 X83.137 Y61.353 E2.30094
G1 X82.859 Y60.847 E2.30888
G1 X82.715 Y60.288 E2.31682
G1 X82.715 Y59.711 E2.32476
G1 X82.851 Y59.182 E2.33229
G1 X83.133 Y58.651 E2.34057
G1 X83.532 Y58.226 E2.34858
G1 X84.019 Y57.917 E2.35652
G1 X84.568 Y57.739 E2.36447
G1 X85.113 Y57.705 E2.37199 F1200.000
