; generated by Slic3r 1.2.9 on 2015-12-20 at 01:15:48

; external perimeters extrusion width = 0.50mm
; perimeters extrusion width = 0.50mm
; infill extrusion width = 0.50mm
; solid infill extrusion width = 0.50mm
; top infill extrusion width = 0.50mm

M107
M190 S60 ; set bed temperature
M104 S210 ; set temperature
G28 ; home all axes
M109 S210 ; wait for temperature to be reached
G21 ; set units to millimeters
G90 ; use absolute coordinates
M82 ; use absolute distances for extrusion
G92 E0
G1 Z0.350 F7800.000
G1 E-2.00000 F1920.00000
G92 E0
G1 X57.245 Y47.248 F7800.000
G1 E2.00000 F1920.00000
M204 S3000
G1 X58.032 Y46.309 E2.00931 F1500.000
G1 X59.087 Y45.236 E2.02074
G1 X60.052 Y44.392 E2.03048
G1 X61.256 Y43.490 E2.04191
G1 X62.722 Y42.578 E2.05503
G1 X63.863 Y41.992 E2.06477
G1 X65.249 Y41.407 E2.07620
G1 X66.887 Y40.877 E2.08928
G1 X86.402 Y36.244 E2.24166
G1 X87.035 Y36.170 E2.24650
G1 X105.610 Y36.170 E2.38762
G1 X106.249 Y36.246 E2.39251
G1 X106.501 Y36.306 E2.39448 F1500.000
G1 X107.161 Y36.558 E2.39985
G1 X107.389 Y36.681 E2.40181
G1 X107.963 Y37.095 E2.40719
G1 X108.151 Y37.271 E2.40915
G1 X108.600 Y37.818 E2.41453
G1 X108.878 Y38.291 E2.41869
G1 X116.324 Y53.623 E2.54818
G1 X116.554 Y54.259 E2.55332
G1 X116.636 Y54.604 E2.55602
G1 X116.730 Y55.152 E2.56024
G1 X116.769 Y55.559 E2.56335
G1 X116.775 Y55.857 E2.56561
G1 X116.670 Y56.667 E2.57181
G1 X116.587 Y56.953 E2.57408
G1 X116.442 Y57.346 E2.57726
G1 X109.568 Y72.248 E2.70194
G1 X109.212 Y72.847 E2.70724
G1 X108.964 Y73.172 E2.71034
G1 X101.048 Y82.048 E2.80069
G1 X100.576 Y82.492 E2.80562
G1 X100.114 Y82.839 E2.81001
G1 X99.788 Y83.044 E2.81293
G1 X99.211 Y83.340 E2.81786
G1 X98.671 Y83.545 E2.82225
G1 X98.301 Y83.652 E2.82517
G1 X97.665 Y83.776 E2.83010
G1 X97.088 Y83.823 E2.83449
G1 X96.704 Y83.823 E2.83741
G1 X96.127 Y83.776 E2.84181
G1 X95.491 Y83.652 E2.84673
G1 X66.677 Y76.587 E3.07212
G1 X65.457 Y76.193 E3.08186
G1 X64.083 Y75.632 E3.09314
G1 X62.722 Y74.944 E3.10472
G1 X61.256 Y74.033 E3.11784
G1 X60.226 Y73.270 E3.12758
G1 X59.087 Y72.287 E3.13901
G1 X58.032 Y71.214 E3.15044
G1 X56.933 Y69.883 E3.16356
G1 X56.080 Y68.643 E3.17498
G1 X55.434 Y67.535 E3.18473
G1 X54.785 Y66.201 E3.19600
G1 X54.231 Y64.780 E3.20759
G1 X53.800 Y63.339 E3.21902
G1 X53.453 Y61.648 E3.23213
G1 X53.279 Y60.154 E3.24356
G1 X53.227 Y58.650 E3.25499
G1 X53.279 Y57.369 E3.26473
G1 X53.453 Y55.875 E3.27616
G1 X53.747 Y54.399 E3.28759
G1 X54.160 Y52.953 E3.29902
G1 X54.689 Y51.544 E3.31045
G1 X55.434 Y49.987 E3.32356
G1 X56.200 Y48.692 E3.33499
G1 X56.933 Y47.640 E3.34474
G1 X57.197 Y47.306 E3.34797
G1 X57.435 Y47.405 F7800.000
G4 P31
G1 X58.209 Y46.480 E3.35713 F1500.000
G1 X59.249 Y45.422 E3.36841
G1 X60.215 Y44.577 E3.37815
G1 X61.403 Y43.688 E3.38943
G1 X62.835 Y42.798 E3.40224
G1 X63.976 Y42.211 E3.41198
G1 X65.343 Y41.634 E3.42326
G1 X66.944 Y41.117 E3.43604
G1 X86.459 Y36.484 E3.58843
G1 X87.035 Y36.416 E3.59283
G1 X105.610 Y36.416 E3.73395
G1 X106.192 Y36.485 E3.73840
G1 X106.443 Y36.545 E3.74036 F1500.000
G1 X107.045 Y36.775 E3.74525
G1 X107.272 Y36.898 E3.74722
G1 X107.794 Y37.274 E3.75211
G1 X107.983 Y37.451 E3.75407
G1 X108.391 Y37.948 E3.75896
G1 X108.656 Y38.399 E3.76293
G1 X116.103 Y53.730 E3.89242
G1 X116.319 Y54.332 E3.89728
G1 X116.394 Y54.645 E3.89973
G1 X116.487 Y55.194 E3.90395
G1 X116.529 Y55.862 E3.90904
G1 X116.433 Y56.599 E3.91468
G1 X116.351 Y56.885 E3.91695
G1 X116.218 Y57.243 E3.91984
G1 X109.345 Y72.145 E4.04452
G1 X109.006 Y72.713 E4.04955
G1 X108.780 Y73.009 E4.05238
G1 X100.876 Y81.871 E4.14259
G1 X100.417 Y82.304 E4.14738
G1 X99.968 Y82.640 E4.15165
G1 X99.672 Y82.827 E4.15431
G1 X99.111 Y83.115 E4.15910
G1 X98.586 Y83.314 E4.16336
G1 X98.250 Y83.411 E4.16602
G1 X97.630 Y83.532 E4.17082
G1 X97.071 Y83.578 E4.17508
G1 X96.721 Y83.578 E4.17774
G1 X96.162 Y83.532 E4.18200
G1 X95.542 Y83.411 E4.18679
G1 X66.753 Y76.353 E4.41199
G1 X65.533 Y75.958 E4.42173
G1 X64.178 Y75.404 E4.43286
G1 X62.835 Y74.725 E4.44429
G1 X61.403 Y73.835 E4.45710
G1 X60.372 Y73.072 E4.46684
G1 X59.249 Y72.101 E4.47812
G1 X58.209 Y71.042 E4.48940
G1 X57.135 Y69.742 E4.50221
G1 X56.293 Y68.519 E4.51349
G1 X55.647 Y67.411 E4.52323
G1 X55.008 Y66.094 E4.53436
G1 X54.461 Y64.693 E4.54579
G1 X54.037 Y63.270 E4.55706
G1 X53.697 Y61.618 E4.56988
G1 X53.525 Y60.144 E4.58115
G1 X53.473 Y58.862 E4.59090
G1 X53.522 Y57.447 E4.60166
G1 X53.697 Y55.905 E4.61345
G1 X53.988 Y54.449 E4.62473
G1 X54.396 Y53.022 E4.63600
G1 X54.919 Y51.632 E4.64728
G1 X55.647 Y50.111 E4.66009
G1 X56.402 Y48.833 E4.67137
G1 X57.135 Y47.781 E4.68111
G1 X57.387 Y47.463 E4.68420
G1 X57.625 Y47.562 F7800.000
G4 P31
G1 X58.385 Y46.652 E4.69321 F1500.000
G1 X59.411 Y45.607 E4.70433
G1 X60.377 Y44.763 E4.71407
G1 X61.549 Y43.886 E4.72520
G1 X62.948 Y43.017 E4.73771
G1 X64.088 Y42.430 E4.74745
G1 X65.438 Y41.862 E4.75858
G1 X67.001 Y41.356 E4.77106
G1 X86.516 Y36.723 E4.92344
G1 X87.035 Y36.663 E4.92741
G1 X105.610 Y36.663 E5.06853
G1 X106.134 Y36.725 E5.07254
G1 X106.386 Y36.785 E5.07450 F1500.000
G1 X106.928 Y36.992 E5.07891
G1 X107.155 Y37.115 E5.08087
G1 X107.626 Y37.454 E5.08528
G1 X107.814 Y37.631 E5.08724
G1 X108.182 Y38.079 E5.09165
G1 X108.434 Y38.506 E5.09542
G1 X115.881 Y53.838 E5.22491
G1 X116.083 Y54.404 E5.22948
G1 X116.245 Y55.235 E5.23591
G1 X116.282 Y55.867 E5.24072
G1 X116.196 Y56.531 E5.24581
G1 X115.994 Y57.139 E5.25068
G1 X109.121 Y72.042 E5.37536
G1 X108.800 Y72.578 E5.38011
G1 X108.596 Y72.845 E5.38266
G1 X100.704 Y81.695 E5.47274
G1 X100.258 Y82.116 E5.47740
G1 X99.822 Y82.442 E5.48153
G1 X99.556 Y82.610 E5.48393
G1 X99.010 Y82.890 E5.48859
G1 X98.501 Y83.083 E5.49272
G1 X98.198 Y83.170 E5.49512
G1 X97.596 Y83.288 E5.49978
G1 X97.054 Y83.332 E5.50391
G1 X96.738 Y83.332 E5.50631
G1 X96.196 Y83.288 E5.51044
G1 X95.594 Y83.170 E5.51510
G1 X66.829 Y76.118 E5.74011
G1 X65.609 Y75.724 E5.74985
G1 X64.272 Y75.177 E5.76083
G1 X62.948 Y74.506 E5.77210
G1 X61.549 Y73.637 E5.78461
G1 X60.519 Y72.874 E5.79435
G1 X59.411 Y71.916 E5.80548
G1 X58.385 Y70.871 E5.81661
G1 X57.337 Y69.601 E5.82912
G1 X56.506 Y68.395 E5.84024
G1 X55.860 Y67.287 E5.84998
G1 X55.230 Y65.988 E5.86096
G1 X54.691 Y64.605 E5.87223
G1 X54.273 Y63.201 E5.88336
G1 X53.971 Y61.768 E5.89449
G1 X53.771 Y60.134 E5.90699
G1 X53.719 Y58.670 E5.91812
G1 X53.771 Y57.389 E5.92786
G1 X53.942 Y55.935 E5.93899
G1 X54.229 Y54.499 E5.95011
G1 X54.633 Y53.091 E5.96124
G1 X55.149 Y51.720 E5.97237
G1 X55.860 Y50.235 E5.98487
G1 X56.604 Y48.974 E5.99600
G1 X57.337 Y47.922 E6.00574
G1 X57.577 Y47.619 E6.00868
G1 E4.00868 F1920.00000
G92 E0
G1 X98.427 Y79.528 F7800.000
G1 E2.00000 F1920.00000
G1 X98.021 Y79.864 E2.00400 F1500.000
G1 X97.545 Y80.088 E2.00800
G1 X97.028 Y80.186 E2.01199
G1 X96.503 Y80.153 E2.01599
G1 X96.002 Y79.991 E2.01999
G1 X95.558 Y79.709 E2.02399
G1 X95.198 Y79.325 E2.02799
G1 X94.944 Y78.864 E2.03199
G1 X94.813 Y78.353 E2.03599
G1 X94.816 Y77.817 E2.04006
G1 X94.944 Y77.318 E2.04398
G1 X95.198 Y76.857 E2.04798
G1 X95.558 Y76.473 E2.05197
G1 X96.003 Y76.191 E2.05598
G1 X96.513 Y76.028 E2.06005
G1 X97.028 Y75.996 E2.06397 F1500.000
G1 X97.545 Y76.094 E2.06797
G1 X98.021 Y76.318 E2.07196
G1 X98.427 Y76.654 E2.07596
G1 X98.736 Y77.080 E2.07996
G1 X98.930 Y77.569 E2.08396
G1 X98.996 Y78.091 E2.08796
G1 X98.930 Y78.613 E2.09196
G1 X98.736 Y79.102 E2.09595
G1 X98.471 Y79.468 E2.09938
G1 X98.245 Y79.358 F7800.000
G4 P31
G1 X97.888 Y79.654 E2.10291 F1500.000
G1 X97.468 Y79.852 E2.10643
G1 X97.012 Y79.939 E2.10996
G1 X96.549 Y79.909 E2.11348
G1 X96.108 Y79.766 E2.11701
G1 X95.716 Y79.517 E2.12053
G1 X95.398 Y79.179 E2.12406
G1 X95.175 Y78.772 E2.12758
G1 X95.059 Y78.323 E2.13111
G1 X95.062 Y77.849 E2.13471
G1 X95.175 Y77.410 E2.13816
G1 X95.398 Y77.003 E2.14168
G1 X95.716 Y76.665 E2.14521
G1 X96.108 Y76.416 E2.14874
G1 X96.559 Y76.272 E2.15233
G1 X97.012 Y76.243 E2.15578 F1500.000
G1 X97.468 Y76.330 E2.15931
G1 X97.888 Y76.528 E2.16283
G1 X98.245 Y76.824 E2.16636
G1 X98.518 Y77.199 E2.16988
G1 X98.689 Y77.631 E2.17341
G1 X98.747 Y78.091 E2.17694
G1 X98.689 Y78.551 E2.18046
G1 X98.518 Y78.983 E2.18399
G1 X98.290 Y79.298 E2.18694
G1 X98.361 Y79.808 F7800.000
G1 X99.116 Y79.143 F7800.000
G4 P21
G1 X99.011 Y79.078 E2.18788 F1500.000
G4 P28
G1 X99.170 Y78.675 E2.19118
G1 X99.244 Y78.091 E2.19565
G1 X99.170 Y77.507 E2.20012
G1 X98.953 Y76.960 E2.20459
G1 X98.608 Y76.484 E2.20906
G1 X98.154 Y76.109 E2.21353
G1 X97.622 Y75.858 E2.21800
G1 X97.043 Y75.748 E2.22247
G1 X96.468 Y75.784 E2.22686
G1 X95.898 Y75.966 E2.23140
G1 X95.399 Y76.282 E2.23588
G1 X94.997 Y76.711 E2.24036
G1 X94.713 Y77.227 E2.24483
G1 X94.570 Y77.786 E2.24921
G1 X94.566 Y78.384 E2.25375
G1 X94.713 Y78.955 E2.25824
G1 X94.759 Y79.039 E2.25896
G4 P5
G1 X94.651 Y79.115 E2.25996
G1 X87.386 Y70.959 E2.34294
G1 X87.302 Y70.831 E2.34411
G1 X87.273 Y70.731 E2.34490
G1 X87.276 Y70.578 E2.34606
G1 X87.355 Y70.118 E2.34960
G1 X87.394 Y69.991 E2.35061
G1 X87.442 Y69.914 E2.35130
G1 X87.589 Y69.809 E2.35267
G1 X87.677 Y69.787 E2.35336
G1 X87.816 Y69.791 E2.35442
G1 X90.039 Y70.090 E2.37146
G1 X92.319 Y70.309 E2.38886
G1 X94.606 Y70.440 E2.40626
G1 X96.896 Y70.484 E2.42367
G1 X99.186 Y70.440 E2.44107
G1 X101.473 Y70.309 E2.45847
G1 X103.753 Y70.090 E2.47587
G1 X105.976 Y69.791 E2.49291
G1 X106.115 Y69.787 E2.49397
G1 X106.288 Y69.856 E2.49539
G1 X106.398 Y69.991 E2.49671
G1 X106.437 Y70.118 E2.49772
G1 X106.516 Y70.578 E2.50126
G1 X106.519 Y70.731 E2.50242
G1 X106.490 Y70.831 E2.50321
G1 X106.406 Y70.959 E2.50437
G1 X99.166 Y79.087 E2.58707
G1 X99.300 Y79.307 F7800.000
G4 P31
G1 X98.851 Y79.811 E2.59220 F1500.000
G1 X98.551 Y80.097 E2.59535
G1 X98.283 Y80.293 E2.59787
G1 X97.990 Y80.450 E2.60040
G1 X97.618 Y80.591 E2.60342
G1 X97.228 Y80.670 E2.60645
G1 X96.896 Y80.694 E2.60897
G1 X96.564 Y80.670 E2.61150
G1 X96.172 Y80.591 E2.61454
G1 X95.862 Y80.477 E2.61705
G1 X95.509 Y80.293 E2.62007
G1 X95.191 Y80.054 E2.62310
G1 X94.943 Y79.812 E2.62573
G1 X87.189 Y71.109 E2.71428
G1 X87.075 Y70.934 E2.71587
G1 X87.026 Y70.763 E2.71722
G1 X87.030 Y70.554 E2.71881
G1 X87.115 Y70.061 E2.72261
G1 X87.168 Y69.888 E2.72399
G1 X87.250 Y69.756 E2.72516
G1 X87.364 Y69.650 E2.72634
G1 X87.500 Y69.577 E2.72752
G1 X87.651 Y69.540 E2.72870
G1 X87.836 Y69.545 E2.73010
G1 X90.067 Y69.845 E2.74721
G1 X92.338 Y70.063 E2.76454
G1 X94.615 Y70.194 E2.78187
G1 X96.896 Y70.237 E2.79920
G1 X99.177 Y70.194 E2.81653
G1 X101.454 Y70.063 E2.83386
G1 X103.725 Y69.845 E2.85119
G1 X105.957 Y69.545 E2.86830
G1 X106.141 Y69.540 E2.86970
G1 X106.275 Y69.572 E2.87075
G1 X106.431 Y69.653 E2.87209 F1500.000
G1 X106.542 Y69.756 E2.87323
G1 X106.624 Y69.888 E2.87441
G1 X106.677 Y70.061 E2.87579
G1 X106.762 Y70.554 E2.87959
G1 X106.766 Y70.763 E2.88117
G1 X106.717 Y70.934 E2.88253
G1 X106.603 Y71.109 E2.88412
G1 X99.350 Y79.251 E2.96695
G1 X99.484 Y79.471 F7800.000
G4 P31
G1 X99.028 Y79.982 E2.97216 F1500.000
G1 X98.710 Y80.286 E2.97550
G1 X98.415 Y80.502 E2.97828
G1 X98.092 Y80.675 E2.98106
G1 X97.686 Y80.829 E2.98436
G1 X97.261 Y80.915 E2.98766
G1 X96.896 Y80.941 E2.99043
G1 X96.531 Y80.915 E2.99321
G1 X96.105 Y80.829 E2.99652
G1 X95.762 Y80.703 E2.99929
G1 X95.377 Y80.502 E3.00259
G1 X95.030 Y80.242 E3.00589
G1 X94.764 Y79.983 E3.00870
G1 X86.993 Y71.259 E3.09746
G1 X86.849 Y71.038 E3.09947
G1 X86.779 Y70.795 E3.10139
G1 X86.785 Y70.531 E3.10340
G1 X86.875 Y70.003 E3.10746
G1 X86.942 Y69.785 E3.10920
G1 X87.058 Y69.599 E3.11087
G1 X87.218 Y69.449 E3.11253
G1 X87.411 Y69.345 E3.11420
G1 X87.624 Y69.293 E3.11587
G1 X87.855 Y69.299 E3.11762
G1 X90.095 Y69.600 E3.13479
G1 X92.357 Y69.817 E3.15205
G1 X94.625 Y69.948 E3.16931
G1 X96.896 Y69.991 E3.18657
G1 X99.167 Y69.948 E3.20383
G1 X101.435 Y69.817 E3.22109
G1 X103.697 Y69.600 E3.23835
G1 X105.937 Y69.299 E3.25552
G1 X106.168 Y69.293 E3.25727
G1 X106.361 Y69.340 E3.25878
G1 X106.575 Y69.450 E3.26061 F1500.000
G1 X106.734 Y69.599 E3.26226
G1 X106.850 Y69.785 E3.26393
G1 X106.917 Y70.003 E3.26567
G1 X107.008 Y70.531 E3.26973
G1 X107.013 Y70.795 E3.27174
G1 X106.943 Y71.038 E3.27366
G1 X106.799 Y71.259 E3.27567
G1 X99.534 Y79.415 E3.35865
G1 X98.994 Y79.369 F7800.000
G1 X99.002 Y79.217 F7800.000
G4 P32
G1 X98.619 Y79.687 E3.36886 F1500.000
G1 X98.149 Y80.080 E3.37919
G1 X97.607 Y80.329 E3.38924
G1 X97.193 Y80.416 E3.39636
G1 X96.896 Y80.436 E3.40138
G1 X96.472 Y80.399 E3.40855
G1 X96.243 Y80.341 E3.41253
G1 X95.911 Y80.222 E3.41848
G1 X95.648 Y80.073 E3.42357
G1 X95.387 Y79.890 E3.42893
G1 X95.130 Y79.633 E3.43506
G1 X94.978 Y79.463 E3.43890
G1 X94.776 Y79.177 E3.44480
G1 X94.446 Y78.561 F7800.000
G1 X94.081 Y78.197 E3.44872 F1500.000
G1 X94.430 Y78.197 E3.45138
G4 P19
G1 X91.232 Y74.999 E3.48582
G1 E1.48582 F1920.00000
G92 E0
G1 X88.383 Y71.800 F7800.000
G1 E2.00000 F1920.00000
G1 X94.432 Y77.850 E2.06515 F1500.000
G1 X94.497 Y77.565 E2.06737
G1 X87.422 Y70.490 E2.14356
G1 X87.473 Y70.192 E2.14586
G1 X94.568 Y77.287 E2.22226
G1 X94.677 Y77.047 E2.22427
G1 X87.594 Y69.964 E2.30055
G1 X87.932 Y69.952 E2.30312
G1 X94.801 Y76.821 E2.37710
G1 X94.936 Y76.607 E2.37902
G1 X88.335 Y70.006 E2.45011
G1 X88.739 Y70.061 E2.45321
G1 X95.105 Y76.427 E2.52177
G1 X95.274 Y76.247 E2.52365
G1 X89.142 Y70.115 E2.58968
G1 X89.546 Y70.169 E2.59278
G1 X95.473 Y76.096 E2.65662
G1 X95.687 Y75.961 E2.65854
G1 X89.950 Y70.224 E2.72033
G1 X90.336 Y70.262 E2.72329
G1 X95.908 Y75.833 E2.78329
G1 X96.172 Y75.748 E2.78540
G1 X90.723 Y70.299 E2.84409
G1 X91.109 Y70.336 E2.84705
G1 X96.437 Y75.664 E2.90443
G1 X96.754 Y75.632 E2.90686
G1 X91.495 Y70.373 E2.96349
G1 X91.881 Y70.410 E2.96645
G1 X97.083 Y75.611 E3.02247
G1 X97.507 Y75.686 E3.02574
G1 X92.267 Y70.446 E3.08217
G1 X92.638 Y70.467 E3.08500
G1 X98.047 Y75.877 E3.14325
G1 X99.123 Y76.952 F7800.000
G1 X100.069 Y77.899 E3.15344 F1500.000
G1 X100.234 Y77.714 E3.15533
G1 X93.008 Y70.489 E3.23314
G1 X93.379 Y70.510 E3.23597
G1 X100.398 Y77.530 E3.31157
G1 X100.563 Y77.345 E3.31345
G1 X93.749 Y70.531 E3.38683
G1 X94.120 Y70.553 E3.38966
G1 X100.727 Y77.160 E3.46082
G1 X100.892 Y76.976 E3.46270
G1 X94.490 Y70.574 E3.53164
G1 X94.848 Y70.583 E3.53437
G1 X101.056 Y76.791 E3.60123
G1 X101.221 Y76.606 E3.60311
G1 X95.204 Y70.590 E3.66791
G1 X95.560 Y70.596 E3.67062
G1 X101.385 Y76.422 E3.73335
G1 X101.550 Y76.237 E3.73524
G1 X95.916 Y70.603 E3.79591
G1 X96.272 Y70.610 E3.79862
G1 X101.714 Y76.052 E3.85723
G1 X101.879 Y75.867 E3.85911
G1 X96.628 Y70.617 E3.91566
G1 X96.979 Y70.618 E3.91833
G1 X102.043 Y75.683 E3.97287
G1 X102.208 Y75.498 E3.97475
G1 X97.322 Y70.612 E4.02738
G1 X97.664 Y70.605 E4.02999
G1 X102.373 Y75.313 E4.08069
G1 X102.537 Y75.129 E4.08257
G1 X98.007 Y70.599 E4.13136
G1 X98.350 Y70.592 E4.13397
G1 X102.702 Y74.944 E4.18083
G1 X102.866 Y74.759 E4.18272
G1 X98.692 Y70.586 E4.22767
G1 X99.035 Y70.579 E4.23028
G1 X103.031 Y74.575 E4.27331
G1 X103.195 Y74.390 E4.27519
G1 X99.369 Y70.564 E4.31639
G1 X99.699 Y70.545 E4.31891
G1 X103.360 Y74.205 E4.35833
G1 X103.524 Y74.021 E4.36022
G1 X100.030 Y70.526 E4.39785
G1 X100.360 Y70.507 E4.40037
G1 X103.689 Y73.836 E4.43622
G1 X103.853 Y73.651 E4.43810
G1 X100.690 Y70.488 E4.47217
G1 X101.020 Y70.469 E4.47469
G1 X104.018 Y73.467 E4.50697
G1 X104.182 Y73.282 E4.50885
G1 X101.351 Y70.450 E4.53935
G1 X101.672 Y70.423 E4.54181
G1 X104.347 Y73.097 E4.57061
G1 X104.511 Y72.913 E4.57249
G1 X101.991 Y70.392 E4.59964
G1 X102.309 Y70.361 E4.60207
G1 X104.676 Y72.728 E4.62756
G1 X104.840 Y72.543 E4.62944
G1 X102.628 Y70.331 E4.65327
G1 X102.947 Y70.300 E4.65570
G1 X105.005 Y72.358 E4.67787
G1 X105.169 Y72.174 E4.67975
G1 X103.265 Y70.270 E4.70026
G1 X103.584 Y70.239 E4.70270
G1 X105.334 Y71.989 E4.72154
G1 X105.498 Y71.804 E4.72342
G1 X103.897 Y70.202 E4.74068
G1 X104.204 Y70.161 E4.74304
G1 X105.663 Y71.620 E4.75875
G1 X105.827 Y71.435 E4.76063
G1 X104.512 Y70.120 E4.77480
G1 X104.820 Y70.078 E4.77716
G1 X105.992 Y71.250 E4.78979
G1 X106.157 Y71.066 E4.79167
G1 X105.128 Y70.037 E4.80275
G1 X105.435 Y69.995 E4.80512
G1 X106.319 Y70.879 E4.81463
G1 X106.367 Y70.577 E4.81695
G1 X105.743 Y69.954 E4.82367
G1 X106.070 Y69.932 E4.82617
G1 X106.283 Y70.145 E4.82846
G1 E2.82846 F1920.00000
G92 E0
G4 P8
