; generated by Slic3r 1.2.9 on 2015-12-30 at 20:07:43

; external perimeters extrusion width = 0.50mm
; perimeters extrusion width = 0.50mm
; infill extrusion width = 0.50mm
; solid infill extrusion width = 0.50mm
; top infill extrusion width = 0.50mm

M107
M190 S60 ; set bed temperature
M104 S210 ; set temperature
G28 ; home all axes
M109 S210 ; wait for temperature to be reached
G21 ; set units to millimeters
G90 ; use absolute coordinates
M82 ; use absolute distances for extrusion
G92 E0
G1 Z0.350 F7800.000
G1 E-2.00000 F1920.00000
G92 E0
G1 X19.284 Y6.740 F7800.000
G1 E2.00000 F1920.00000
M204 S3000
G1 X19.555 Y6.088 E2.00536 F1500.000
G1 X20.199 Y4.972 E2.01516
G1 X20.628 Y4.411 E2.02052
G1 X21.537 Y3.497 E2.03031
G1 X22.095 Y3.064 E2.03568
G1 X23.207 Y2.412 E2.04547
G1 X23.857 Y2.137 E2.05084
G1 X25.099 Y1.791 E2.06063
G1 X25.798 Y1.691 E2.06599
G1 X27.123 Y1.674 E2.07606
G1 X142.913 Y1.674 E2.95575
G1 X144.202 Y1.691 E2.96554 F1500.000
G1 X144.901 Y1.791 E2.97091
G1 X146.143 Y2.137 E2.98070
G1 X146.793 Y2.412 E2.98607
G1 X147.905 Y3.064 E2.99586
G1 X148.463 Y3.497 E3.00122
G1 X149.372 Y4.411 E3.01102
G1 X149.801 Y4.972 E3.01638
G1 X150.445 Y6.088 E3.02617
G1 X150.716 Y6.740 E3.03154
G1 X151.054 Y7.984 E3.04133
G1 X151.150 Y8.684 E3.04670
G1 X151.158 Y9.973 E3.05649
G1 X151.072 Y10.674 E3.06185
G1 X150.750 Y11.922 E3.07165
G1 X150.653 Y12.227 E3.07408
G1 X116.232 Y101.280 E3.79942
G1 X115.971 Y101.790 E3.80377
G1 X115.808 Y102.039 E3.80603
G1 X115.559 Y102.364 E3.80914
G1 X107.777 Y111.100 E3.89803
G1 X107.172 Y111.684 E3.90441
G1 X106.709 Y112.031 E3.90881
G1 X106.384 Y112.236 E3.91173
G1 X105.807 Y112.532 E3.91665
G1 X105.092 Y112.794 E3.92244
G1 X87.659 Y117.887 E4.06042
G1 X86.345 Y118.235 E4.07075
G1 X85.644 Y118.326 E4.07611
G1 X84.356 Y118.326 E4.08591
G1 X83.655 Y118.235 E4.09127
G1 X82.409 Y117.906 E4.10106
G1 X81.959 Y117.743 E4.10470
G1 X52.751 Y104.223 E4.34922
G1 X52.185 Y103.872 E4.35428
G1 X51.192 Y103.074 E4.36396
G1 X50.709 Y102.571 E4.36926
G1 X49.950 Y101.548 E4.37894
G1 X49.609 Y100.939 E4.38424
G1 X49.081 Y99.617 E4.39505
G1 X19.309 Y12.122 E5.09720
G1 X18.928 Y10.674 E5.10858
G1 X18.842 Y9.973 E5.11394
G1 X18.850 Y8.684 E5.12373
G1 X18.946 Y7.984 E5.12910
G1 X19.264 Y6.813 E5.13832
G1 X19.521 Y6.805 F7800.000
G1 X19.768 Y6.212 E5.14320 F1500.000
G1 X20.413 Y5.095 E5.15300
G1 X20.803 Y4.585 E5.15788
G1 X21.712 Y3.670 E5.16767
G1 X22.220 Y3.277 E5.17255
G1 X23.332 Y2.625 E5.18235
G1 X23.923 Y2.374 E5.18723
G1 X25.165 Y2.028 E5.19702
G1 X25.801 Y1.937 E5.20190
G1 X27.123 Y1.920 E5.21195
G1 X142.910 Y1.920 E6.09161
G1 X144.199 Y1.937 E6.10141 F1500.000
G1 X144.835 Y2.028 E6.10629
G1 X146.077 Y2.374 E6.11608
G1 X146.668 Y2.625 E6.12096
G1 X147.780 Y3.277 E6.13076
G1 X148.288 Y3.670 E6.13564
G1 X149.197 Y4.585 E6.14543
G1 X149.587 Y5.095 E6.15031
G1 X150.232 Y6.212 E6.16011
G1 X150.479 Y6.805 E6.16499
G1 X150.816 Y8.049 E6.17478
G1 X150.903 Y8.686 E6.17966
G1 X150.912 Y9.975 E6.18946
G1 X150.833 Y10.612 E6.19434
G1 X150.512 Y11.861 E6.20413
G1 X150.423 Y12.138 E6.20634
G1 X116.002 Y101.191 E6.93168
G1 X115.764 Y101.655 E6.93564
G1 X115.375 Y102.200 E6.94073
G1 X107.593 Y110.936 E7.02962
G1 X107.013 Y111.496 E7.03574
G1 X106.564 Y111.832 E7.04000
G1 X106.268 Y112.019 E7.04266
G1 X105.706 Y112.307 E7.04745
G1 X105.023 Y112.558 E7.05299
G1 X87.590 Y117.650 E7.19097
G1 X86.282 Y117.997 E7.20125
G1 X85.644 Y118.080 E7.20613
G1 X84.356 Y118.080 E7.21592
G1 X83.718 Y117.997 E7.22080
G1 X82.472 Y117.668 E7.23060
G1 X82.062 Y117.520 E7.23391
G1 X52.854 Y103.999 E7.47843
G1 X52.339 Y103.680 E7.48303
G1 X51.347 Y102.882 E7.49271
G1 X50.907 Y102.424 E7.49753
G1 X50.148 Y101.401 E7.50721
G1 X49.838 Y100.847 E7.51203
G1 X49.314 Y99.537 E7.52275
G1 X19.542 Y12.042 E8.22490
G1 X19.167 Y10.612 E8.23613
G1 X19.088 Y9.975 E8.24101
G1 X19.097 Y8.686 E8.25080
G1 X19.184 Y8.049 E8.25569
G1 X19.502 Y6.877 E8.26491
G1 X19.759 Y6.870 F7800.000
G1 X19.982 Y6.335 E8.26931 F1500.000
G1 X20.626 Y5.219 E8.27910
G1 X20.978 Y4.759 E8.28350
G1 X21.886 Y3.844 E8.29329
G1 X22.344 Y3.489 E8.29769
G1 X23.456 Y2.837 E8.30749
G1 X23.989 Y2.611 E8.31189
G1 X25.231 Y2.266 E8.32168
G1 X25.804 Y2.183 E8.32608
G1 X27.123 Y2.166 E8.33610
G1 X142.907 Y2.167 E9.21574
G1 X144.196 Y2.183 E9.22553 F1500.000
G1 X144.769 Y2.266 E9.22993
G1 X146.011 Y2.611 E9.23972
G1 X146.544 Y2.837 E9.24412
G1 X147.656 Y3.489 E9.25392
G1 X148.114 Y3.844 E9.25832
G1 X149.022 Y4.759 E9.26811
G1 X149.374 Y5.219 E9.27251
G1 X150.018 Y6.335 E9.28230
G1 X150.241 Y6.870 E9.28670
G1 X150.579 Y8.113 E9.29649
G1 X150.657 Y8.687 E9.30089
G1 X150.665 Y9.976 E9.31069
G1 X150.595 Y10.551 E9.31508
G1 X150.273 Y11.799 E9.32488
G1 X150.193 Y12.049 E9.32687
G1 X115.772 Y101.103 E10.05221
G1 X115.558 Y101.520 E10.05578
G1 X115.191 Y102.036 E10.06059
G1 X107.409 Y110.773 E10.14948
G1 X106.854 Y111.307 E10.15534
G1 X106.418 Y111.633 E10.15947
G1 X106.151 Y111.801 E10.16186
G1 X105.605 Y112.082 E10.16653
G1 X104.954 Y112.321 E10.17180
G1 X87.521 Y117.414 E10.30978
G1 X86.219 Y117.759 E10.32001
G1 X85.644 Y117.834 E10.32441
G1 X84.356 Y117.834 E10.33420
G1 X83.781 Y117.759 E10.33860
G1 X82.535 Y117.429 E10.34840
G1 X82.166 Y117.296 E10.35138
G1 X52.958 Y103.776 E10.59590
G1 X52.494 Y103.488 E10.60005
G1 X51.501 Y102.690 E10.60973
G1 X51.104 Y102.277 E10.61407
G1 X50.346 Y101.254 E10.62375
G1 X50.066 Y100.755 E10.62810
G1 X49.548 Y99.458 E10.63871
G1 X19.776 Y11.963 E11.34086
G1 X19.405 Y10.551 E11.35195
G1 X19.335 Y9.976 E11.35635
G1 X19.343 Y8.687 E11.36614
G1 X19.421 Y8.113 E11.37054
G1 X19.739 Y6.942 E11.37977
G1 E9.37977 F1920.00000
G92 E0
G1 X105.525 Y93.337 F7800.000
G1 E2.00000 F1920.00000
G1 X105.591 Y93.859 E2.00400 F1500.000
G1 X105.525 Y94.381 E2.00800
G1 X105.332 Y94.871 E2.01199
G1 X105.022 Y95.296 E2.01599
G1 X104.617 Y95.632 E2.01999
G1 X104.141 Y95.856 E2.02399
G1 X103.624 Y95.955 E2.02799
G1 X103.098 Y95.922 E2.03199
G1 X102.598 Y95.759 E2.03598
G1 X102.154 Y95.477 E2.03998
G1 X101.793 Y95.093 E2.04398
G1 X101.540 Y94.632 E2.04798
G1 X101.409 Y94.121 E2.05199
G1 X101.412 Y93.586 E2.05605
G1 X101.540 Y93.086 E2.05997
G1 X101.793 Y92.625 E2.06397
G1 X102.154 Y92.242 E2.06797
G1 X102.599 Y91.959 E2.07197
G1 X103.109 Y91.796 E2.07604
G1 X103.624 Y91.764 E2.07996 F1500.000
G1 X104.141 Y91.863 E2.08396
G1 X104.617 Y92.087 E2.08796
G1 X105.022 Y92.422 E2.09195
G1 X105.332 Y92.848 E2.09595
G1 X105.498 Y93.267 E2.09938
G1 X105.285 Y93.399 F7800.000
G4 P31
G1 X105.343 Y93.859 E2.10291 F1500.000
G4 P14
G1 X105.285 Y94.320 E2.10643
G1 X105.114 Y94.751 E2.10996
G1 X104.841 Y95.127 E2.11348
G1 X104.484 Y95.422 E2.11701
G1 X104.064 Y95.620 E2.12053
G1 X103.608 Y95.707 E2.12406
G1 X103.145 Y95.678 E2.12758
G1 X102.704 Y95.534 E2.13111
G1 X102.312 Y95.286 E2.13463
G1 X101.994 Y94.947 E2.13816
G1 X101.771 Y94.541 E2.14169
G1 X101.655 Y94.091 E2.14521
G1 X101.658 Y93.617 E2.14881
G1 X101.771 Y93.178 E2.15226
G1 X101.994 Y92.771 E2.15578
G1 X102.312 Y92.433 E2.15931
G1 X102.704 Y92.184 E2.16284
G1 X103.155 Y92.040 E2.16644
G1 X103.608 Y92.012 E2.16988 F1500.000
G1 X104.064 Y92.099 E2.17341
G1 X104.484 Y92.296 E2.17693
G1 X104.841 Y92.592 E2.18046
G1 X105.114 Y92.967 E2.18399
G1 X105.257 Y93.329 E2.18694
G1 X105.726 Y93.542 F7800.000
G1 X105.712 Y94.911 F7800.000
G1 X105.606 Y94.846 E2.18788 F1500.000
G4 P17
G1 X105.766 Y94.443 E2.19117
G1 X105.840 Y93.859 E2.19565
G1 X105.766 Y93.275 E2.20012
G1 X105.549 Y92.728 E2.20459
G1 X105.203 Y92.252 E2.20906
G1 X104.750 Y91.877 E2.21353
G1 X104.217 Y91.626 E2.21800
G1 X103.639 Y91.516 E2.22247
G1 X103.063 Y91.552 E2.22686
G1 X102.494 Y91.734 E2.23140
G1 X101.995 Y92.050 E2.23588
G1 X101.592 Y92.479 E2.24035
G1 X101.309 Y92.995 E2.24483
G1 X101.165 Y93.554 E2.24921
G1 X101.162 Y94.152 E2.25375
G1 X101.309 Y94.724 E2.25824
G1 X101.355 Y94.807 E2.25896
G4 P5
G1 X101.247 Y94.883 E2.25996
G1 X93.981 Y86.727 E2.34295
G1 X93.898 Y86.599 E2.34411
G1 X93.869 Y86.499 E2.34490
G1 X93.872 Y86.346 E2.34606
G1 X93.951 Y85.886 E2.34960
G1 X93.990 Y85.759 E2.35061
G1 X94.038 Y85.682 E2.35130
G1 X94.184 Y85.577 E2.35267
G1 X94.273 Y85.556 E2.35336
G1 X94.412 Y85.559 E2.35442
G1 X96.635 Y85.858 E2.37146
G1 X98.915 Y86.077 E2.38886
G1 X101.202 Y86.208 E2.40627
G1 X103.492 Y86.252 E2.42367
G1 X105.782 Y86.208 E2.44107
G1 X108.069 Y86.077 E2.45847
G1 X110.349 Y85.858 E2.47587
G1 X112.572 Y85.559 E2.49291
G1 X112.711 Y85.556 E2.49397
G1 X112.884 Y85.624 E2.49539
G1 X112.994 Y85.759 E2.49671
G1 X113.033 Y85.886 E2.49772
G1 X113.111 Y86.346 E2.50126
G1 X113.114 Y86.499 E2.50242
G1 X113.086 Y86.599 E2.50321
G1 X113.002 Y86.727 E2.50438
G1 X105.762 Y94.855 E2.58707
G1 X105.896 Y95.075 F7800.000
G4 P31
G1 X105.447 Y95.579 E2.59220 F1500.000
G1 X105.147 Y95.865 E2.59535
G1 X104.879 Y96.062 E2.59787
G1 X104.586 Y96.219 E2.60040
G1 X104.214 Y96.360 E2.60342
G1 X103.823 Y96.439 E2.60645
G1 X103.492 Y96.462 E2.60897
G1 X103.160 Y96.439 E2.61150
G1 X102.768 Y96.359 E2.61454
G1 X102.458 Y96.245 E2.61705
G1 X102.105 Y96.061 E2.62007
G1 X101.786 Y95.823 E2.62310
G1 X101.538 Y95.581 E2.62573
G1 X93.785 Y86.877 E2.71428
G1 X93.671 Y86.703 E2.71587
G1 X93.622 Y86.531 E2.71722
G1 X93.626 Y86.322 E2.71881
G1 X93.711 Y85.829 E2.72261
G1 X93.764 Y85.656 E2.72399
G1 X93.846 Y85.525 E2.72517
G1 X93.959 Y85.418 E2.72634
G1 X94.096 Y85.345 E2.72752
G1 X94.247 Y85.309 E2.72870
G1 X94.431 Y85.313 E2.73010
G1 X96.663 Y85.613 E2.74721
G1 X98.934 Y85.831 E2.76454
G1 X101.211 Y85.962 E2.78187
G1 X103.492 Y86.006 E2.79920
G1 X105.773 Y85.962 E2.81653
G1 X108.050 Y85.831 E2.83386
G1 X110.321 Y85.613 E2.85119
G1 X112.552 Y85.313 E2.86830
G1 X112.737 Y85.309 E2.86971
G1 X112.871 Y85.341 E2.87075
G1 X113.027 Y85.421 E2.87209 F1500.000
G1 X113.137 Y85.525 E2.87323
G1 X113.220 Y85.656 E2.87441
G1 X113.273 Y85.829 E2.87579
G1 X113.357 Y86.322 E2.87959
G1 X113.362 Y86.531 E2.88118
G1 X113.312 Y86.703 E2.88253
G1 X113.198 Y86.877 E2.88412
G1 X105.946 Y95.019 E2.96695
G1 X106.080 Y95.239 F7800.000
G4 P31
G1 X105.624 Y95.750 E2.97216 F1500.000
G1 X105.306 Y96.054 E2.97550
G1 X105.010 Y96.271 E2.97828
G1 X104.688 Y96.443 E2.98106
G1 X104.282 Y96.597 E2.98436
G1 X103.857 Y96.683 E2.98766
G1 X103.492 Y96.709 E2.99044
G1 X103.127 Y96.683 E2.99322
G1 X102.701 Y96.597 E2.99652
G1 X102.358 Y96.471 E2.99929
G1 X101.973 Y96.270 E3.00259
G1 X101.626 Y96.010 E3.00589
G1 X101.360 Y95.751 E3.00871
G1 X93.589 Y87.027 E3.09747
G1 X93.445 Y86.806 E3.09947
G1 X93.375 Y86.563 E3.10139
G1 X93.380 Y86.299 E3.10340
G1 X93.471 Y85.772 E3.10746
G1 X93.538 Y85.553 E3.10920
G1 X93.654 Y85.367 E3.11087
G1 X93.814 Y85.217 E3.11254
G1 X94.007 Y85.113 E3.11420
G1 X94.220 Y85.062 E3.11587
G1 X94.451 Y85.067 E3.11762
G1 X96.691 Y85.369 E3.13479
G1 X98.952 Y85.586 E3.15205
G1 X101.220 Y85.716 E3.16931
G1 X103.492 Y85.759 E3.18657
G1 X105.763 Y85.716 E3.20383
G1 X108.031 Y85.586 E3.22109
G1 X110.293 Y85.369 E3.23835
G1 X112.533 Y85.067 E3.25552
G1 X112.763 Y85.062 E3.25727
G1 X112.957 Y85.108 E3.25879
G1 X113.171 Y85.218 E3.26061 F1500.000
G1 X113.329 Y85.367 E3.26226
G1 X113.445 Y85.553 E3.26393
G1 X113.513 Y85.772 E3.26567
G1 X113.603 Y86.299 E3.26974
G1 X113.609 Y86.563 E3.27174
G1 X113.539 Y86.806 E3.27366
G1 X113.395 Y87.027 E3.27567
G1 X106.130 Y95.183 E3.35865
G1 X105.590 Y95.138 F7800.000
G1 X105.597 Y94.985 F7800.000
G4 P32
G1 X105.215 Y95.456 E3.36886 F1500.000
G1 X104.745 Y95.849 E3.37919
G1 X104.203 Y96.098 E3.38924
G1 X103.789 Y96.184 E3.39636
G1 X103.492 Y96.204 E3.40138
G1 X103.067 Y96.167 E3.40856
G1 X102.839 Y96.109 E3.41253
G1 X102.506 Y95.990 E3.41848
G1 X102.244 Y95.841 E3.42357
G1 X101.983 Y95.659 E3.42893
G1 X101.726 Y95.401 E3.43506
G1 X101.574 Y95.232 E3.43890
G1 X101.372 Y94.946 E3.44480
G1 X101.041 Y94.329 F7800.000
G1 X100.677 Y93.965 E3.44872 F1500.000
G1 X101.026 Y93.965 E3.45138
G4 P19
G1 X97.828 Y90.767 E3.48582
G1 E1.48582 F1920.00000
G92 E0
G1 X94.979 Y87.569 F7800.000
G1 E2.00000 F1920.00000
G1 X101.028 Y93.618 E2.06515 F1500.000
G1 X101.092 Y93.333 E2.06737
G1 X94.018 Y86.259 E2.14356
G1 X94.069 Y85.960 E2.14586
G1 X101.164 Y93.055 E2.22227
G1 X101.273 Y92.815 E2.22427
G1 X94.190 Y85.732 E2.30055
G1 X94.527 Y85.720 E2.30312
G1 X101.397 Y92.590 E2.37710
G1 X101.532 Y92.375 E2.37903
G1 X94.931 Y85.775 E2.45011
G1 X95.335 Y85.829 E2.45321
G1 X101.701 Y92.195 E2.52177
G1 X101.870 Y92.015 E2.52365
G1 X95.738 Y85.883 E2.58969
G1 X96.142 Y85.938 E2.59279
G1 X102.069 Y91.865 E2.65662
G1 X102.282 Y91.729 E2.65854
G1 X96.545 Y85.992 E2.72033
G1 X96.932 Y86.030 E2.72329
G1 X102.503 Y91.601 E2.78329
G1 X102.768 Y91.517 E2.78541
G1 X97.318 Y86.067 E2.84410
G1 X97.705 Y86.104 E2.84705
G1 X103.033 Y91.432 E2.90443
G1 X103.350 Y91.400 E2.90686
G1 X98.091 Y86.141 E2.96350
G1 X98.477 Y86.178 E2.96645
G1 X103.679 Y91.379 E3.02247
G1 X104.102 Y91.454 E3.02575
G1 X98.863 Y86.214 E3.08217
G1 X99.233 Y86.236 E3.08500
G1 X104.642 Y91.645 E3.14325
G1 X105.718 Y92.721 F7800.000
G1 X106.665 Y93.667 E3.15345 F1500.000
G1 X106.830 Y93.483 E3.15533
G1 X99.604 Y86.257 E3.23315
G1 X99.974 Y86.278 E3.23597
G1 X106.994 Y93.298 E3.31157
G1 X107.159 Y93.113 E3.31346
G1 X100.345 Y86.300 E3.38684
G1 X100.715 Y86.321 E3.38966
G1 X107.323 Y92.929 E3.46082
G1 X107.488 Y92.744 E3.46271
G1 X101.086 Y86.342 E3.53165
G1 X101.444 Y86.351 E3.53438
G1 X107.652 Y92.559 E3.60124
G1 X107.817 Y92.375 E3.60312
G1 X101.800 Y86.358 E3.66792
G1 X102.156 Y86.365 E3.67063
G1 X107.981 Y92.190 E3.73336
G1 X108.146 Y92.005 E3.73525
G1 X102.512 Y86.372 E3.79592
G1 X102.868 Y86.378 E3.79863
G1 X108.310 Y91.820 E3.85724
G1 X108.475 Y91.636 E3.85912
G1 X103.224 Y86.385 E3.91567
G1 X103.575 Y86.387 E3.91834
G1 X108.639 Y91.451 E3.97288
G1 X108.804 Y91.266 E3.97476
G1 X103.917 Y86.380 E4.02739
G1 X104.260 Y86.374 E4.02999
G1 X108.968 Y91.082 E4.08070
G1 X109.133 Y90.897 E4.08258
G1 X104.603 Y86.367 E4.13137
G1 X104.945 Y86.360 E4.13398
G1 X109.297 Y90.712 E4.18085
G1 X109.462 Y90.528 E4.18273
G1 X105.288 Y86.354 E4.22768
G1 X105.631 Y86.347 E4.23029
G1 X109.626 Y90.343 E4.27332
G1 X109.791 Y90.158 E4.27520
G1 X105.965 Y86.332 E4.31641
G1 X106.295 Y86.313 E4.31892
G1 X109.955 Y89.974 E4.35834
G1 X110.120 Y89.789 E4.36023
G1 X106.625 Y86.294 E4.39786
G1 X106.956 Y86.275 E4.40038
G1 X110.284 Y89.604 E4.43623
G1 X110.449 Y89.420 E4.43812
G1 X107.286 Y86.256 E4.47218
G1 X107.616 Y86.237 E4.47470
G1 X110.614 Y89.235 E4.50698
G1 X110.778 Y89.050 E4.50886
G1 X107.946 Y86.218 E4.53936
G1 X108.268 Y86.191 E4.54182
G1 X110.943 Y88.865 E4.57062
G1 X111.107 Y88.681 E4.57251
G1 X108.587 Y86.160 E4.59965
G1 X108.905 Y86.130 E4.60209
G1 X111.272 Y88.496 E4.62757
G1 X111.436 Y88.311 E4.62946
G1 X109.224 Y86.099 E4.65328
G1 X109.543 Y86.069 E4.65572
G1 X111.601 Y88.127 E4.67788
G1 X111.765 Y87.942 E4.67977
G1 X109.861 Y86.038 E4.70027
G1 X110.180 Y86.007 E4.70271
G1 X111.930 Y87.757 E4.72155
G1 X112.094 Y87.573 E4.72344
G1 X110.492 Y85.971 E4.74069
G1 X110.800 Y85.929 E4.74305
G1 X112.259 Y87.388 E4.75876
G1 X112.423 Y87.203 E4.76065
G1 X111.108 Y85.888 E4.77481
G1 X111.416 Y85.846 E4.77718
G1 X112.588 Y87.019 E4.78980
G1 X112.752 Y86.834 E4.79168
G1 X111.723 Y85.805 E4.80277
G1 X112.031 Y85.764 E4.80513
G1 X112.915 Y86.647 E4.81465
G1 X112.963 Y86.346 E4.81697
G1 X112.339 Y85.722 E4.82369
G1 X112.666 Y85.700 E4.82618
G1 X112.879 Y85.913 E4.82848
G1 E2.82848 F1920.00000
G92 E0
G4 P8
G1 X105.909 Y93.261 F7800.000
G1 E2.00000 F1920.00000
G1 X106.500 Y93.852 E2.00637 F1500.000
G1 X106.336 Y94.037 E2.00825
G1 X105.960 Y93.660 E2.01230
G4 P12
G1 X105.953 Y94.003 E2.01491
G1 X106.164 Y94.214 E2.01718
G1 E0.01718 F1920.00000
G92 E0
G4 P21
G1 X105.332 Y108.294 F7800.000
G1 E2.00000 F1920.00000
G1 X105.022 Y108.720 E2.00400 F1500.000
G1 X104.617 Y109.055 E2.00800
G1 X104.141 Y109.280 E2.01199
G1 X103.624 Y109.378 E2.01599
G1 X103.098 Y109.345 E2.01999
G1 X102.598 Y109.182 E2.02399
G1 X102.154 Y108.901 E2.02799
G1 X101.793 Y108.517 E2.03199
G1 X101.540 Y108.056 E2.03598
G1 X101.409 Y107.545 E2.03999
G1 X101.412 Y107.009 E2.04406
G1 X101.540 Y106.510 E2.04798
G1 X101.793 Y106.049 E2.05197
G1 X102.154 Y105.665 E2.05597
G1 X102.599 Y105.383 E2.05998
