; generated by Slic3r 1.2.9 on 2016-01-02 at 19:40:00

; external perimeters extrusion width = 0.50mm
; perimeters extrusion width = 0.50mm
; infill extrusion width = 0.50mm
; solid infill extrusion width = 0.50mm
; top infill extrusion width = 0.50mm

M107
M190 S70 ; set bed temperature
M104 S220 ; set temperature
G28 ; home all axes
M109 S220 ; wait for temperature to be reached
G21 ; set units to millimeters
G90 ; use absolute coordinates
M82 ; use absolute distances for extrusion
G92 E0
G1 Z0.350 F7800.000
G1 E-2.00000 F1920.00000
G92 E0
G1 X20.800 Y32.558 F7800.000
G1 E2.00000 F1920.00000
M204 S3000
G1 X21.960 Y31.876 E2.01841 F1800.000
G1 X23.144 Y31.372 E2.03601
G1 X24.021 Y31.087 E2.04863
G1 X81.492 Y17.881 E2.85556
G1 X83.060 Y17.632 E2.87729
G1 X83.570 Y17.582 E2.88430
G1 X84.744 Y17.525 E2.90038
G1 X85.403 Y17.532 E2.90940
G1 X86.430 Y17.582 E2.92348 F1800.000
G1 X86.940 Y17.632 E2.93049
G1 X88.508 Y17.881 E2.95221
G1 X145.979 Y31.087 E3.75914
G1 X146.856 Y31.372 E3.77177
G1 X148.040 Y31.876 E3.78936
G1 X149.200 Y32.558 E3.80778
G1 X150.215 Y33.346 E3.82537
G1 X151.163 Y34.301 E3.84378
G1 X151.944 Y35.323 E3.86138
G1 X152.616 Y36.488 E3.87979
G1 X153.111 Y37.676 E3.89739
G1 X153.464 Y38.974 E3.91580
G1 X153.639 Y40.248 E3.93340
G1 X153.650 Y41.593 E3.95181
G1 X153.495 Y42.870 E3.96941
G1 X153.303 Y43.772 E3.98203
G1 X136.004 Y100.146 E4.78896
G1 X135.435 Y101.629 E4.81069
G1 X135.224 Y102.095 E4.81770
G1 X134.687 Y103.141 E4.83378
G1 X134.431 Y103.585 E4.84079
G1 X133.794 Y104.572 E4.85688
G1 X133.495 Y104.989 E4.86389
G1 X132.496 Y106.223 E4.88561
G1 X92.324 Y149.391 E5.69254
G1 X91.638 Y150.008 E5.70517
G1 X90.610 Y150.781 E5.72276
G1 X89.440 Y151.445 E5.74118
G1 X88.249 Y151.930 E5.75877
G1 X86.948 Y152.273 E5.77718
G1 X85.673 Y152.438 E5.79478
G1 X84.327 Y152.438 E5.81319
G1 X83.052 Y152.273 E5.83079
G1 X81.751 Y151.930 E5.84920
G1 X80.560 Y151.445 E5.86680
G1 X79.390 Y150.781 E5.88521
G1 X78.362 Y150.008 E5.90281
G1 X77.676 Y149.391 E5.91543
G1 X37.504 Y106.223 E6.72236
G1 X36.505 Y104.989 E6.74409
G1 X36.206 Y104.572 E6.75110
G1 X35.569 Y103.585 E6.76718
G1 X35.313 Y103.141 E6.77419
G1 X34.776 Y102.095 E6.79028
G1 X34.565 Y101.629 E6.79729
G1 X33.996 Y100.146 E6.81901
G1 X16.697 Y43.772 E7.62594
G1 X16.505 Y42.870 E7.63857
G1 X16.350 Y41.593 E7.65616
G1 X16.361 Y40.248 E7.67458
G1 X16.536 Y38.974 E7.69217
G1 X16.889 Y37.676 E7.71058
G1 X17.384 Y36.488 E7.72818
G1 X18.056 Y35.323 E7.74659
G1 X18.837 Y34.301 E7.76419
G1 X19.785 Y33.346 E7.78260
G1 X20.741 Y32.604 E7.79917
G1 X21.074 Y32.910 F7800.000
G4 P29
G1 X22.135 Y32.286 E7.81601 F1800.000
G1 X23.318 Y31.783 E7.83361
G1 X24.121 Y31.522 E7.84516
G1 X81.592 Y18.316 E8.65209
G1 X83.125 Y18.074 E8.67333
G1 X83.592 Y18.028 E8.67974
G1 X84.766 Y17.970 E8.69583
G1 X85.381 Y17.978 E8.70425
G1 X86.408 Y18.028 E8.71832 F1800.000
G1 X86.875 Y18.074 E8.72474
G1 X88.408 Y18.316 E8.74598
G1 X145.879 Y31.522 E9.55291
G1 X146.682 Y31.783 E9.56446
G1 X147.865 Y32.286 E9.58205
G1 X148.926 Y32.910 E9.59889
G1 X149.941 Y33.699 E9.61649
G1 X150.808 Y34.572 E9.63333
G1 X151.589 Y35.594 E9.65093
G1 X152.204 Y36.660 E9.66777
G1 X152.699 Y37.847 E9.68537
G1 X153.022 Y39.035 E9.70221
G1 X153.197 Y40.309 E9.71981
G1 X153.207 Y41.539 E9.73665
G1 X153.051 Y42.816 E9.75424
G1 X152.876 Y43.641 E9.76579
G1 X135.578 Y100.016 E10.57272
G1 X135.020 Y101.465 E10.59396
G1 X134.827 Y101.891 E10.60038
G1 X134.290 Y102.937 E10.61646
G1 X134.055 Y103.343 E10.62287
G1 X133.419 Y104.331 E10.63896
G1 X133.146 Y104.712 E10.64537
G1 X132.169 Y105.919 E10.66661
G1 X91.997 Y149.087 E11.47354
G1 X91.370 Y149.651 E11.48509
G1 X90.342 Y150.424 E11.50269
G1 X89.272 Y151.031 E11.51953
G1 X88.081 Y151.516 E11.53713
G1 X86.891 Y151.830 E11.55397
G1 X85.615 Y151.996 E11.57156
G1 X84.385 Y151.996 E11.58840
G1 X83.109 Y151.830 E11.60600
G1 X81.919 Y151.516 E11.62284
G1 X80.728 Y151.031 E11.64044
G1 X79.658 Y150.424 E11.65728
G1 X78.630 Y149.651 E11.67488
G1 X78.003 Y149.087 E11.68643
G1 X37.831 Y105.919 E12.49335
G1 X36.854 Y104.712 E12.51460
G1 X36.581 Y104.331 E12.52101
G1 X35.945 Y103.343 E12.53709
G1 X35.710 Y102.937 E12.54351
G1 X35.173 Y101.891 E12.55959
G1 X34.980 Y101.465 E12.56600
G1 X34.422 Y100.016 E12.58725
G1 X17.124 Y43.641 E13.39418
G1 X16.949 Y42.816 E13.40572
G1 X16.793 Y41.539 E13.42332
G1 X16.803 Y40.309 E13.44016
G1 X16.978 Y39.035 E13.45776
G1 X17.301 Y37.847 E13.47460
G1 X17.796 Y36.660 E13.49220
G1 X18.411 Y35.594 E13.50904
G1 X19.192 Y34.573 E13.52664
G1 X20.059 Y33.699 E13.54348
G1 X21.015 Y32.956 E13.56005
G1 X21.348 Y33.263 F7800.000
G4 P29
G1 X22.310 Y32.697 E13.57532 F1800.000
G1 X23.493 Y32.193 E13.59291
G1 X24.221 Y31.957 E13.60339
G1 X81.692 Y18.751 E14.41031
G1 X83.191 Y18.515 E14.43108
G1 X83.614 Y18.474 E14.43689
G1 X84.788 Y18.416 E14.45297
G1 X85.359 Y18.423 E14.46080
G1 X86.386 Y18.474 E14.47487 F1800.000
G1 X86.809 Y18.515 E14.48069
G1 X88.308 Y18.751 E14.50145
G1 X145.779 Y31.957 E15.30838
G1 X146.507 Y32.193 E15.31885
G1 X147.690 Y32.697 E15.33644
G1 X148.652 Y33.263 E15.35172
G1 X149.668 Y34.051 E15.36931
G1 X150.454 Y34.843 E15.38458
G1 X151.234 Y35.865 E15.40218
G1 X151.792 Y36.832 E15.41745
G1 X152.287 Y38.019 E15.43505
G1 X152.580 Y39.096 E15.45032
G1 X152.755 Y40.370 E15.46791
G1 X152.764 Y41.485 E15.48318
G1 X152.608 Y42.762 E15.50078
G1 X152.449 Y43.510 E15.51125
G1 X135.151 Y99.885 E16.31818
G1 X134.605 Y101.300 E16.33894
G1 X134.430 Y101.688 E16.34476
G1 X133.893 Y102.733 E16.36084
G1 X133.680 Y103.101 E16.36666
G1 X133.044 Y104.089 E16.38274
G1 X132.796 Y104.434 E16.38855
G1 X131.843 Y105.615 E16.40932
G1 X91.670 Y148.783 E17.21624
G1 X91.102 Y149.295 E17.22672
G1 X90.074 Y150.067 E17.24431
G1 X89.103 Y150.618 E17.25958
G1 X87.912 Y151.103 E17.27718
G1 X86.833 Y151.388 E17.29245
G1 X85.558 Y151.553 E17.31005
G1 X84.442 Y151.553 E17.32532
G1 X83.167 Y151.388 E17.34291
G1 X82.088 Y151.103 E17.35818
G1 X80.897 Y150.618 E17.37578
G1 X79.926 Y150.067 E17.39105
G1 X78.898 Y149.295 E17.40865
G1 X78.330 Y148.783 E17.41912
G1 X38.157 Y105.615 E18.22605
G1 X37.204 Y104.434 E18.24681
G1 X36.956 Y104.089 E18.25263
G1 X36.320 Y103.101 E18.26871
G1 X36.107 Y102.733 E18.27452
G1 X35.570 Y101.688 E18.29061
G1 X35.395 Y101.300 E18.29642
G1 X34.849 Y99.885 E18.31718
G1 X17.551 Y43.510 E19.12411
G1 X17.392 Y42.762 E19.13458
G1 X17.236 Y41.485 E19.15218
G1 X17.245 Y40.370 E19.16745
G1 X17.420 Y39.096 E19.18505
G1 X17.713 Y38.019 E19.20032
G1 X18.208 Y36.832 E19.21791
G1 X18.766 Y35.865 E19.23318
G1 X19.546 Y34.844 E19.25078
G1 X20.332 Y34.051 E19.26605
G1 X21.289 Y33.309 E19.28262
G1 X21.622 Y33.615 F7800.000
G4 P29
G1 X22.485 Y33.108 E19.29632 F1800.000
G1 X23.668 Y32.604 E19.31392
G1 X24.321 Y32.392 E19.32331
G1 X81.792 Y19.186 E20.13024
G1 X83.256 Y18.957 E20.15052
G1 X83.635 Y18.920 E20.15574
G1 X84.809 Y18.862 E20.17182
G1 X85.337 Y18.869 E20.17905
G1 X86.365 Y18.920 E20.19312 F1800.000
G1 X86.744 Y18.957 E20.19834
G1 X88.208 Y19.186 E20.21862
G1 X145.679 Y32.392 E21.02555
G1 X146.332 Y32.604 E21.03494
G1 X147.515 Y33.108 E21.05254
G1 X148.378 Y33.615 E21.06624
G1 X149.394 Y34.404 E21.08383
G1 X150.099 Y35.115 E21.09753
G1 X150.880 Y36.136 E21.11513
G1 X151.380 Y37.003 E21.12883
G1 X151.875 Y38.190 E21.14643
G1 X152.138 Y39.156 E21.16013
G1 X152.313 Y40.430 E21.17772
G1 X152.321 Y41.431 E21.19142
G1 X152.165 Y42.708 E21.20902
G1 X152.023 Y43.379 E21.21841
G1 X134.724 Y99.754 E22.02534
G1 X134.190 Y101.136 E22.04562
G1 X134.033 Y101.484 E22.05084
G1 X133.496 Y102.529 E22.06692
G1 X133.305 Y102.859 E22.07214
G1 X132.668 Y103.847 E22.08822
G1 X132.446 Y104.157 E22.09344
G1 X131.516 Y105.311 E22.11372
G1 X91.344 Y148.479 E22.92065
G1 X90.833 Y148.938 E22.93004
G1 X89.806 Y149.711 E22.94764
G1 X88.935 Y150.205 E22.96134
G1 X87.744 Y150.690 E22.97894
G1 X86.776 Y150.945 E22.99263
G1 X85.501 Y151.110 E23.01023
G1 X84.499 Y151.110 E23.02393
G1 X83.224 Y150.945 E23.04153
G1 X82.256 Y150.690 E23.05523
G1 X81.065 Y150.205 E23.07282
G1 X80.194 Y149.711 E23.08652
G1 X79.167 Y148.938 E23.10412
G1 X78.656 Y148.479 E23.11351
G1 X38.484 Y105.311 E23.92044
G1 X37.554 Y104.157 E23.94072
G1 X37.332 Y103.847 E23.94594
G1 X36.695 Y102.859 E23.96202
G1 X36.504 Y102.529 E23.96724
G1 X35.967 Y101.484 E23.98332
G1 X35.810 Y101.136 E23.98854
G1 X35.276 Y99.754 E24.00882
G1 X17.977 Y43.379 E24.81575
G1 X17.835 Y42.708 E24.82514
G1 X17.679 Y41.431 E24.84274
G1 X17.687 Y40.430 E24.85644
G1 X17.862 Y39.156 E24.87404
G1 X18.125 Y38.190 E24.88774
G1 X18.620 Y37.003 E24.90533
G1 X19.120 Y36.136 E24.91903
G1 X19.901 Y35.115 E24.93663
G1 X20.606 Y34.404 E24.95033
G1 X21.563 Y33.661 E24.96690
G1 X21.896 Y33.968 F7800.000
G4 P29
G1 X22.660 Y33.518 E24.97903 F1800.000
G1 X23.843 Y33.015 E24.99663
G1 X24.421 Y32.827 E25.00494
G1 X81.892 Y19.621 E25.81187
G1 X83.321 Y19.398 E25.83167
G1 X83.657 Y19.365 E25.83629
G1 X84.831 Y19.308 E25.85237
G1 X85.315 Y19.315 E25.85900
G1 X86.679 Y19.398 E25.87769 F1800.000
G1 X88.108 Y19.621 E25.89749
G1 X145.579 Y32.827 E26.70441
G1 X146.157 Y33.015 E26.71273
G1 X147.340 Y33.519 E26.73033
G1 X148.104 Y33.968 E26.74246
G1 X149.120 Y34.756 E26.76005
G1 X149.744 Y35.386 E26.77218
G1 X150.525 Y36.407 E26.78978
G1 X150.968 Y37.175 E26.80191
G1 X151.463 Y38.362 E26.81950
G1 X151.695 Y39.217 E26.83163
G1 X151.871 Y40.491 E26.84923
G1 X151.878 Y41.378 E26.86136
G1 X151.722 Y42.654 E26.87895
G1 X151.596 Y43.249 E26.88727
G1 X134.297 Y99.623 E27.69420
G1 X133.775 Y100.972 E27.71400
G1 X133.636 Y101.280 E27.71862
G1 X133.099 Y102.325 E27.73470
G1 X132.930 Y102.617 E27.73932
G1 X132.293 Y103.605 E27.75540
G1 X132.097 Y103.879 E27.76002
G1 X131.189 Y105.006 E27.77982
G1 X91.017 Y148.174 E28.58675
G1 X90.565 Y148.581 E28.59507
G1 X89.537 Y149.354 E28.61266
G1 X88.766 Y149.791 E28.62479
G1 X87.575 Y150.276 E28.64239
G1 X86.718 Y150.502 E28.65452
G1 X85.443 Y150.668 E28.67211
G1 X84.557 Y150.668 E28.68424
G1 X83.282 Y150.502 E28.70184
G1 X82.425 Y150.276 E28.71397
G1 X81.234 Y149.791 E28.73156
G1 X80.463 Y149.354 E28.74369
G1 X79.435 Y148.581 E28.76129
G1 X78.983 Y148.174 E28.76961
G1 X38.811 Y105.006 E29.57653
G1 X37.903 Y103.879 E29.59633
G1 X37.707 Y103.605 E29.60095
G1 X37.070 Y102.617 E29.61704
G1 X36.901 Y102.325 E29.62165
G1 X36.364 Y101.280 E29.63774
G1 X36.225 Y100.972 E29.64236
G1 X35.703 Y99.623 E29.66216
G1 X18.404 Y43.249 E30.46908
G1 X18.278 Y42.654 E30.47740
G1 X18.122 Y41.377 E30.49500
G1 X18.129 Y40.491 E30.50713
G1 X18.305 Y39.217 E30.52472
G1 X18.537 Y38.362 E30.53685
G1 X19.032 Y37.175 E30.55445
G1 X19.475 Y36.407 E30.56658
G1 X20.256 Y35.386 E30.58417
G1 X20.880 Y34.756 E30.59630
G1 X21.836 Y34.014 E30.61287
G1 E28.61287 F1920.00000
G92 E0
G1 X83.828 Y139.760 F7800.000
G1 E2.00000 F1920.00000
G1 X84.484 Y139.547 E2.00944 F1800.000
G1 X85.107 Y139.508 E2.01797 F1800.000
G1 X85.836 Y139.626 E2.02808
G1 X86.474 Y139.927 E2.03774
G1 X87.006 Y140.366 E2.04718
G1 X87.411 Y140.924 E2.05662
G1 X87.665 Y141.566 E2.06606
G1 X87.752 Y142.250 E2.07549
G1 X87.665 Y142.934 E2.08493
G1 X87.411 Y143.576 E2.09437
G1 X87.006 Y144.134 E2.10381
G1 X86.474 Y144.573 E2.11325
G1 X85.910 Y144.839 E2.12178
G1 X85.189 Y144.997 E2.13189
G1 X84.484 Y144.953 E2.14155
G1 X83.828 Y144.740 E2.15099
G1 X83.246 Y144.370 E2.16043
G1 X82.774 Y143.867 E2.16987
G1 X82.473 Y143.321 E2.17840
G1 X82.270 Y142.611 E2.18851
G1 X82.270 Y141.905 E2.19816
G1 X82.441 Y141.237 E2.20760
G1 X82.774 Y140.633 E2.21704
G1 X83.246 Y140.130 E2.22648
G1 X83.765 Y139.800 E2.23489
G1 X84.020 Y140.167 F7800.000
G4 P29
G1 X84.569 Y139.989 E2.24279 F1800.000
G1 X85.085 Y139.956 E2.24987 F1800.000
G1 X85.702 Y140.057 E2.25843
G1 X86.233 Y140.306 E2.26646
G1 X86.678 Y140.674 E2.27435
G1 X87.017 Y141.141 E2.28225
G1 X87.230 Y141.678 E2.29015
G1 X87.302 Y142.250 E2.29804
G1 X87.230 Y142.822 E2.30594
G1 X87.017 Y143.359 E2.31383
G1 X86.678 Y143.826 E2.32173
G1 X86.233 Y144.194 E2.32962
G1 X85.766 Y144.414 E2.33670
G1 X85.154 Y144.548 E2.34526
G1 X84.569 Y144.511 E2.35329
G1 X84.020 Y144.333 E2.36119
G1 X83.533 Y144.024 E2.36908
G1 X83.138 Y143.603 E2.37698
G1 X82.889 Y143.150 E2.38406
G1 X82.716 Y142.548 E2.39262
G1 X82.716 Y141.962 E2.40065
G1 X82.860 Y141.403 E2.40855
G1 X83.138 Y140.897 E2.41644
G1 X83.533 Y140.476 E2.42434
G1 X83.957 Y140.207 E2.43121
G1 X84.211 Y140.574 F7800.000
G4 P29
G1 X84.653 Y140.431 E2.43756 F1800.000
G1 X85.063 Y140.405 E2.44318 F1800.000
G4 P4
G1 X85.569 Y140.487 E2.45020
G1 X85.992 Y140.686 E2.45660
G1 X86.350 Y140.982 E2.46295
G1 X86.623 Y141.358 E2.46930
G1 X86.794 Y141.789 E2.47565
G1 X86.852 Y142.250 E2.48201
G1 X86.794 Y142.711 E2.48836
G1 X86.623 Y143.142 E2.49471
G1 X86.350 Y143.518 E2.50106
G1 X85.992 Y143.814 E2.50742
G1 X85.621 Y143.988 E2.51304
G1 X85.120 Y144.099 E2.52006
G1 X84.653 Y144.069 E2.52646
G1 X84.211 Y143.926 E2.53281
G1 X83.820 Y143.677 E2.53916
G1 X83.502 Y143.339 E2.54551
G1 X83.304 Y142.979 E2.55113
G1 X83.163 Y142.486 E2.55815
G1 X83.163 Y142.018 E2.56455
G1 X83.278 Y141.568 E2.57090
G1 X83.502 Y141.161 E2.57726
G1 X83.820 Y140.823 E2.58361
G1 X84.148 Y140.614 E2.58894
G1 X84.270 Y140.114 F7800.000
G1 E0.58894 F1920.00000
G92 E0
G1 X114.757 Y96.425 F7800.000
G1 E2.00000 F1920.00000
G1 X118.649 Y89.682 E2.10654 F1800.000
G1 X125.392 Y93.575 E2.21307
G1 X121.499 Y100.318 E2.31961
G1 X114.821 Y96.462 E2.42512
G1 X115.366 Y96.261 F7800.000
G1 X118.813 Y90.292 E2.51943 F1800.000
G1 X124.782 Y93.739 E2.61375
G1 X121.335 Y99.708 E2.70807
G1 X115.431 Y96.299 E2.80137
G1 X115.976 Y96.098 F7800.000
G1 X118.976 Y90.902 E2.88347 F1800.000
G1 X124.172 Y93.902 E2.96558
G1 X121.172 Y99.098 E3.04768
G1 X116.041 Y96.136 E3.12876
G1 X115.543 Y95.848 F7800.000
G1 X110.363 Y100.543 F7800.000
G1 X108.304 Y102.377 E3.16650 F1800.000
G1 X106.781 Y103.593 E3.19316
G1 X105.196 Y104.724 E3.21981
G1 X103.552 Y105.769 E3.24647
G1 X101.854 Y106.723 E3.27312
G1 X100.107 Y107.585 E3.29978
G1 X98.316 Y108.351 E3.32643
G1 X96.486 Y109.019 E3.35309
G1 X94.623 Y109.588 E3.37974
G1 X92.732 Y110.056 E3.40640
G1 X90.819 Y110.422 E3.43305
G1 X88.889 Y110.683 E3.45971
G1 X86.947 Y110.841 E3.48636
G1 X84.997 Y110.893 E3.51306
G1 X82.814 Y110.821 E3.54294
G1 X81.111 Y110.683 E3.56632
G1 X79.181 Y110.422 E3.59298
G1 X77.268 Y110.056 E3.61963
G1 X75.377 Y109.588 E3.64629
G1 X73.514 Y109.019 E3.67294
G1 X71.684 Y108.351 E3.69960
G1 X69.893 Y107.585 E3.72625
G1 X68.146 Y106.723 E3.75291
G1 X66.448 Y105.769 E3.77956
G1 X64.804 Y104.724 E3.80622
G1 X63.413 Y103.732 E3.82960
G1 X61.699 Y102.380 E3.85948
G1 X59.637 Y100.543 E3.89727
G1 X60.456 Y98.737 E3.92441
G1 X60.804 Y97.709 E3.93925
G1 X61.047 Y96.652 E3.95409
G1 X61.183 Y95.576 E3.96894
G1 X61.212 Y94.492 E3.98378
G1 X61.132 Y93.410 E3.99862
G1 X60.944 Y92.342 E4.01347
G1 X60.651 Y91.297 E4.02831
G1 X60.255 Y90.287 E4.04315
G1 X59.760 Y89.322 E4.05800
G1 X59.172 Y88.411 E4.07284
G1 X58.495 Y87.563 E4.08768
G1 X57.737 Y86.787 E4.10253
G1 X56.906 Y86.090 E4.11737
G1 X56.009 Y85.480 E4.13221
G1 X55.056 Y84.963 E4.14706
G1 X54.056 Y84.543 E4.16190
G1 X53.019 Y84.225 E4.17674
G1 X51.955 Y84.012 E4.19159
G1 X49.981 Y83.819 E4.21872
G1 X49.422 Y81.118 E4.25647
G1 X49.131 Y79.192 E4.28312
G1 X48.944 Y77.253 E4.30978
G1 X48.861 Y75.307 E4.33643
G1 X48.881 Y73.598 E4.35982
G1 X49.011 Y71.419 E4.38969
G1 X49.243 Y69.481 E4.41639
G1 X49.579 Y67.563 E4.44305
G1 X50.017 Y65.665 E4.46970
G1 X50.558 Y63.793 E4.49636
G1 X51.198 Y61.954 E4.52302
G1 X51.936 Y60.151 E4.54967
G1 X52.771 Y58.391 E4.57633
G1 X53.699 Y56.678 E4.60298
G1 X54.718 Y55.018 E4.62964
G1 X55.825 Y53.416 E4.65629
G1 X57.017 Y51.875 E4.68295
G1 X58.290 Y50.400 E4.70960
G1 X59.641 Y48.997 E4.73626
G1 X61.065 Y47.668 E4.76291
G1 X62.559 Y46.418 E4.78957
G1 X64.118 Y45.250 E4.81622
G1 X65.737 Y44.168 E4.84288
G1 X67.413 Y43.174 E4.86953
G1 X69.139 Y42.273 E4.89619
G1 X70.912 Y41.466 E4.92284
G1 X72.726 Y40.755 E4.94950
G1 X75.345 Y39.888 E4.98724
G1 X76.499 Y41.501 E5.01438
G1 X77.215 Y42.316 E5.02922
G1 X78.009 Y43.055 E5.04406
G1 X78.872 Y43.711 E5.05891
G1 X79.797 Y44.278 E5.07375
G1 X80.774 Y44.750 E5.08859
G1 X81.793 Y45.121 E5.10344
G1 X82.844 Y45.390 E5.11828
G1 X83.917 Y45.552 E5.13312
