; generated by Slic3r 1.2.9 on 2016-01-07 at 00:47:47

; external perimeters extrusion width = 0.50mm
; perimeters extrusion width = 0.50mm
; infill extrusion width = 0.50mm
; solid infill extrusion width = 0.50mm
; top infill extrusion width = 0.50mm

M107
M190 S60 ; set bed temperature
M104 S210 ; set temperature
G28 ; home all axes
M109 S210 ; wait for temperature to be reached
G21 ; set units to millimeters
G90 ; use absolute coordinates
M82 ; use absolute distances for extrusion
G92 E0
G1 Z0.350 F7800.000
G1 E-2.00000 F1920.00000
G92 E0
G1 X44.659 Y48.878 F7800.000
G1 E2.00000 F1920.00000
M204 S3000
G1 X53.320 Y43.878 E2.07597 F1500.000
G1 X54.689 Y43.511 E2.08674
G1 X115.311 Y43.511 E2.54730
G1 X116.680 Y43.878 E2.55808
G1 X125.341 Y48.878 E2.63405 F1500.000
G1 X126.368 Y49.925 E2.64519
G1 X126.708 Y51.351 E2.65633
G1 X126.338 Y52.629 E2.66644
G1 X125.198 Y54.500 E2.68309
G1 X123.843 Y56.502 E2.70145
G1 X122.539 Y58.243 E2.71797
G1 X121.031 Y60.066 E2.73595
G1 X119.572 Y61.671 E2.75243
G1 X117.970 Y63.274 E2.76965
G1 X116.287 Y64.807 E2.78694
G1 X114.453 Y66.320 E2.80501
G1 X112.685 Y67.642 E2.82178
G1 X110.747 Y68.950 E2.83954
G1 X108.873 Y70.091 E2.85621
G1 X106.940 Y71.148 E2.87294
G1 X104.897 Y72.144 E2.89021
G1 X102.741 Y73.070 E2.90804
G1 X100.604 Y73.867 E2.92536
G1 X98.432 Y74.560 E2.94269
G1 X96.228 Y75.150 E2.96002
G1 X94.000 Y75.633 E2.97734
G1 X91.751 Y76.009 E2.99467
G1 X89.486 Y76.277 E3.01199
G1 X87.337 Y76.431 E3.02836
G1 X84.935 Y76.488 E3.04662
G1 X82.789 Y76.437 E3.06292
G1 X80.514 Y76.277 E3.08025
G1 X78.250 Y76.009 E3.09757
G1 X76.042 Y75.640 E3.11458
G1 X73.678 Y75.126 E3.13296
G1 X71.568 Y74.560 E3.14955
G1 X69.396 Y73.867 E3.16688
G1 X67.259 Y73.070 E3.18420
G1 X65.235 Y72.205 E3.20092
G1 X63.060 Y71.148 E3.21930
G1 X61.128 Y70.091 E3.23603
G1 X59.210 Y68.923 E3.25309
G1 X57.317 Y67.643 E3.27045
G1 X55.483 Y66.270 E3.28786
G1 X53.715 Y64.809 E3.30528
G1 X52.031 Y63.276 E3.32258
G1 X50.429 Y61.672 E3.33981
G1 X48.907 Y59.995 E3.35701
G1 X47.461 Y58.243 E3.37427
G1 X46.157 Y56.502 E3.39079
G1 X44.802 Y54.500 E3.40916
G1 X43.662 Y52.629 E3.42581
G1 X43.290 Y51.210 E3.43695
G1 X43.703 Y49.803 E3.44809
G1 X44.605 Y48.930 E3.45763
G1 X44.783 Y49.091 F7800.000
G4 P31
G1 X53.443 Y44.091 E3.53360 F1500.000
G1 X54.689 Y43.757 E3.54340
G1 X115.311 Y43.757 E4.00396
G1 X116.557 Y44.091 E4.01376
G1 X125.217 Y49.091 E4.08974 F1500.000
G1 X126.184 Y50.102 E4.10036
G1 X126.454 Y51.473 E4.11098
G1 X126.125 Y52.505 E4.11921
G1 X124.988 Y54.371 E4.13580
G1 X123.715 Y56.257 E4.15310
G1 X122.290 Y58.160 E4.17116
G1 X120.906 Y59.836 E4.18767
G1 X119.423 Y61.469 E4.20443
G1 X117.798 Y63.099 E4.22191
G1 X116.123 Y64.623 E4.23912
G1 X114.365 Y66.076 E4.25644
G1 X112.543 Y67.440 E4.27374
G1 X110.661 Y68.713 E4.29100
G1 X108.750 Y69.878 E4.30800
G1 X106.761 Y70.964 E4.32522
G1 X104.735 Y71.948 E4.34233
G1 X102.650 Y72.841 E4.35956
G1 X100.525 Y73.633 E4.37679
G1 X98.365 Y74.323 E4.39402
G1 X96.173 Y74.910 E4.41126
G1 X93.957 Y75.390 E4.42849
G1 X91.720 Y75.765 E4.44572
G1 X89.468 Y76.032 E4.46295
G1 X87.320 Y76.185 E4.47931
G1 X84.941 Y76.242 E4.49739
G1 X82.795 Y76.191 E4.51369
G1 X80.532 Y76.032 E4.53092
G1 X78.281 Y75.765 E4.54815
G1 X76.082 Y75.397 E4.56508
G1 X73.742 Y74.888 E4.58328
G1 X71.636 Y74.323 E4.59985
G1 X69.475 Y73.633 E4.61708
G1 X67.350 Y72.841 E4.63431
G1 X65.332 Y71.978 E4.65098
G1 X63.178 Y70.931 E4.66918
G1 X61.251 Y69.878 E4.68586
G1 X59.341 Y68.715 E4.70285
G1 X57.459 Y67.441 E4.72012
G1 X55.636 Y66.077 E4.73741
G1 X53.879 Y64.625 E4.75474
G1 X52.203 Y63.100 E4.77195
G1 X50.609 Y61.504 E4.78908
G1 X49.095 Y59.836 E4.80620
G1 X47.656 Y58.092 E4.82337
G1 X46.354 Y56.354 E4.83987
G1 X45.012 Y54.371 E4.85807
G1 X43.875 Y52.505 E4.87467
G1 X43.538 Y51.148 E4.88529
G1 X43.985 Y49.823 E4.89591
G1 X44.727 Y49.142 E4.90356
G1 X44.906 Y49.305 F7800.000
G4 P31
G1 X53.566 Y44.305 E4.97954 F1500.000
G1 X54.689 Y44.004 E4.98837
G1 X115.311 Y44.004 E5.44893
G1 X116.434 Y44.305 E5.45776
G1 X125.094 Y49.305 E5.53374 F1500.000
G1 X125.996 Y50.277 E5.54381
G1 X126.192 Y51.587 E5.55388
G1 X125.912 Y52.381 E5.56027
G1 X124.795 Y54.215 E5.57658
G1 X123.511 Y56.119 E5.59403
G1 X122.148 Y57.942 E5.61132
G1 X120.718 Y59.677 E5.62840
G1 X119.224 Y61.322 E5.64529
G1 X117.625 Y62.923 E5.66248
G1 X115.959 Y64.439 E5.67959
G1 X114.212 Y65.883 E5.69682
G1 X112.401 Y67.239 E5.71400
G1 X110.529 Y68.505 E5.73117
G1 X108.627 Y69.664 E5.74809
G1 X106.647 Y70.745 E5.76523
G1 X104.633 Y71.724 E5.78224
G1 X102.559 Y72.612 E5.79938
G1 X100.446 Y73.400 E5.81651
G1 X98.297 Y74.086 E5.83365
G1 X96.118 Y74.669 E5.85079
G1 X93.913 Y75.148 E5.86793
G1 X91.689 Y75.520 E5.88506
G1 X89.449 Y75.786 E5.90220
G1 X87.302 Y75.940 E5.91855
G1 X84.947 Y75.996 E5.93645
G1 X82.802 Y75.945 E5.95275
G1 X80.551 Y75.786 E5.96989
G1 X78.311 Y75.520 E5.98703
G1 X76.123 Y75.154 E6.00388
G1 X73.805 Y74.650 E6.02190
G1 X71.703 Y74.087 E6.03844
G1 X69.554 Y73.400 E6.05558
G1 X67.441 Y72.612 E6.07272
G1 X65.429 Y71.752 E6.08933
G1 X63.296 Y70.715 E6.10736
G1 X61.374 Y69.665 E6.12400
G1 X59.483 Y68.513 E6.14082
G1 X57.600 Y67.240 E6.15808
G1 X55.790 Y65.884 E6.17527
G1 X54.042 Y64.441 E6.19249
G1 X52.438 Y62.983 E6.20895
G1 X50.759 Y61.303 E6.22700
G1 X49.282 Y59.677 E6.24369
G1 X47.832 Y57.917 E6.26101
G1 X46.489 Y56.119 E6.27806
G1 X45.273 Y54.322 E6.29455
G1 X44.088 Y52.381 E6.31183
G1 X43.788 Y51.090 E6.32190
G1 X44.269 Y49.854 E6.33197
G1 X44.849 Y49.354 E6.33779
G1 E4.33779 F1920.00000
G92 E0
G1 X115.531 Y47.119 F7800.000
G1 E2.00000 F1920.00000
G1 X123.080 Y51.478 E2.06622 F1500.000
G1 X122.326 Y52.715 E2.07723
G1 X121.126 Y54.488 E2.09349
G1 X119.862 Y56.176 E2.10951
G1 X118.519 Y57.803 E2.12554
G1 X117.113 Y59.349 E2.14142
G1 X115.607 Y60.855 E2.15760
G1 X114.045 Y62.275 E2.17364
G1 X112.414 Y63.622 E2.18971
G1 X110.736 Y64.878 E2.20563
G1 X108.984 Y66.064 E2.22171
G1 X107.184 Y67.161 E2.23773
G1 X105.319 Y68.179 E2.25386
G1 X103.434 Y69.095 E2.26979
G1 X101.492 Y69.927 E2.28584
G1 X99.513 Y70.666 E2.30188
G1 X97.502 Y71.309 E2.31793
G1 X95.446 Y71.859 E2.33409
G1 X93.398 Y72.305 E2.35002
G1 X91.315 Y72.655 E2.36606
G1 X89.218 Y72.906 E2.38211
G1 X87.111 Y73.057 E2.39816
G1 X85.000 Y73.107 E2.41420
G1 X82.904 Y73.057 E2.43013
G1 X80.782 Y72.906 E2.44629
G1 X78.685 Y72.655 E2.46234
G1 X76.602 Y72.305 E2.47838
G1 X74.554 Y71.859 E2.49431
G1 X72.498 Y71.309 E2.51048
G1 X70.487 Y70.666 E2.52652
G1 X68.508 Y69.927 E2.54257
G1 X66.581 Y69.102 E2.55849
G1 X64.667 Y68.172 E2.57466
G1 X62.817 Y67.161 E2.59068
G1 X61.026 Y66.070 E2.60660
G1 X59.264 Y64.878 E2.62277
G1 X57.586 Y63.622 E2.63869
G1 X55.956 Y62.276 E2.65476
G1 X54.393 Y60.855 E2.67080
G1 X52.887 Y59.349 E2.68699
G1 X51.481 Y57.803 E2.70286
G1 X50.138 Y56.176 E2.71889
G1 X48.874 Y54.488 E2.73491
G1 X47.674 Y52.715 E2.75117
G1 X46.920 Y51.478 E2.76218
G1 X54.469 Y47.119 E2.82840
G1 X55.154 Y48.234 E2.83834
G1 X56.281 Y49.860 E2.85338
G1 X57.498 Y51.422 E2.86842
G1 X58.765 Y52.877 E2.88307
G1 X60.145 Y54.297 E2.89811
G1 X61.615 Y55.648 E2.91329
G1 X63.104 Y56.874 E2.92794
G1 X64.658 Y58.017 E2.94260
G1 X66.329 Y59.111 E2.95777
G1 X68.059 Y60.109 E2.97294
G1 X69.780 Y60.980 E2.98760
G1 X71.547 Y61.755 E3.00226
G1 X73.416 Y62.458 E3.01743
G1 X75.323 Y63.054 E3.03260
G1 X77.193 Y63.527 E3.04726
G1 X79.153 Y63.910 E3.06243
G1 X81.064 Y64.175 E3.07709
G1 X82.986 Y64.334 E3.09174
G1 X84.982 Y64.393 E3.10691
G1 X86.979 Y64.338 E3.12209
G1 X88.902 Y64.178 E3.13675
G1 X90.880 Y63.904 E3.15192
G1 X92.773 Y63.535 E3.16658
G1 X94.709 Y63.045 E3.18175
G1 X96.551 Y62.469 E3.19641
G1 X98.421 Y61.770 E3.21158
G1 X100.188 Y60.994 E3.22623
G1 X101.970 Y60.094 E3.24141
G1 X103.641 Y59.129 E3.25606
G1 X105.314 Y58.038 E3.27124
G1 X106.922 Y56.853 E3.28641
G1 X108.411 Y55.627 E3.30107
G1 X109.830 Y54.320 E3.31572
G1 X111.224 Y52.890 E3.33089
G1 X112.534 Y51.383 E3.34607
G1 X113.719 Y49.860 E3.36072
G1 X114.846 Y48.234 E3.37576
G1 X115.492 Y47.183 E3.38513
G1 X115.447 Y46.786 F7800.000
G4 P30
G1 X123.421 Y51.390 E3.45509 F1500.000
G1 X122.533 Y52.849 E3.46806
G1 X121.327 Y54.631 E3.48440
G1 X120.056 Y56.328 E3.50052
G1 X118.705 Y57.964 E3.51664
G1 X117.292 Y59.519 E3.53260
G1 X115.777 Y61.034 E3.54887
G1 X114.206 Y62.462 E3.56500
G1 X112.566 Y63.815 E3.58116
G1 X110.879 Y65.078 E3.59717
G1 X109.117 Y66.271 E3.61333
G1 X107.307 Y67.375 E3.62944
G1 X105.432 Y68.398 E3.64567
G1 X103.536 Y69.320 E3.66168
G1 X101.584 Y70.156 E3.67782
G1 X99.594 Y70.898 E3.69395
G1 X97.571 Y71.545 E3.71009
G1 X95.505 Y72.099 E3.72634
G1 X93.445 Y72.547 E3.74236
G1 X91.350 Y72.899 E3.75849
G1 X89.242 Y73.151 E3.77463
G1 X87.123 Y73.303 E3.79076
G1 X85.000 Y73.354 E3.80690
G1 X82.892 Y73.303 E3.82291
G1 X80.758 Y73.151 E3.83917
G1 X78.650 Y72.899 E3.85530
G1 X76.555 Y72.547 E3.87144
G1 X74.495 Y72.099 E3.88745
G1 X72.429 Y71.545 E3.90371
G1 X70.406 Y70.898 E3.91984
G1 X68.416 Y70.156 E3.93598
G1 X66.478 Y69.326 E3.95199
G1 X64.554 Y68.391 E3.96825
G1 X62.693 Y67.375 E3.98435
G1 X60.893 Y66.278 E4.00037
G1 X59.121 Y65.078 E4.01663
G1 X57.434 Y63.815 E4.03264
G1 X55.794 Y62.462 E4.04879
G1 X54.223 Y61.034 E4.06492
G1 X52.708 Y59.519 E4.08120
G1 X51.295 Y57.964 E4.09716
G1 X49.944 Y56.328 E4.11328
G1 X48.673 Y54.631 E4.12939
G1 X47.467 Y52.849 E4.14574
G1 X46.578 Y51.390 E4.15871
G1 X54.553 Y46.786 E4.22867
G1 X55.360 Y48.099 E4.24038
G1 X56.480 Y49.714 E4.25531
G1 X57.688 Y51.265 E4.27024
G1 X58.946 Y52.710 E4.28480
G1 X60.316 Y54.120 E4.29974
G1 X61.777 Y55.462 E4.31480
G1 X63.255 Y56.680 E4.32936
G1 X64.799 Y57.814 E4.34391
G1 X66.458 Y58.901 E4.35898
G1 X68.176 Y59.892 E4.37405
G1 X69.886 Y60.757 E4.38860
G1 X71.640 Y61.527 E4.40316
G1 X73.496 Y62.225 E4.41823
G1 X75.390 Y62.816 E4.43330
G1 X77.247 Y63.287 E4.44785
G1 X79.193 Y63.667 E4.46292
G1 X81.091 Y63.930 E4.47747
G1 X83.000 Y64.088 E4.49203
G1 X84.982 Y64.146 E4.50709
G1 X86.965 Y64.092 E4.52216
G1 X88.875 Y63.934 E4.53672
G1 X90.839 Y63.661 E4.55179
G1 X92.719 Y63.294 E4.56634
G1 X94.642 Y62.808 E4.58141
G1 X96.471 Y62.236 E4.59596
G1 X98.328 Y61.541 E4.61103
G1 X100.083 Y60.772 E4.62559
G1 X101.853 Y59.877 E4.64065
G1 X103.512 Y58.919 E4.65521
G1 X105.173 Y57.835 E4.67028
G1 X106.770 Y56.659 E4.68535
G1 X108.249 Y55.441 E4.69990
G1 X109.658 Y54.143 E4.71446
G1 X111.043 Y52.723 E4.72952
G1 X112.344 Y51.226 E4.74459
G1 X113.520 Y49.714 E4.75915
G1 X114.640 Y48.099 E4.77408
G1 X115.407 Y46.850 E4.78522
G1 X115.362 Y46.453 F7800.000
G4 P30
G1 X123.763 Y51.303 E4.85891 F1500.000
G1 X122.740 Y52.982 E4.87385
G1 X121.528 Y54.773 E4.89028
G1 X120.250 Y56.481 E4.90648
G1 X118.891 Y58.125 E4.92269
G1 X117.470 Y59.689 E4.93874
G1 X115.947 Y61.212 E4.95510
G1 X114.367 Y62.648 E4.97133
G1 X112.718 Y64.009 E4.98757
G1 X111.022 Y65.279 E5.00367
G1 X109.251 Y66.478 E5.01992
G1 X107.430 Y67.588 E5.03612
G1 X105.545 Y68.617 E5.05244
G1 X103.638 Y69.544 E5.06854
G1 X101.675 Y70.385 E5.08476
G1 X99.675 Y71.131 E5.10099
G1 X97.641 Y71.782 E5.11721
G1 X95.563 Y72.338 E5.13356
G1 X93.491 Y72.789 E5.14966
G1 X91.385 Y73.143 E5.16588
G1 X89.265 Y73.397 E5.18211
G1 X87.135 Y73.549 E5.19833
G1 X85.000 Y73.600 E5.21456
G1 X82.881 Y73.550 E5.23066
G1 X80.735 Y73.397 E5.24700
G1 X78.615 Y73.143 E5.26323
G1 X76.509 Y72.789 E5.27945
G1 X74.437 Y72.338 E5.29556
G1 X72.359 Y71.782 E5.31190
G1 X70.325 Y71.131 E5.32812
G1 X68.325 Y70.385 E5.34435
G1 X66.376 Y69.550 E5.36045
G1 X64.441 Y68.610 E5.37680
G1 X62.570 Y67.588 E5.39299
G1 X60.760 Y66.485 E5.40910
G1 X58.978 Y65.279 E5.42544
G1 X57.282 Y64.009 E5.44154
G1 X55.633 Y62.648 E5.45779
G1 X54.053 Y61.212 E5.47401
G1 X52.530 Y59.689 E5.49037
G1 X51.109 Y58.125 E5.50642
G1 X49.750 Y56.481 E5.52263
G1 X48.472 Y54.773 E5.53883
G1 X47.260 Y52.982 E5.55527
G1 X46.237 Y51.303 E5.57020
G1 X54.638 Y46.453 E5.64390
G1 X55.566 Y47.964 E5.65738
G1 X56.678 Y49.568 E5.67220
G1 X57.878 Y51.109 E5.68704
G1 X59.127 Y52.543 E5.70149
G1 X60.488 Y53.943 E5.71632
G1 X61.938 Y55.276 E5.73129
G1 X63.407 Y56.485 E5.74574
G1 X64.939 Y57.612 E5.76019
G1 X66.587 Y58.691 E5.77515
G1 X68.294 Y59.675 E5.79012
G1 X69.991 Y60.534 E5.80457
G1 X71.733 Y61.298 E5.81902
G1 X73.576 Y61.992 E5.83399
G1 X75.457 Y62.579 E5.84895
G1 X77.301 Y63.046 E5.86340
G1 X79.234 Y63.424 E5.87837
G1 X81.118 Y63.685 E5.89282
G1 X83.014 Y63.842 E5.90727
G1 X84.983 Y63.900 E5.92223
G1 X86.952 Y63.846 E5.93720
G1 X88.848 Y63.689 E5.95165
G1 X90.799 Y63.418 E5.96662
G1 X92.666 Y63.054 E5.98107
G1 X94.575 Y62.571 E5.99603
G1 X96.391 Y62.003 E6.01049
G1 X98.236 Y61.313 E6.02545
G1 X99.978 Y60.549 E6.03990
G1 X101.736 Y59.660 E6.05487
G1 X103.383 Y58.709 E6.06932
G1 X105.033 Y57.633 E6.08428
G1 X106.619 Y56.464 E6.09925
G1 X108.087 Y55.255 E6.11370
G1 X109.487 Y53.967 E6.12815
G1 X110.861 Y52.556 E6.14312
G1 X112.153 Y51.069 E6.15808
G1 X113.322 Y49.568 E6.17253
G1 X114.433 Y47.964 E6.18736
G1 X115.323 Y46.517 E6.20027
G1 X115.608 Y46.888 F7800.000
G1 X116.083 Y47.634 F7800.000
G1 X121.773 Y53.324 E6.26145 F1500.000
G1 X121.632 Y53.532 E6.26336
G1 X115.498 Y47.398 E6.32932
G1 X115.365 Y47.614 E6.33124
G1 X121.491 Y53.740 E6.39712
G1 X121.351 Y53.948 E6.39903
G1 X115.232 Y47.830 E6.46481
G1 X115.100 Y48.046 E6.46674
G1 X121.210 Y54.156 E6.53244
G1 X121.069 Y54.364 E6.53435
G1 X114.967 Y48.262 E6.59997
G1 X114.825 Y48.469 E6.60187
G1 X120.923 Y54.566 E6.66744
G1 X120.773 Y54.765 E6.66933
G1 X114.683 Y48.675 E6.73482
G1 X114.540 Y48.881 E6.73673
G1 X120.624 Y54.965 E6.80215
G1 X120.475 Y55.164 E6.80404
G1 X114.397 Y49.087 E6.86939
G1 X114.254 Y49.293 E6.87130
G1 X120.325 Y55.364 E6.93658
G1 X120.176 Y55.563 E6.93847
G1 X114.112 Y49.498 E7.00368
G1 X113.969 Y49.704 E7.00558
G1 X120.027 Y55.762 E7.07072
G1 X119.877 Y55.962 E7.07262
G1 X113.826 Y49.910 E7.13768
G1 X113.674 Y50.107 E7.13957
G1 X119.726 Y56.159 E7.20465
G1 X119.568 Y56.350 E7.20653
G1 X113.521 Y50.303 E7.27155
G1 X113.369 Y50.499 E7.27344
G1 X119.411 Y56.541 E7.33841
G1 X119.253 Y56.732 E7.34029
G1 X113.216 Y50.695 E7.40520
G1 X113.064 Y50.891 E7.40709
G1 X119.095 Y56.923 E7.47194
G1 X118.937 Y57.114 E7.47383
G1 X112.911 Y51.087 E7.53863
G1 X112.758 Y51.283 E7.54052
G1 X118.780 Y57.305 E7.60526
G1 X118.622 Y57.496 E7.60715
G1 X112.604 Y51.478 E7.67185
G1 X112.442 Y51.664 E7.67373
G1 X118.464 Y57.687 E7.73848
G1 X118.300 Y57.871 E7.74036
G1 X112.280 Y51.851 E7.80509
G1 X112.118 Y52.038 E7.80697
G1 X118.134 Y58.054 E7.87166
G1 X117.968 Y58.236 E7.87354
G1 X111.956 Y52.224 E7.93819
G1 X111.794 Y52.411 E7.94007
G1 X117.802 Y58.419 E8.00467
G1 X117.636 Y58.602 E8.00655
G1 X111.632 Y52.597 E8.07112
G1 X111.469 Y52.784 E8.07300
G1 X117.470 Y58.784 E8.13752
G1 X117.304 Y58.967 E8.13940
G1 X111.307 Y52.970 E8.20388
G1 X111.135 Y53.147 E8.20575
G1 X117.130 Y59.141 E8.27021
G1 X116.955 Y59.316 E8.27209
G1 X110.963 Y53.323 E8.33652
G1 X110.791 Y53.500 E8.33840
G1 X116.781 Y59.490 E8.40281
G1 X116.607 Y59.664 E8.40468
G1 X110.619 Y53.676 E8.46907
G1 X110.447 Y53.853 E8.47095
G1 X116.432 Y59.839 E8.53531
G1 X116.258 Y60.013 E8.53718
G1 X110.275 Y54.029 E8.60152
G1 X110.102 Y54.206 E8.60340
G1 X116.084 Y60.187 E8.66771
G1 X115.909 Y60.362 E8.66959
G1 X109.930 Y54.383 E8.73388
G1 X109.750 Y54.551 E8.73575
G1 X115.735 Y60.536 E8.80011
G1 X115.561 Y60.710 E8.80198
G1 X109.568 Y54.718 E8.86641
G1 X109.387 Y54.885 E8.86829
G1 X115.386 Y60.885 E8.93280
G1 X115.212 Y61.059 E8.93468
G1 X109.205 Y55.052 E8.99926
G1 X109.024 Y55.219 E9.00114
G1 X115.029 Y61.225 E9.06571
G1 X114.846 Y61.391 E9.06759
G1 X108.842 Y55.386 E9.13215
G1 X108.661 Y55.554 E9.13402
G1 X114.664 Y61.557 E9.19857
G1 X114.481 Y61.723 E9.20045
G1 X108.479 Y55.721 E9.26499
G1 X108.288 Y55.878 E9.26687
G1 X114.298 Y61.889 E9.33150
G1 X114.116 Y62.055 E9.33338
G1 X108.097 Y56.035 E9.39810
G1 X107.905 Y56.193 E9.39999
G1 X113.931 Y62.219 E9.46478
G1 X113.740 Y62.377 E9.46666
G1 X107.714 Y56.350 E9.53146
G1 X107.523 Y56.508 E9.53334
G1 X113.549 Y62.534 E9.59814
G1 X113.358 Y62.692 E9.60003
G1 X107.332 Y56.665 E9.66483
G1 X107.141 Y56.823 E9.66671
G1 X113.167 Y62.850 E9.73152
G1 X112.976 Y63.007 E9.73340
G1 X106.948 Y56.978 E9.79822
G1 X106.747 Y57.126 E9.80012
G1 X112.785 Y63.165 E9.86505
