; generated by Slic3r 1.2.9 on 2016-01-03 at 18:19:40

; external perimeters extrusion width = 0.50mm
; perimeters extrusion width = 0.50mm
; infill extrusion width = 0.50mm
; solid infill extrusion width = 0.50mm
; top infill extrusion width = 0.50mm

M107
M190 S60 ; set bed temperature
M104 S210 ; set temperature
G28 ; home all axes
M109 S210 ; wait for temperature to be reached
G21 ; set units to millimeters
G90 ; use absolute coordinates
M82 ; use absolute distances for extrusion
G92 E0
G1 Z0.350 F7800.000
G1 E-2.00000 F1920.00000
G92 E0
G1 X65.229 Y44.512 F7800.000
G1 E2.00000 F1920.00000
M204 S3000
G1 X65.706 Y43.891 E2.00595 F1500.000
G1 X66.211 Y43.385 E2.01138
G1 X66.833 Y42.908 E2.01733
G1 X67.452 Y42.551 E2.02276
G1 X68.175 Y42.251 E2.02871
G1 X68.866 Y42.066 E2.03415
G1 X69.643 Y41.964 E2.04010
G1 X70.000 Y41.940 E2.04282
G1 X100.000 Y41.940 E2.27074
G1 X100.358 Y41.964 E2.27346
G1 X101.134 Y42.066 E2.27941 F1500.000
G1 X101.825 Y42.251 E2.28484
G1 X102.548 Y42.551 E2.29079
G1 X103.167 Y42.908 E2.29622
G1 X103.789 Y43.385 E2.30217
G1 X104.294 Y43.891 E2.30760
G1 X104.771 Y44.512 E2.31355
G1 X105.129 Y45.131 E2.31899
G1 X105.428 Y45.855 E2.32494
G1 X105.613 Y46.545 E2.33037
G1 X105.709 Y47.273 E2.33595
G1 X105.716 Y48.037 E2.34175
G1 X105.613 Y48.813 E2.34770
G1 X105.428 Y49.504 E2.35313
G1 X105.129 Y50.228 E2.35908
G1 X104.970 Y50.549 E2.36180
G1 X89.970 Y76.530 E2.58972
G1 X89.771 Y76.828 E2.59244
G1 X89.294 Y77.449 E2.59839
G1 X88.789 Y77.955 E2.60382
G1 X88.167 Y78.431 E2.60977
G1 X87.548 Y78.789 E2.61521
G1 X86.825 Y79.089 E2.62116
G1 X86.134 Y79.274 E2.62659
G1 X85.358 Y79.376 E2.63254
G1 X84.642 Y79.376 E2.63797
G1 X83.866 Y79.274 E2.64392
G1 X83.175 Y79.089 E2.64935
G1 X82.452 Y78.789 E2.65530
G1 X81.833 Y78.431 E2.66073
G1 X81.211 Y77.955 E2.66668
G1 X80.706 Y77.449 E2.67212
G1 X80.229 Y76.828 E2.67807
G1 X80.030 Y76.530 E2.68079
G1 X65.030 Y50.549 E2.90871
G1 X64.871 Y50.228 E2.91143
G1 X64.572 Y49.504 E2.91738
G1 X64.387 Y48.813 E2.92281
G1 X64.284 Y48.037 E2.92876
G1 X64.284 Y47.322 E2.93419
G1 X64.387 Y46.545 E2.94014
G1 X64.572 Y45.855 E2.94557
G1 X64.871 Y45.131 E2.95152
G1 X65.191 Y44.577 E2.95639
G1 X65.424 Y44.662 F7800.000
G4 P31
G1 X65.901 Y44.041 E2.96234 F1500.000
G1 X66.361 Y43.581 E2.96728
G1 X66.983 Y43.104 E2.97323
G1 X67.546 Y42.778 E2.97817
G1 X68.270 Y42.479 E2.98412
G1 X68.898 Y42.310 E2.98907
G1 X69.675 Y42.208 E2.99502
G1 X70.000 Y42.187 E2.99750
G1 X100.000 Y42.187 E3.22541
G1 X100.325 Y42.208 E3.22789
G1 X101.102 Y42.310 E3.23384 F1500.000
G1 X101.730 Y42.479 E3.23878
G1 X102.454 Y42.778 E3.24473
G1 X103.017 Y43.104 E3.24968
G1 X103.639 Y43.581 E3.25563
G1 X104.099 Y44.041 E3.26057
G1 X104.576 Y44.662 E3.26652
G1 X104.901 Y45.226 E3.27146
G1 X105.201 Y45.949 E3.27741
G1 X105.369 Y46.578 E3.28236
G1 X105.465 Y47.306 E3.28794
G1 X105.471 Y48.005 E3.29325
G1 X105.369 Y48.781 E3.29920
G1 X105.201 Y49.410 E3.30414
G1 X104.901 Y50.133 E3.31009
G1 X104.757 Y50.426 E3.31257
G1 X89.757 Y76.407 E3.54049
G1 X89.576 Y76.678 E3.54296
G1 X89.099 Y77.299 E3.54891
G1 X88.639 Y77.759 E3.55386
G1 X88.017 Y78.236 E3.55981
G1 X87.454 Y78.561 E3.56475
G1 X86.730 Y78.861 E3.57070
G1 X86.102 Y79.029 E3.57564
G1 X85.325 Y79.132 E3.58159
G1 X84.675 Y79.132 E3.58654
G1 X83.898 Y79.029 E3.59249
G1 X83.270 Y78.861 E3.59743
G1 X82.546 Y78.561 E3.60338
G1 X81.983 Y78.236 E3.60833
G1 X81.361 Y77.759 E3.61428
G1 X80.901 Y77.299 E3.61922
G1 X80.424 Y76.678 E3.62517
G1 X80.243 Y76.407 E3.62765
G1 X65.243 Y50.426 E3.85556
G1 X65.099 Y50.133 E3.85804
G1 X64.799 Y49.410 E3.86399
G1 X64.631 Y48.781 E3.86893
G1 X64.529 Y48.005 E3.87488
G1 X64.529 Y47.354 E3.87983
G1 X64.631 Y46.578 E3.88578
G1 X64.799 Y45.949 E3.89072
G1 X65.099 Y45.226 E3.89667
G1 X65.387 Y44.727 E3.90105
G1 X65.620 Y44.812 F7800.000
G4 P31
G1 X66.097 Y44.191 E3.90700 F1500.000
G1 X66.511 Y43.776 E3.91145
G1 X67.133 Y43.299 E3.91740
G1 X67.640 Y43.006 E3.92186
G1 X68.364 Y42.706 E3.92781
G1 X68.930 Y42.555 E3.93226
G1 X69.707 Y42.452 E3.93821
G1 X70.000 Y42.433 E3.94044
G1 X100.000 Y42.433 E4.16836
G1 X100.293 Y42.452 E4.17059
G1 X101.070 Y42.555 E4.17654 F1500.000
G1 X101.636 Y42.706 E4.18100
G1 X102.360 Y43.006 E4.18695
G1 X102.867 Y43.299 E4.19140
G1 X103.489 Y43.776 E4.19735
G1 X103.903 Y44.191 E4.20181
G1 X104.380 Y44.812 E4.20776
G1 X104.673 Y45.320 E4.21221
G1 X104.973 Y46.043 E4.21816
G1 X105.125 Y46.610 E4.22262
G1 X105.221 Y47.338 E4.22820
G1 X105.227 Y47.973 E4.23302
G1 X105.125 Y48.749 E4.23897
G1 X104.973 Y49.316 E4.24342
G1 X104.673 Y50.039 E4.24937
G1 X104.543 Y50.303 E4.25161
G1 X89.543 Y76.283 E4.47952
G1 X89.380 Y76.528 E4.48176
G1 X88.903 Y77.149 E4.48771
G1 X88.489 Y77.564 E4.49216
G1 X87.868 Y78.040 E4.49811
G1 X87.360 Y78.334 E4.50257
G1 X86.636 Y78.633 E4.50852
G1 X86.070 Y78.785 E4.51297
G1 X85.293 Y78.887 E4.51892
G1 X84.707 Y78.887 E4.52338
G1 X83.930 Y78.785 E4.52933
G1 X83.364 Y78.633 E4.53378
G1 X82.640 Y78.334 E4.53973
G1 X82.132 Y78.040 E4.54419
G1 X81.511 Y77.564 E4.55014
G1 X81.097 Y77.149 E4.55459
G1 X80.620 Y76.528 E4.56054
G1 X80.457 Y76.283 E4.56277
G1 X65.457 Y50.303 E4.79069
G1 X65.327 Y50.039 E4.79292
G1 X65.027 Y49.316 E4.79887
G1 X64.875 Y48.749 E4.80333
G1 X64.773 Y47.973 E4.80928
G1 X64.773 Y47.386 E4.81373
G1 X64.875 Y46.610 E4.81968
G1 X65.027 Y46.043 E4.82414
G1 X65.327 Y45.320 E4.83009
G1 X65.582 Y44.877 E4.83397
G1 E2.83397 F1920.00000
G92 E0
G1 X86.937 Y74.158 F7800.000
G1 E2.00000 F1920.00000
G1 X86.752 Y74.624 E2.00381 F1500.000
G1 X86.458 Y75.029 E2.00762
G1 X86.071 Y75.348 E2.01142
G1 X85.618 Y75.562 E2.01523
G1 X85.126 Y75.656 E2.01904
G1 X84.625 Y75.624 E2.02285
G1 X84.149 Y75.469 E2.02665
G1 X83.725 Y75.201 E2.03046
G1 X83.382 Y74.836 E2.03427
G1 X83.141 Y74.396 E2.03808
G1 X83.016 Y73.911 E2.04189
G1 X83.016 Y73.410 E2.04569
G1 X83.141 Y72.924 E2.04950
G1 X83.382 Y72.485 E2.05331
G1 X83.725 Y72.120 E2.05712
G1 X84.149 Y71.851 E2.06092
G1 X84.625 Y71.696 E2.06473
G1 X85.098 Y71.666 E2.06833 F1500.000
G1 X85.615 Y71.757 E2.07232
G1 X86.071 Y71.972 E2.07615
G1 X86.458 Y72.292 E2.07996
G1 X86.752 Y72.697 E2.08377
G1 X86.937 Y73.163 E2.08757
G1 X86.999 Y73.660 E2.09138
G1 X86.946 Y74.083 E2.09462
G1 X86.696 Y74.096 F7800.000
G1 X86.535 Y74.504 E2.09795 F1500.000
G1 X86.277 Y74.859 E2.10129
G1 X85.938 Y75.139 E2.10462
G1 X85.541 Y75.326 E2.10796
G1 X85.110 Y75.408 E2.11129
G1 X84.672 Y75.380 E2.11463
G1 X84.254 Y75.245 E2.11796
G1 X83.884 Y75.010 E2.12130
G1 X83.583 Y74.690 E2.12463
G1 X83.372 Y74.305 E2.12797
G1 X83.263 Y73.880 E2.13130
G1 X83.263 Y73.441 E2.13464
G1 X83.372 Y73.016 E2.13797
G1 X83.583 Y72.631 E2.14131
G1 X83.884 Y72.311 E2.14464
G1 X84.254 Y72.076 E2.14798
G1 X84.672 Y71.940 E2.15131
G1 X85.084 Y71.914 E2.15445 F1500.000
G1 X85.540 Y71.994 E2.15797
G1 X85.938 Y72.182 E2.16131
G1 X86.277 Y72.461 E2.16465
G1 X86.535 Y72.817 E2.16798
G1 X86.696 Y73.225 E2.17132
G1 X86.751 Y73.660 E2.17465
G1 X86.706 Y74.021 E2.17742
G4 P18
G1 X86.997 Y74.416 F7800.000
G1 E0.17742 F1920.00000
G92 E0
G1 X99.149 Y49.489 F7800.000
G1 E2.00000 F1920.00000
G1 X98.725 Y49.220 E2.00381 F1500.000
G1 X98.382 Y48.855 E2.00762
G1 X98.141 Y48.416 E2.01142
G1 X98.016 Y47.930 E2.01523
G1 X98.016 Y47.429 E2.01904
G1 X98.134 Y46.971 E2.02263
G1 X98.380 Y46.506 E2.02663
G1 X98.725 Y46.139 E2.03046
G1 X99.149 Y45.870 E2.03426
G1 X99.625 Y45.715 E2.03807
G1 X100.098 Y45.686 E2.04167 F1500.000
G1 X100.615 Y45.777 E2.04566
G1 X101.071 Y45.991 E2.04949
G1 X101.458 Y46.311 E2.05330
G1 X101.752 Y46.716 E2.05711
G1 X101.937 Y47.182 E2.06091
G1 X101.999 Y47.679 E2.06472
G1 X101.937 Y48.177 E2.06853
G1 X101.752 Y48.643 E2.07234
G1 X101.458 Y49.048 E2.07614
G1 X101.071 Y49.368 E2.07995
G1 X100.618 Y49.581 E2.08376
G1 X100.126 Y49.675 E2.08757
G1 X99.625 Y49.644 E2.09138
G1 X99.220 Y49.512 E2.09461
G1 X99.254 Y49.264 F7800.000
G4 P31
G1 X98.884 Y49.029 E2.09795 F1500.000
G1 X98.583 Y48.709 E2.10128
G1 X98.372 Y48.324 E2.10462
G1 X98.263 Y47.899 E2.10795
G1 X98.263 Y47.460 E2.11129
G1 X98.365 Y47.060 E2.11442
G1 X98.582 Y46.651 E2.11794
G1 X98.884 Y46.330 E2.12129
G1 X99.254 Y46.095 E2.12462
G1 X99.672 Y45.959 E2.12796
G1 X100.084 Y45.933 E2.13109 F1500.000
G1 X100.540 Y46.014 E2.13461
G1 X100.938 Y46.201 E2.13796
G1 X101.277 Y46.481 E2.14129
G1 X101.535 Y46.836 E2.14463
G1 X101.696 Y47.244 E2.14796
G1 X101.751 Y47.679 E2.15130
G1 X101.696 Y48.115 E2.15463
G1 X101.535 Y48.523 E2.15797
G1 X101.277 Y48.878 E2.16130
G1 X100.938 Y49.158 E2.16464
G1 X100.541 Y49.345 E2.16797
G1 X100.110 Y49.427 E2.17131
G1 X99.672 Y49.400 E2.17464
G1 X99.326 Y49.287 E2.17741
G4 P1
G1 X98.884 Y49.499 F7800.000
G1 E0.17741 F1920.00000
G92 E0
G1 X92.818 Y60.210 F7800.000
G1 E2.00000 F1920.00000
G1 X88.671 Y57.816 E2.03638 F1500.000
G1 X88.114 Y58.781 E2.04485
G1 X92.257 Y61.173 E2.08119
G1 X91.107 Y62.457 E2.09428
G1 X90.384 Y63.102 E2.10164
G1 X89.594 Y63.661 E2.10899
G1 X88.747 Y64.129 E2.11635
G1 X87.852 Y64.499 E2.12371
G1 X86.921 Y64.767 E2.13106
G1 X85.967 Y64.929 E2.13842
G1 X85.000 Y64.983 E2.14577
G1 X84.033 Y64.929 E2.15313
G1 X83.079 Y64.767 E2.16049
G1 X82.148 Y64.499 E2.16784
G1 X81.253 Y64.129 E2.17520
G1 X80.406 Y63.661 E2.18256
G1 X79.616 Y63.102 E2.18991
G1 X78.893 Y62.457 E2.19727
G1 X77.743 Y61.173 E2.21036
G1 X81.886 Y58.781 E2.24670
G1 X81.329 Y57.816 E2.25517
G1 X77.186 Y60.208 E2.29151
G1 X76.649 Y58.570 E2.30461
G1 X76.452 Y57.622 E2.31196
G1 X76.362 Y56.658 E2.31932
G1 X76.381 Y55.690 E2.32668
G1 X76.508 Y54.730 E2.33403
G1 X76.741 Y53.790 E2.34139
G1 X77.078 Y52.882 E2.34874
G1 X77.514 Y52.018 E2.35610
G1 X78.045 Y51.208 E2.36346
G1 X78.662 Y50.462 E2.37081
G1 X79.359 Y49.790 E2.37817
G1 X80.127 Y49.200 E2.38553
G1 X80.956 Y48.700 E2.39288
G1 X81.836 Y48.296 E2.40024
G1 X82.756 Y47.992 E2.40759
G1 X84.443 Y47.639 E2.42069
G1 X84.443 Y52.422 E2.45703
G1 X85.557 Y52.422 E2.46550
G1 X85.557 Y47.636 E2.50186
G1 X87.297 Y48.007 E2.51537
G1 X88.264 Y48.336 E2.52313
G1 X89.187 Y48.778 E2.53090
G1 X90.050 Y49.325 E2.53867
G1 X90.843 Y49.970 E2.54644
G1 X91.555 Y50.705 E2.55420
G1 X92.174 Y51.518 E2.56197
G1 X92.693 Y52.399 E2.56974
G1 X93.105 Y53.335 E2.57751
G1 X93.403 Y54.313 E2.58528
G1 X93.583 Y55.319 E2.59304
G1 X93.644 Y56.341 E2.60082
G1 X93.577 Y57.412 E2.60897
G1 X93.378 Y58.467 E2.61713
G1 X92.841 Y60.139 E2.63047
G1 X92.677 Y59.844 F7800.000
G1 X88.505 Y57.436 E2.66706 F1500.000
G1 X88.408 Y57.779 E2.66977
G1 X87.950 Y58.572 E2.67673
G1 X87.702 Y58.827 E2.67944
G1 X91.871 Y61.234 E2.71601
G1 X90.933 Y62.282 E2.72670
G1 X90.231 Y62.909 E2.73385
G1 X89.463 Y63.452 E2.74099
G1 X88.640 Y63.907 E2.74814
G1 X87.770 Y64.267 E2.75528
G1 X86.867 Y64.527 E2.76243
G1 X85.939 Y64.684 E2.76958
G1 X85.000 Y64.737 E2.77672
G1 X84.061 Y64.684 E2.78387
G1 X83.133 Y64.527 E2.79102
G1 X82.230 Y64.267 E2.79816
G1 X81.360 Y63.907 E2.80531
G1 X80.537 Y63.452 E2.81245
G1 X79.769 Y62.909 E2.81960
G1 X79.067 Y62.282 E2.82675
G1 X78.129 Y61.234 E2.83743
G1 X82.299 Y58.827 E2.87401
G1 X82.050 Y58.572 E2.87672
G1 X81.592 Y57.779 E2.88367
G1 X81.495 Y57.435 E2.88638
G1 X77.326 Y59.843 E2.92296
G1 X76.887 Y58.506 E2.93364
G1 X76.696 Y57.585 E2.94079
G1 X76.609 Y56.649 E2.94793
G1 X76.627 Y55.708 E2.95508
G1 X76.750 Y54.776 E2.96223
G1 X76.977 Y53.863 E2.96937
G1 X77.304 Y52.981 E2.97652
G1 X77.728 Y52.141 E2.98366
G1 X78.243 Y51.354 E2.99081
G1 X78.843 Y50.630 E2.99796
G1 X79.520 Y49.977 E3.00510
G1 X80.266 Y49.404 E3.01225
G1 X81.072 Y48.918 E3.01940
G1 X81.927 Y48.525 E3.02654
G1 X82.820 Y48.231 E3.03369
G1 X84.196 Y47.942 E3.04437
G1 X84.196 Y52.756 E3.08095
G1 X84.542 Y52.669 E3.08366
G1 X85.458 Y52.669 E3.09061
G1 X85.804 Y52.756 E3.09332
G4 P19
G1 X85.804 Y47.941 E3.12991
G1 X87.231 Y48.245 E3.14100
G1 X88.171 Y48.565 E3.14854
G1 X89.067 Y48.993 E3.15609
G1 X89.906 Y49.525 E3.16363
G1 X90.676 Y50.152 E3.17118
G1 X91.367 Y50.866 E3.17873
G1 X91.969 Y51.656 E3.18627
G1 X92.474 Y52.511 E3.19382
G1 X92.873 Y53.421 E3.20136
G1 X93.163 Y54.371 E3.20891
G1 X93.338 Y55.348 E3.21645
G1 X93.397 Y56.340 E3.22400
G1 X93.332 Y57.381 E3.23193
G1 X93.139 Y58.407 E3.23986
G1 X92.700 Y59.773 E3.25076
G1 X91.485 Y61.296 F7800.000
G1 X90.758 Y62.108 E3.25903 F1500.000
G1 X90.077 Y62.716 E3.26597
G1 X89.332 Y63.243 E3.27290
G1 X88.533 Y63.685 E3.27984
G1 X87.689 Y64.034 E3.28678
G1 X86.812 Y64.286 E3.29371
G1 X85.912 Y64.439 E3.30065
G1 X85.000 Y64.490 E3.30759
G1 X84.088 Y64.439 E3.31452
G1 X83.188 Y64.286 E3.32146
G1 X82.311 Y64.034 E3.32839
G1 X81.467 Y63.685 E3.33533
G1 X80.668 Y63.243 E3.34227
G1 X79.923 Y62.716 E3.34920
G1 X79.242 Y62.108 E3.35614
G1 X78.515 Y61.296 E3.36441
G1 X82.302 Y59.110 E3.39763
G1 X83.342 Y59.812 E3.40717
G1 X84.431 Y60.146 E3.41582
G1 X85.569 Y60.146 E3.42447
G1 X86.665 Y59.808 E3.43318
G1 X87.698 Y59.110 E3.44265
G1 X91.420 Y61.259 E3.47530
G1 X91.879 Y61.603 F7800.000
G1 E1.47530 F1920.00000
G92 E0
G1 X87.752 Y58.422 F7800.000
G1 E2.00000 F1920.00000
G1 X87.156 Y59.035 E2.00650 F1500.000
G1 X86.360 Y59.512 E2.01355
G1 X85.465 Y59.760 E2.02061
G1 X84.536 Y59.760 E2.02766
G1 X83.640 Y59.512 E2.03472
G1 X82.844 Y59.035 E2.04178
G1 X82.248 Y58.422 E2.04827
G1 X81.821 Y57.682 E2.05476
G1 X81.588 Y56.860 E2.06126
G1 X81.573 Y55.932 E2.06831
G1 X81.806 Y55.032 E2.07537
G1 X82.270 Y54.227 E2.08243
G1 X82.933 Y53.576 E2.08948
G1 X83.744 Y53.125 E2.09654
G1 X84.573 Y52.915 E2.10303
G1 X85.427 Y52.915 E2.10952 F1500.000
G1 X86.257 Y53.125 E2.11603
G1 X87.149 Y53.638 E2.12384
G1 X87.850 Y54.393 E2.13167
G1 X88.298 Y55.321 E2.13949
G1 X88.450 Y56.328 E2.14724
G1 X88.410 Y56.866 E2.15133
G1 X88.179 Y57.682 E2.15778
G1 X87.790 Y58.357 E2.16370
G1 X87.928 Y58.890 F7800.000
G1 E0.16370 F1920.00000
G92 E0
G1 X92.536 Y59.478 F7800.000
G1 E2.00000 F1920.00000
G1 X88.738 Y57.285 E2.03332 F1500.000
G1 X88.808 Y56.902 E2.03628
G1 X88.849 Y56.344 E2.04053
G1 X88.726 Y55.376 E2.04795
G1 X88.366 Y54.473 E2.05533
G1 X87.791 Y53.689 E2.06272
G1 X87.038 Y53.075 E2.07010
G1 X86.050 Y52.620 E2.07836
G1 X86.050 Y48.245 E2.11160
G1 X87.165 Y48.482 E2.12026
G1 X88.078 Y48.793 E2.12759
G1 X88.948 Y49.209 E2.13491
G1 X89.762 Y49.725 E2.14224
G1 X90.510 Y50.334 E2.14956
G1 X91.180 Y51.026 E2.15688
G1 X91.764 Y51.793 E2.16421
G1 X92.254 Y52.624 E2.17153
G1 X92.642 Y53.506 E2.17886
G1 X92.923 Y54.429 E2.18618
G1 X93.093 Y55.377 E2.19350
G1 X93.150 Y56.340 E2.20083
G1 X93.087 Y57.351 E2.20852
G1 X92.900 Y58.346 E2.21622
G1 X92.559 Y59.407 E2.22468
G1 X92.317 Y59.928 F7800.000
G1 E0.22468 F1920.00000
G92 E0
G1 X83.950 Y52.618 F7800.000
G1 E2.00000 F1920.00000
G1 X82.816 Y53.173 E2.00959 F1500.000
G1 X81.989 Y53.944 E2.01818
G1 X81.419 Y54.930 E2.02684
G1 X81.163 Y56.040 E2.03549
G1 X81.252 Y57.291 E2.04502
G1 X77.465 Y59.478 E2.07824
G1 X77.126 Y58.443 E2.08651
G1 X76.940 Y57.549 E2.09345
G1 X76.855 Y56.640 E2.10039
G1 X76.873 Y55.727 E2.10732
G1 X76.992 Y54.822 E2.11426
G1 X77.212 Y53.936 E2.12120
G1 X77.530 Y53.080 E2.12813
G1 X77.942 Y52.265 E2.13507
G1 X78.442 Y51.501 E2.14200
G1 X79.024 Y50.798 E2.14894
G1 X79.681 Y50.164 E2.15588
G1 X80.406 Y49.608 E2.16281
G1 X81.187 Y49.136 E2.16975
G1 X82.017 Y48.755 E2.17668
G1 X82.884 Y48.469 E2.18362
G1 X83.950 Y48.246 E2.19190
G1 X83.950 Y52.543 E2.22454
G1 X84.099 Y53.095 F7800.000
G1 E0.22454 F1920.00000
G92 E0
G1 X70.232 Y45.322 F7800.000
G1 E2.00000 F1920.00000
G1 X99.672 Y45.322 E2.22366 F1500.000
G1 X99.676 Y45.465 E2.22475
G1 X99.579 Y45.471 E2.22549
G1 X99.043 Y45.646 E2.22977
G1 X98.567 Y45.948 E2.23405
G1 X98.178 Y46.362 E2.23837
G1 X97.903 Y46.881 E2.24284
G1 X97.770 Y47.398 E2.24689
G1 X97.770 Y47.961 E2.25117
G1 X97.910 Y48.507 E2.25545
G1 X98.181 Y49.001 E2.25973
G1 X98.567 Y49.411 E2.26401
G1 X99.043 Y49.713 E2.26829
G1 X99.579 Y49.887 E2.27257
G1 X100.141 Y49.923 E2.27685
G1 X100.695 Y49.817 E2.28114
G1 X101.204 Y49.577 E2.28542
G1 X101.639 Y49.218 E2.28970
G1 X101.801 Y48.995 E2.29179
G1 X101.918 Y49.072 E2.29286
G1 X87.161 Y74.631 E2.51708
G1 X87.038 Y74.571 E2.51812
G1 X87.177 Y74.219 E2.52100
G1 X87.248 Y73.660 E2.52528
G1 X87.177 Y73.101 E2.52956
G1 X86.970 Y72.577 E2.53384
G1 X86.639 Y72.122 E2.53812
G1 X86.204 Y71.762 E2.54240
G1 X85.690 Y71.520 E2.54672
