; generated by Slic3r 1.2.9 on 2015-12-20 at 00:26:05

; external perimeters extrusion width = 0.50mm
; perimeters extrusion width = 0.50mm
; infill extrusion width = 0.50mm
; solid infill extrusion width = 0.50mm
; top infill extrusion width = 0.50mm

M107
M190 S60 ; set bed temperature
M104 S210 ; set temperature
G28 ; home all axes
M109 S210 ; wait for temperature to be reached
G21 ; set units to millimeters
G90 ; use absolute coordinates
M82 ; use absolute distances for extrusion
G92 E0
G1 Z0.350 F7800.000
G1 E-2.00000 F1920.00000
G92 E0
G1 X19.284 Y6.740 F7800.000
G1 E2.00000 F1920.00000
M204 S3000
G1 X19.555 Y6.089 E2.00536 F1500.000
G1 X20.199 Y4.972 E2.01516
G1 X20.628 Y4.411 E2.02052
G1 X21.537 Y3.497 E2.03031
G1 X22.095 Y3.064 E2.03568
G1 X23.207 Y2.412 E2.04547
G1 X23.857 Y2.137 E2.05084
G1 X25.099 Y1.791 E2.06063
G1 X25.798 Y1.691 E2.06599
G1 X27.123 Y1.674 E2.07606
G1 X142.913 Y1.674 E2.95575
G1 X144.202 Y1.691 E2.96554 F1500.000
G1 X144.901 Y1.791 E2.97091
G1 X146.143 Y2.137 E2.98070
G1 X146.793 Y2.412 E2.98607
G1 X147.905 Y3.064 E2.99586
G1 X148.463 Y3.497 E3.00122
G1 X149.372 Y4.411 E3.01102
G1 X149.801 Y4.972 E3.01638
G1 X150.445 Y6.089 E3.02617
G1 X150.716 Y6.740 E3.03154
G1 X151.054 Y7.984 E3.04133
G1 X151.150 Y8.684 E3.04670
G1 X151.158 Y9.973 E3.05649
G1 X151.072 Y10.674 E3.06185
G1 X150.750 Y11.922 E3.07165
G1 X150.488 Y12.578 E3.07701
G1 X149.840 Y13.733 E3.08708
G1 X91.963 Y113.980 E3.96650
G1 X91.285 Y115.119 E3.97656
G1 X90.849 Y115.674 E3.98193
G1 X89.929 Y116.576 E3.99172
G1 X89.365 Y117.002 E3.99708
G1 X88.245 Y117.639 E4.00688
G1 X87.591 Y117.906 E4.01224
G1 X86.345 Y118.235 E4.02203
G1 X85.644 Y118.326 E4.02740
G1 X84.356 Y118.326 E4.03719
G1 X83.655 Y118.235 E4.04256
G1 X82.409 Y117.906 E4.05235
G1 X81.755 Y117.639 E4.05771
G1 X80.635 Y117.002 E4.06751
G1 X80.071 Y116.576 E4.07287
G1 X79.151 Y115.674 E4.08266
G1 X78.715 Y115.119 E4.08803
G1 X78.037 Y113.980 E4.09809
G1 X20.160 Y13.733 E4.97751
G1 X19.512 Y12.578 E4.98758
G1 X19.230 Y11.844 E4.99355
G1 X18.928 Y10.674 E5.00273
G1 X18.842 Y9.973 E5.00810
G1 X18.850 Y8.684 E5.01789
G1 X18.946 Y7.984 E5.02325
G1 X19.264 Y6.813 E5.03248
G1 X19.521 Y6.805 F7800.000
G1 X19.768 Y6.212 E5.03736 F1500.000
G1 X20.413 Y5.095 E5.04715
G1 X20.803 Y4.585 E5.05203
G1 X21.712 Y3.670 E5.06183
G1 X22.220 Y3.277 E5.06671
G1 X23.332 Y2.625 E5.07650
G1 X23.923 Y2.374 E5.08138
G1 X25.165 Y2.028 E5.09118
G1 X25.801 Y1.937 E5.09606
G1 X27.123 Y1.920 E5.10610
G1 X142.910 Y1.920 E5.98577
G1 X144.199 Y1.937 E5.99556 F1500.000
G1 X144.835 Y2.028 E6.00044
G1 X146.077 Y2.374 E6.01023
G1 X146.668 Y2.625 E6.01512
G1 X147.780 Y3.277 E6.02491
G1 X148.288 Y3.670 E6.02979
G1 X149.197 Y4.585 E6.03958
G1 X149.587 Y5.095 E6.04447
G1 X150.232 Y6.212 E6.05426
G1 X150.479 Y6.805 E6.05914
G1 X150.816 Y8.049 E6.06893
G1 X150.903 Y8.686 E6.07382
G1 X150.912 Y9.975 E6.08361
G1 X150.833 Y10.612 E6.08849
G1 X150.512 Y11.861 E6.09828
G1 X150.273 Y12.457 E6.10317
G1 X149.627 Y13.610 E6.11321
G1 X91.749 Y113.857 E6.99263
G1 X91.074 Y114.993 E7.00267
G1 X90.677 Y115.498 E7.00755
G1 X89.756 Y116.400 E7.01734
G1 X89.243 Y116.787 E7.02222
G1 X88.123 Y117.425 E7.03202
G1 X87.528 Y117.668 E7.03690
G1 X86.282 Y117.997 E7.04669
G1 X85.644 Y118.080 E7.05157
G1 X84.356 Y118.080 E7.06137
G1 X83.718 Y117.997 E7.06625
G1 X82.472 Y117.668 E7.07604
G1 X81.877 Y117.425 E7.08092
G1 X80.757 Y116.787 E7.09072
G1 X80.244 Y116.401 E7.09560
G1 X79.323 Y115.498 E7.10539
G1 X78.926 Y114.993 E7.11027
G1 X78.267 Y113.885 E7.12007
G1 X20.373 Y13.610 E7.99973
G1 X19.727 Y12.457 E8.00978
G1 X19.468 Y11.783 E8.01526
G1 X19.167 Y10.612 E8.02445
G1 X19.088 Y9.975 E8.02933
G1 X19.097 Y8.686 E8.03912
G1 X19.184 Y8.049 E8.04400
G1 X19.502 Y6.877 E8.05323
G1 X19.759 Y6.870 F7800.000
G1 X19.982 Y6.335 E8.05763 F1500.000
G1 X20.626 Y5.219 E8.06742
G1 X20.978 Y4.759 E8.07182
G1 X21.886 Y3.844 E8.08161
G1 X22.344 Y3.489 E8.08601
G1 X23.456 Y2.837 E8.09580
G1 X23.989 Y2.611 E8.10020
G1 X25.231 Y2.266 E8.11000
G1 X25.804 Y2.183 E8.11439
G1 X27.123 Y2.166 E8.12441
G1 X142.907 Y2.167 E9.00405
G1 X144.196 Y2.183 E9.01385 F1500.000
G1 X144.769 Y2.266 E9.01825
G1 X146.011 Y2.611 E9.02804
G1 X146.544 Y2.837 E9.03244
G1 X147.656 Y3.489 E9.04223
G1 X148.114 Y3.844 E9.04663
G1 X149.022 Y4.759 E9.05642
G1 X149.374 Y5.219 E9.06082
G1 X150.018 Y6.335 E9.07062
G1 X150.241 Y6.870 E9.07502
G1 X150.579 Y8.113 E9.08481
G1 X150.657 Y8.687 E9.08921
G1 X150.665 Y9.976 E9.09900
G1 X150.595 Y10.551 E9.10340
G1 X150.273 Y11.799 E9.11319
G1 X150.058 Y12.337 E9.11759
G1 X149.413 Y13.487 E9.12761
G1 X91.536 Y113.734 E10.00703
G1 X90.862 Y114.867 E10.01705
G1 X90.504 Y115.322 E10.02145
G1 X89.584 Y116.225 E10.03124
G1 X89.122 Y116.573 E10.03564
G1 X88.001 Y117.210 E10.04543
G1 X87.465 Y117.429 E10.04983
G1 X86.219 Y117.759 E10.05962
G1 X85.644 Y117.834 E10.06402
G1 X84.356 Y117.834 E10.07382
G1 X83.781 Y117.759 E10.07821
G1 X82.535 Y117.429 E10.08801
G1 X81.999 Y117.210 E10.09241
G1 X80.878 Y116.573 E10.10220
G1 X80.416 Y116.225 E10.10660
G1 X79.496 Y115.322 E10.11639
G1 X79.138 Y114.867 E10.12079
G1 X78.479 Y113.759 E10.13059
G1 X20.587 Y13.487 E11.01023
G1 X19.942 Y12.337 E11.02024
G1 X19.707 Y11.721 E11.02525
G1 X19.405 Y10.551 E11.03443
G1 X19.335 Y9.976 E11.03883
G1 X19.343 Y8.687 E11.04862
G1 X19.421 Y8.113 E11.05302
G1 X19.739 Y6.942 E11.06225
G1 E9.06225 F1920.00000
G92 E0
G1 X84.043 Y108.571 F7800.000
G1 E2.00000 F1920.00000
G1 X84.579 Y108.397 E2.00428 F1500.000
G1 X85.111 Y108.364 E2.00833 F1500.000
G1 X85.690 Y108.465 E2.01280
G1 X86.204 Y108.707 E2.01712
G1 X86.639 Y109.066 E2.02140
G1 X86.970 Y109.522 E2.02568
G1 X87.177 Y110.046 E2.02996
G1 X87.248 Y110.605 E2.03424
G1 X87.177 Y111.164 E2.03852
G1 X86.970 Y111.688 E2.04280
G1 X86.639 Y112.144 E2.04708
G1 X86.204 Y112.503 E2.05136
G1 X85.695 Y112.743 E2.05564
G1 X85.141 Y112.848 E2.05992
G1 X84.579 Y112.813 E2.06420
G1 X84.043 Y112.639 E2.06849
G1 X83.567 Y112.337 E2.07277
G1 X83.181 Y111.926 E2.07705
G1 X82.910 Y111.433 E2.08133
G1 X82.770 Y110.887 E2.08561
G1 X82.770 Y110.323 E2.08989
G1 X82.910 Y109.778 E2.09417
G1 X83.181 Y109.284 E2.09845
G1 X83.567 Y108.873 E2.10273
G1 X83.980 Y108.611 E2.10644
G1 X84.149 Y108.796 F7800.000
G4 P31
G1 X84.625 Y108.641 E2.11025 F1500.000
G1 X85.098 Y108.611 E2.11384 F1500.000
G1 X85.615 Y108.702 E2.11784
G1 X86.071 Y108.917 E2.12167
G1 X86.458 Y109.236 E2.12548
G1 X86.752 Y109.642 E2.12928
G1 X86.937 Y110.108 E2.13309
G1 X86.999 Y110.605 E2.13690
G1 X86.937 Y111.102 E2.14071
G1 X86.752 Y111.568 E2.14451
G1 X86.458 Y111.974 E2.14832
G1 X86.071 Y112.293 E2.15213
G1 X85.618 Y112.507 E2.15594
G1 X85.126 Y112.601 E2.15975
G1 X84.625 Y112.569 E2.16355
G1 X84.149 Y112.414 E2.16736
G1 X83.725 Y112.146 E2.17117
G1 X83.382 Y111.780 E2.17498
G1 X83.141 Y111.341 E2.17878
G1 X83.016 Y110.856 E2.18259
G1 X83.016 Y110.355 E2.18640
G1 X83.141 Y109.869 E2.19021
G1 X83.382 Y109.430 E2.19402
G1 X83.725 Y109.064 E2.19782
G1 X84.085 Y108.836 E2.20106
G1 X84.254 Y109.021 F7800.000
G4 P31
G1 X84.672 Y108.885 E2.20440 F1500.000
G1 X85.084 Y108.859 E2.20753 F1500.000
G1 X85.540 Y108.939 E2.21105
G1 X85.938 Y109.127 E2.21440
G1 X86.277 Y109.406 E2.21773
G1 X86.535 Y109.761 E2.22107
G1 X86.696 Y110.170 E2.22440
G1 X86.751 Y110.605 E2.22774
G1 X86.696 Y111.041 E2.23107
G1 X86.535 Y111.449 E2.23440
G1 X86.277 Y111.804 E2.23774
G1 X85.938 Y112.084 E2.24107
G1 X85.541 Y112.271 E2.24441
G1 X85.110 Y112.353 E2.24774
G1 X84.672 Y112.325 E2.25108
G1 X84.254 Y112.190 E2.25441
G1 X83.884 Y111.954 E2.25775
G1 X83.583 Y111.634 E2.26108
G1 X83.372 Y111.250 E2.26442
G1 X83.263 Y110.825 E2.26775
G1 X83.263 Y110.386 E2.27109
G1 X83.372 Y109.960 E2.27442
G1 X83.583 Y109.576 E2.27776
G1 X83.884 Y109.256 E2.28109
G1 X84.191 Y109.061 E2.28386
G1 X84.309 Y108.585 F7800.000
G1 E0.28386 F1920.00000
G92 E0
G1 X92.222 Y51.505 F7800.000
G1 E2.00000 F1920.00000
G1 X88.684 Y49.462 E2.03104 F1500.000
G1 X89.130 Y48.689 E2.03782
G1 X89.040 Y48.609 E2.03873
G1 X88.877 Y48.732 E2.04028
G1 X87.710 Y49.376 E2.05041
G1 X87.480 Y49.475 E2.05231
G1 X85.986 Y49.874 E2.06406
G1 X84.506 Y49.926 E2.07531
G1 X82.864 Y49.602 E2.08803
G1 X81.440 Y48.943 E2.09995
G1 X80.201 Y47.970 E2.11192
G1 X79.219 Y46.741 E2.12387
G1 X78.545 Y45.319 E2.13582
G1 X78.216 Y43.787 E2.14773
G1 X78.219 Y42.820 E2.15507
G1 X78.247 Y42.227 E2.15958
G1 X78.292 Y41.962 E2.16163
G1 X78.635 Y40.699 E2.17157
G1 X78.759 Y40.411 E2.17395
G1 X79.359 Y39.308 E2.18349
G1 X79.576 Y39.019 E2.18624
G1 X80.387 Y38.114 E2.19547
G1 X80.693 Y37.862 E2.19848
G1 X81.309 Y37.417 E2.20425
G1 X81.672 Y37.184 E2.20753
G1 X82.056 Y36.998 E2.21077
G1 X82.758 Y36.706 E2.21655
G1 X83.128 Y36.578 E2.21953
G1 X83.585 Y36.480 E2.22307
G1 X84.335 Y36.356 E2.22885
G1 X84.694 Y36.322 E2.23159
G1 X85.947 Y36.388 E2.24112
G1 X86.262 Y36.434 E2.24354
G1 X86.789 Y36.577 E2.24769
G1 X87.516 Y36.802 E2.25348
G1 X87.776 Y36.907 E2.25560
G1 X88.937 Y37.572 E2.26577
G1 X89.134 Y37.713 E2.26761
G1 X90.139 Y38.659 E2.27809
G1 X90.268 Y38.809 E2.27959
G1 X91.111 Y40.110 E2.29137
G1 X91.639 Y41.582 E2.30325
G1 X91.815 Y43.114 E2.31497
G1 X91.762 Y43.903 E2.32098
G4 P1
G1 X91.874 Y43.937 E2.32187
G1 X92.327 Y43.153 E2.32875
G1 X95.865 Y45.196 E2.35979
G1 X92.260 Y51.440 E2.41457
G1 X92.132 Y51.169 F7800.000
G1 X89.021 Y49.372 E2.44186 F1500.000
G1 X90.164 Y47.391 E2.45924
G1 X90.053 Y47.314 E2.46027
G1 X89.884 Y47.518 E2.46229
G1 X88.951 Y48.368 E2.47187
G1 X88.743 Y48.524 E2.47385
G1 X87.602 Y49.155 E2.48376
G1 X87.399 Y49.242 E2.48543
G1 X85.949 Y49.628 E2.49683
G1 X84.524 Y49.679 E2.50767
G1 X82.943 Y49.367 E2.51991
G1 X81.570 Y48.731 E2.53141
G1 X80.375 Y47.793 E2.54295
G1 X79.429 Y46.609 E2.55446
G1 X78.780 Y45.240 E2.56598
G1 X78.462 Y43.761 E2.57747
G1 X78.466 Y42.826 E2.58457
G1 X78.492 Y42.254 E2.58892
G1 X78.533 Y42.013 E2.59077
G1 X78.867 Y40.783 E2.60046
G1 X78.981 Y40.519 E2.60264
G1 X79.566 Y39.441 E2.61196
G1 X79.766 Y39.175 E2.61449
G1 X80.557 Y38.293 E2.62349
G1 X80.844 Y38.058 E2.62631
G1 X81.448 Y37.621 E2.63197
G1 X81.792 Y37.399 E2.63509
G1 X82.157 Y37.223 E2.63816
G1 X82.846 Y36.936 E2.64383
G1 X83.195 Y36.815 E2.64664
G1 X83.630 Y36.722 E2.65002
G1 X84.367 Y36.601 E2.65569
G1 X84.700 Y36.569 E2.65823
G1 X85.922 Y36.634 E2.66753
G1 X86.212 Y36.675 E2.66976
G1 X86.720 Y36.814 E2.67376
G1 X87.434 Y37.035 E2.67943
G1 X87.668 Y37.129 E2.68135
G1 X88.804 Y37.780 E2.69130
G1 X88.977 Y37.904 E2.69292
G1 X89.960 Y38.829 E2.70317
G1 X90.071 Y38.958 E2.70447
G1 X90.888 Y40.219 E2.71588
G1 X91.397 Y41.638 E2.72733
G1 X91.567 Y43.120 E2.73866
G1 X91.509 Y43.998 E2.74535
G1 X91.331 Y44.871 E2.75212
G1 X91.108 Y45.483 E2.75707
G1 X91.231 Y45.543 E2.75812
G1 X92.417 Y43.489 E2.77613
G1 X95.528 Y45.286 E2.80343
G1 X92.170 Y51.104 E2.85446
G1 X92.042 Y50.832 F7800.000
G1 X89.357 Y49.282 E2.87801 F1500.000
G1 X92.507 Y43.826 E2.92588
G1 X95.192 Y45.376 E2.94943
G1 X92.079 Y50.767 E2.99672
G1 X91.792 Y51.265 F7800.000
G1 E0.99672 F1920.00000
G92 E0
G1 X89.248 Y47.765 F7800.000
G1 E2.00000 F1920.00000
G4 P0
G1 X88.794 Y48.178 E2.00467 F1500.000
G1 X88.609 Y48.317 E2.00642
G1 X87.493 Y48.933 E2.01611
G1 X87.319 Y49.008 E2.01755
G1 X85.913 Y49.383 E2.02860
G1 X84.542 Y49.432 E2.03903
G1 X83.021 Y49.132 E2.05080
G1 X81.699 Y48.520 E2.06187
G1 X80.550 Y47.617 E2.07297
G1 X79.639 Y46.478 E2.08405
G1 X79.015 Y45.160 E2.09513
G1 X78.709 Y43.735 E2.10620
G1 X78.712 Y42.833 E2.11306
G1 X78.737 Y42.280 E2.11726
G1 X78.774 Y42.065 E2.11892
G1 X79.099 Y40.867 E2.12835
G1 X79.202 Y40.627 E2.13034
G1 X79.774 Y39.575 E2.13943
G1 X79.957 Y39.332 E2.14174
G1 X80.728 Y38.471 E2.15052
G1 X80.994 Y38.253 E2.15314
G1 X81.587 Y37.824 E2.15869
G1 X81.913 Y37.614 E2.16164
G1 X82.258 Y37.448 E2.16455
G1 X82.933 Y37.167 E2.17011
G1 X83.261 Y37.053 E2.17275
G1 X83.676 Y36.964 E2.17597
G1 X84.398 Y36.845 E2.18153
G1 X84.705 Y36.816 E2.18387 F1500.000
G1 X85.898 Y36.879 E2.19295
G1 X86.162 Y36.917 E2.19497
G1 X87.351 Y37.267 E2.20439
G1 X87.560 Y37.351 E2.20610
G1 X88.670 Y37.988 E2.21582
G1 X88.821 Y38.095 E2.21723
G1 X89.782 Y39.000 E2.22726
G1 X89.875 Y39.107 E2.22834
G1 X90.225 Y39.631 E2.23312
G1 X90.666 Y40.327 E2.23938
G1 X91.156 Y41.695 E2.25042
G1 X91.320 Y43.125 E2.26136
G1 X91.264 Y43.969 E2.26779
G1 X91.228 Y44.179 E2.26940
G1 X91.094 Y44.804 E2.27426
G1 X90.956 Y45.199 E2.27743
G1 X90.684 Y45.875 E2.28297
G1 X90.549 Y46.154 E2.28533
G1 X89.878 Y47.139 E2.29438
G1 X89.705 Y47.348 E2.29644
G1 X89.304 Y47.714 E2.30057
G1 X89.355 Y48.253 F7800.000
G1 E0.30057 F1920.00000
G92 E0
G1 X141.734 Y10.860 F7800.000
G1 E2.00000 F1920.00000
G1 X141.423 Y10.390 E2.00428 F1500.000
G1 X141.237 Y9.858 E2.00856
G1 X141.190 Y9.297 E2.01284
G1 X141.284 Y8.741 E2.01712
G1 X141.513 Y8.227 E2.02140
G1 X141.863 Y7.785 E2.02568
G1 X142.309 Y7.447 E2.02994
G1 X142.810 Y7.229 E2.03408
G1 X143.389 Y7.144 E2.03853 F1500.000
G1 X143.949 Y7.203 E2.04281
G1 X144.477 Y7.399 E2.04709
G1 X144.940 Y7.721 E2.05137
G1 X145.289 Y8.124 E2.05543
G1 X145.558 Y8.647 E2.05989
G1 X145.676 Y9.203 E2.06421
G1 X145.652 Y9.766 E2.06849
G1 X145.490 Y10.305 E2.07277
G1 X145.198 Y10.787 E2.07705
G1 X144.795 Y11.181 E2.08133
G1 X144.307 Y11.463 E2.08561
G1 X143.764 Y11.615 E2.08989
G1 X143.201 Y11.626 E2.09417
G1 X142.653 Y11.498 E2.09845
G1 X142.153 Y11.237 E2.10274
G1 X141.790 Y10.910 E2.10645
G1 X141.922 Y10.697 F7800.000
G4 P31
G1 X141.645 Y10.280 E2.11025 F1500.000
G1 X141.480 Y9.807 E2.11406
G1 X141.438 Y9.307 E2.11787
G1 X141.522 Y8.813 E2.12168
G1 X141.726 Y8.355 E2.12549
G1 X142.037 Y7.962 E2.12929
G1 X142.434 Y7.661 E2.13308
G1 X142.878 Y7.468 E2.13676
G1 X143.394 Y7.392 E2.14072 F1500.000
G1 X143.893 Y7.444 E2.14453
G1 X144.362 Y7.619 E2.14834
G1 X144.774 Y7.905 E2.15214
G1 X145.083 Y8.263 E2.15574
G1 X145.324 Y8.731 E2.15973
G1 X145.429 Y9.224 E2.16356
G1 X145.408 Y9.724 E2.16737
G1 X145.263 Y10.204 E2.17118
G1 X145.003 Y10.633 E2.17499
G1 X144.645 Y10.984 E2.17879
G1 X144.211 Y11.234 E2.18260
G1 X143.728 Y11.369 E2.18641
G1 X143.227 Y11.380 E2.19022
G1 X142.739 Y11.265 E2.19402
G1 X142.295 Y11.033 E2.19783
G1 X141.978 Y10.748 E2.20107
G1 X142.110 Y10.535 F7800.000
G4 P31
G1 X141.867 Y10.170 E2.20441 F1500.000
G1 X141.723 Y9.755 E2.20774
G1 X141.686 Y9.318 E2.21108
G1 X141.760 Y8.885 E2.21441
G1 X141.938 Y8.484 E2.21775
G1 X142.211 Y8.140 E2.22108
G1 X142.560 Y7.875 E2.22441
G1 X142.946 Y7.707 E2.22761
G1 X143.399 Y7.640 E2.23109 F1500.000
G1 X143.836 Y7.686 E2.23442
G1 X144.247 Y7.839 E2.23776
G1 X144.608 Y8.090 E2.24109
G1 X144.878 Y8.402 E2.24423
G1 X145.090 Y8.814 E2.24775
G1 X145.181 Y9.244 E2.25109
G1 X145.163 Y9.683 E2.25443
G1 X145.036 Y10.103 E2.25776
G1 X144.808 Y10.479 E2.26110
G1 X144.495 Y10.786 E2.26443
G1 X144.115 Y11.005 E2.26777
G1 X143.692 Y11.123 E2.27110
G1 X143.253 Y11.133 E2.27444
G1 X142.826 Y11.032 E2.27777
G1 X142.437 Y10.829 E2.28111
G1 X142.166 Y10.585 E2.28387
G1 X141.676 Y10.599 F7800.000
G1 E0.28387 F1920.00000
G92 E0
G4 P29
G1 X28.804 Y9.579 F7800.000
G1 E2.00000 F1920.00000
G1 X28.687 Y10.130 E2.00428 F1500.000
G1 X28.434 Y10.639 E2.00860
G1 X28.044 Y11.078 E2.01306
G1 X27.605 Y11.383 E2.01712
G1 X27.077 Y11.579 E2.02140
G1 X26.517 Y11.638 E2.02568
G1 X25.959 Y11.556 E2.02996
G1 X25.440 Y11.338 E2.03424
G1 X24.991 Y10.997 E2.03852
G1 X24.641 Y10.555 E2.04280
G1 X24.412 Y10.041 E2.04708
G1 X24.311 Y9.444 E2.05168
G1 X24.368 Y8.917 E2.05571
G1 X24.551 Y8.392 E2.05993
G1 X24.862 Y7.922 E2.06421
G1 X25.285 Y7.542 E2.06853
G1 X25.810 Y7.277 E2.07300
G1 X26.329 Y7.155 E2.07705 F1500.000
G1 X26.892 Y7.167 E2.08133
G1 X27.435 Y7.319 E2.08561
G1 X27.923 Y7.601 E2.08989
G1 X28.326 Y7.995 E2.09417
G1 X28.617 Y8.477 E2.09845
G1 X28.780 Y9.016 E2.10273
G1 X28.801 Y9.504 E2.10645
G1 X28.556 Y9.558 F7800.000
G1 X28.452 Y10.049 E2.11025 F1500.000
G1 X28.228 Y10.500 E2.11408
G1 X27.879 Y10.893 E2.11808
G1 X27.490 Y11.163 E2.12167
G1 X27.021 Y11.338 E2.12548
G1 X26.522 Y11.390 E2.12929
G1 X26.026 Y11.317 E2.13309
G1 X25.564 Y11.123 E2.13690
G1 X25.165 Y10.820 E2.14071
G1 X24.854 Y10.427 E2.14452
G1 X24.650 Y9.969 E2.14833
G1 X24.560 Y9.437 E2.15243
G1 X24.610 Y8.971 E2.15599
G1 X24.773 Y8.502 E2.15976
