; generated by Slic3r 1.2.9 on 2016-01-09 at 16:36:54

; external perimeters extrusion width = 0.50mm
; perimeters extrusion width = 0.50mm
; infill extrusion width = 0.50mm
; solid infill extrusion width = 0.50mm
; top infill extrusion width = 0.50mm

M107
M190 S60 ; set bed temperature
M104 S210 ; set temperature
G28 ; home all axes
M109 S210 ; wait for temperature to be reached
G21 ; set units to millimeters
G90 ; use absolute coordinates
M82 ; use absolute distances for extrusion
G92 E0
G1 Z0.350 F7800.000
G1 E-2.00000 F1920.00000
G92 E0
G1 X46.715 Y30.704 F7800.000
G1 E2.00000 F1920.00000
M204 S3000
G1 X47.583 Y29.475 E2.01143 F1500.000
G1 X48.399 Y28.486 E2.02117
G1 X49.441 Y27.401 E2.03260
G1 X50.741 Y26.265 E2.04572
G1 X51.771 Y25.502 E2.05546
G1 X53.044 Y24.700 E2.06689
G1 X54.580 Y23.910 E2.08000
G1 X55.972 Y23.342 E2.09143
G1 X57.193 Y22.947 E2.10118
G1 X58.655 Y22.594 E2.11261
G1 X60.362 Y22.335 E2.12572
G1 X61.852 Y22.240 E2.13707
G1 X120.543 Y22.714 E2.58297
G1 X120.879 Y22.737 E2.58553 F1500.000
G1 X121.655 Y22.839 E2.59148
G1 X122.346 Y23.024 E2.59691
G1 X123.070 Y23.324 E2.60286
G1 X123.689 Y23.681 E2.60829
G1 X124.310 Y24.158 E2.61424
G1 X124.816 Y24.664 E2.61967
G1 X125.263 Y25.246 E2.62525
G1 X125.650 Y25.904 E2.63105
G1 X125.950 Y26.628 E2.63700
G1 X126.135 Y27.319 E2.64244
G1 X126.237 Y28.095 E2.64839
G1 X126.260 Y28.500 E2.65146
G1 X125.303 Y84.141 E3.07425
G1 X124.509 Y86.022 E3.08976
G1 X117.373 Y93.217 E3.16675
G1 X116.336 Y94.173 E3.17746
G1 X115.155 Y95.105 E3.18889
G1 X113.711 Y96.051 E3.20201
G1 X112.585 Y96.665 E3.21175
G1 X111.214 Y97.284 E3.22318
G1 X109.797 Y97.790 E3.23461
G1 X108.344 Y98.179 E3.24604
G1 X106.644 Y98.479 E3.25915
G1 X105.145 Y98.610 E3.27058
G1 X103.830 Y98.626 E3.28058
G1 X61.830 Y98.626 E3.59966
G1 X60.362 Y98.531 E3.61084
G1 X58.873 Y98.315 E3.62227
G1 X57.193 Y97.919 E3.63538
G1 X55.764 Y97.448 E3.64681
G1 X54.378 Y96.863 E3.65824
G1 X53.044 Y96.167 E3.66967
G1 X51.771 Y95.365 E3.68110
G1 X50.741 Y94.602 E3.69084
G1 X49.602 Y93.619 E3.70227
G1 X48.399 Y92.381 E3.71539
G1 X47.448 Y91.215 E3.72682
G1 X46.595 Y89.976 E3.73825
G1 X45.846 Y88.671 E3.74968
G1 X45.292 Y87.515 E3.75942
G1 X44.753 Y86.131 E3.77070
G1 X44.316 Y84.671 E3.78228
G1 X44.004 Y83.200 E3.79371
G1 X43.812 Y81.707 E3.80514
G1 X43.742 Y80.205 E3.81657
G1 X43.740 Y40.773 E4.11614
G1 X43.794 Y39.381 E4.12672
G1 X44.004 Y37.667 E4.13984
G1 X44.262 Y36.411 E4.14958
G1 X44.675 Y34.964 E4.16101
G1 X45.292 Y33.352 E4.17413
G1 X45.950 Y31.999 E4.18556
G1 X46.674 Y30.767 E4.19642
G1 X46.917 Y30.845 F7800.000
G4 P31
G1 X47.773 Y29.632 E4.20770 F1500.000
G1 X48.589 Y28.643 E4.21744
G1 X49.618 Y27.573 E4.22871
G1 X50.887 Y26.463 E4.24153
G1 X51.918 Y25.700 E4.25127
G1 X53.174 Y24.909 E4.26255
G1 X54.674 Y24.138 E4.27536
G1 X56.067 Y23.570 E4.28679
G1 X57.463 Y23.127 E4.29791
G1 X58.711 Y22.833 E4.30766
G1 X60.379 Y22.581 E4.32047
G1 X61.850 Y22.487 E4.33167
G1 X120.541 Y22.960 E4.77758
G1 X120.847 Y22.981 E4.77990 F1500.000
G1 X121.623 Y23.083 E4.78585
G1 X122.252 Y23.252 E4.79080
G1 X122.975 Y23.552 E4.79675
G1 X123.539 Y23.877 E4.80169
G1 X124.160 Y24.354 E4.80764
G1 X124.620 Y24.814 E4.81258
G1 X125.067 Y25.396 E4.81816
G1 X125.422 Y25.999 E4.82347
G1 X125.722 Y26.722 E4.82942
G1 X125.890 Y27.351 E4.83437
G1 X125.993 Y28.127 E4.84032
G1 X126.014 Y28.495 E4.84312
G1 X125.056 Y84.136 E5.26590
G1 X124.334 Y85.849 E5.28002
G1 X117.198 Y93.044 E5.35701
G1 X116.170 Y93.992 E5.36763
G1 X115.004 Y94.910 E5.37891
G1 X113.593 Y95.835 E5.39172
G1 X112.468 Y96.449 E5.40146
G1 X111.114 Y97.059 E5.41274
G1 X109.716 Y97.558 E5.42402
G1 X108.282 Y97.941 E5.43530
G1 X106.621 Y98.234 E5.44811
G1 X105.142 Y98.364 E5.45939
G1 X103.830 Y98.380 E5.46936
G1 X61.830 Y98.380 E5.78845
G1 X60.379 Y98.286 E5.79949
G1 X58.910 Y98.072 E5.81077
G1 X57.268 Y97.685 E5.82358
G1 X55.858 Y97.221 E5.83486
G1 X54.491 Y96.644 E5.84614
G1 X53.350 Y96.057 E5.85588
G1 X52.085 Y95.281 E5.86716
G1 X50.887 Y94.404 E5.87843
G1 X49.764 Y93.433 E5.88971
G1 X48.589 Y92.224 E5.90253
G1 X47.650 Y91.074 E5.91380
G1 X46.808 Y89.852 E5.92508
G1 X46.068 Y88.565 E5.93636
G1 X45.514 Y87.408 E5.94610
G1 X44.983 Y86.044 E5.95722
G1 X44.552 Y84.602 E5.96865
G1 X44.245 Y83.150 E5.97993
G1 X44.056 Y81.677 E5.99121
G1 X43.988 Y80.195 E6.00249
G1 X43.986 Y40.773 E6.30198
G1 X44.040 Y39.391 E6.31249
G1 X44.245 Y37.717 E6.32531
G1 X44.503 Y36.461 E6.33505
G1 X44.912 Y35.033 E6.34633
G1 X45.514 Y33.458 E6.35914
G1 X46.162 Y32.123 E6.37042
G1 X46.877 Y30.908 E6.38112
G1 X47.119 Y30.985 F7800.000
G4 P31
G1 X47.963 Y29.788 E6.39225 F1500.000
G1 X48.900 Y28.664 E6.40338
G1 X49.794 Y27.744 E6.41312
G1 X51.034 Y26.661 E6.42563
G1 X52.064 Y25.898 E6.43537
G1 X53.304 Y25.118 E6.44649
G1 X54.769 Y24.365 E6.45900
G1 X56.124 Y23.810 E6.47013
G1 X57.344 Y23.416 E6.47987
G1 X58.768 Y23.073 E6.49100
G1 X60.396 Y22.827 E6.50351
G1 X61.848 Y22.733 E6.51456
G1 X120.539 Y23.206 E6.96047
G1 X120.815 Y23.225 E6.96257 F1500.000
G1 X121.591 Y23.328 E6.96852
G1 X122.157 Y23.479 E6.97297
G1 X122.881 Y23.779 E6.97892
G1 X123.389 Y24.072 E6.98338
G1 X124.010 Y24.549 E6.98933
G1 X124.425 Y24.964 E6.99378
G1 X124.872 Y25.546 E6.99936
G1 X125.195 Y26.093 E7.00418
G1 X125.494 Y26.816 E7.01013
G1 X125.646 Y27.383 E7.01459
G1 X125.748 Y28.159 E7.02054
G1 X125.767 Y28.491 E7.02306
G1 X124.810 Y84.132 E7.44584
G1 X124.159 Y85.675 E7.45857
G1 X117.023 Y92.870 E7.53555
G1 X116.003 Y93.810 E7.54609
G1 X114.852 Y94.716 E7.55722
G1 X113.475 Y95.619 E7.56973
G1 X112.350 Y96.233 E7.57947
G1 X111.014 Y96.834 E7.59060
G1 X109.635 Y97.325 E7.60172
G1 X108.220 Y97.703 E7.61285
G1 X106.598 Y97.989 E7.62536
G1 X105.139 Y98.118 E7.63648
G1 X103.830 Y98.134 E7.64643
G1 X61.830 Y98.134 E7.96552
G1 X60.396 Y98.040 E7.97644
G1 X58.947 Y97.828 E7.98756
G1 X57.344 Y97.450 E8.00007
G1 X55.953 Y96.993 E8.01120
G1 X54.603 Y96.425 E8.02232
G1 X53.463 Y95.838 E8.03206
G1 X52.215 Y95.072 E8.04319
G1 X51.034 Y94.206 E8.05432
G1 X49.926 Y93.248 E8.06544
G1 X48.779 Y92.067 E8.07795
G1 X47.852 Y90.933 E8.08908
G1 X47.021 Y89.728 E8.10020
G1 X46.290 Y88.459 E8.11133
G1 X45.736 Y87.302 E8.12107
G1 X45.213 Y85.956 E8.13204
G1 X44.789 Y84.533 E8.14332
G1 X44.486 Y83.100 E8.15445
G1 X44.301 Y81.648 E8.16557
G1 X44.234 Y80.185 E8.17670
G1 X44.232 Y40.773 E8.47612
G1 X44.286 Y39.401 E8.48655
G1 X44.486 Y37.766 E8.49906
G1 X44.789 Y36.333 E8.51019
G1 X45.148 Y35.102 E8.51993
G1 X45.736 Y33.565 E8.53244
G1 X46.375 Y32.247 E8.54356
G1 X47.079 Y31.049 E8.55412
G1 E6.55412 F1920.00000
G92 E0
G1 X107.521 Y54.433 F7800.000
G1 E2.00000 F1920.00000
G1 X107.458 Y54.931 E2.00381 F1500.000
G1 X107.273 Y55.397 E2.00762
G1 X106.979 Y55.802 E2.01142
G1 X106.593 Y56.122 E2.01523
G1 X106.139 Y56.335 E2.01904
G1 X105.647 Y56.429 E2.02285
G1 X105.147 Y56.397 E2.02665
G1 X104.670 Y56.243 E2.03046
G1 X104.247 Y55.974 E2.03427
G1 X103.904 Y55.609 E2.03808
G1 X103.662 Y55.169 E2.04189
G1 X103.538 Y54.684 E2.04569
G1 X103.538 Y54.183 E2.04950
G1 X103.662 Y53.697 E2.05331
G1 X103.904 Y53.258 E2.05712
G1 X104.247 Y52.893 E2.06092
G1 X104.670 Y52.624 E2.06473
G1 X105.147 Y52.469 E2.06854
G1 X105.619 Y52.440 E2.07214 F1500.000
G1 X106.137 Y52.530 E2.07613
G1 X106.593 Y52.745 E2.07996
G1 X106.979 Y53.065 E2.08377
G1 X107.273 Y53.470 E2.08757
G1 X107.458 Y53.936 E2.09138
G1 X107.511 Y54.359 E2.09462
G1 X107.273 Y54.433 F7800.000
G1 X107.217 Y54.869 E2.09795 F1500.000
G1 X107.056 Y55.277 E2.10129
G1 X106.798 Y55.632 E2.10462
G1 X106.460 Y55.912 E2.10796
G1 X106.062 Y56.099 E2.11129
G1 X105.631 Y56.181 E2.11463
G1 X105.193 Y56.153 E2.11796
G1 X104.776 Y56.018 E2.12130
G1 X104.405 Y55.783 E2.12463
G1 X104.105 Y55.463 E2.12797
G1 X103.893 Y55.078 E2.13130
G1 X103.784 Y54.653 E2.13464
G1 X103.784 Y54.214 E2.13797
G1 X103.893 Y53.789 E2.14131
G1 X104.105 Y53.404 E2.14464
G1 X104.405 Y53.084 E2.14798
G1 X104.776 Y52.849 E2.15131
G1 X105.193 Y52.713 E2.15465
G1 X105.605 Y52.687 E2.15778 F1500.000
G1 X106.061 Y52.767 E2.16130
G1 X106.460 Y52.955 E2.16465
G1 X106.798 Y53.235 E2.16798
G1 X107.056 Y53.590 E2.17132
G1 X107.217 Y53.998 E2.17465
G1 X107.263 Y54.359 E2.17742
G1 X107.643 Y54.669 F7800.000
G1 E0.17742 F1920.00000
G92 E0
G1 X119.670 Y30.262 F7800.000
G1 E2.00000 F1920.00000
G1 X119.247 Y29.993 E2.00381 F1500.000
G1 X118.904 Y29.628 E2.00762
G1 X118.662 Y29.189 E2.01142
G1 X118.538 Y28.703 E2.01523
G1 X118.538 Y28.202 E2.01904
G1 X118.655 Y27.744 E2.02263
G1 X118.902 Y27.279 E2.02663
G1 X119.247 Y26.912 E2.03046
G1 X119.670 Y26.643 E2.03426
G1 X120.147 Y26.488 E2.03807
G1 X120.619 Y26.459 E2.04167 F1500.000
G1 X121.137 Y26.550 E2.04566
G1 X121.593 Y26.764 E2.04949
G1 X121.979 Y27.084 E2.05330
G1 X122.273 Y27.489 E2.05711
G1 X122.458 Y27.955 E2.06091
G1 X122.521 Y28.453 E2.06472
G1 X122.458 Y28.950 E2.06853
G1 X122.273 Y29.416 E2.07234
G1 X121.979 Y29.821 E2.07614
G1 X121.593 Y30.141 E2.07995
G1 X121.139 Y30.354 E2.08376
G1 X120.647 Y30.448 E2.08757
G1 X120.147 Y30.417 E2.09138
G1 X119.741 Y30.285 E2.09461
G1 X119.776 Y30.037 F7800.000
G4 P31
G1 X119.405 Y29.802 E2.09795 F1500.000
G1 X119.105 Y29.482 E2.10128
G1 X118.893 Y29.097 E2.10462
G1 X118.784 Y28.672 E2.10795
G1 X118.784 Y28.233 E2.11129
G1 X118.887 Y27.833 E2.11442
G1 X119.104 Y27.424 E2.11794
G1 X119.405 Y27.103 E2.12129
G1 X119.776 Y26.868 E2.12462
G1 X120.193 Y26.732 E2.12796
G1 X120.605 Y26.706 E2.13109 F1500.000
G1 X121.061 Y26.787 E2.13461
G1 X121.460 Y26.974 E2.13796
G1 X121.798 Y27.254 E2.14129
G1 X122.056 Y27.609 E2.14463
G1 X122.217 Y28.017 E2.14796
G1 X122.273 Y28.453 E2.15130
G1 X122.217 Y28.888 E2.15463
G1 X122.056 Y29.296 E2.15797
G1 X121.798 Y29.651 E2.16130
G1 X121.460 Y29.931 E2.16464
G1 X121.062 Y30.118 E2.16797
G1 X120.631 Y30.200 E2.17131
G1 X120.193 Y30.173 E2.17464
G1 X119.847 Y30.060 E2.17741
G4 P1
G1 X119.405 Y30.272 F7800.000
G1 E0.17741 F1920.00000
G92 E0
G1 X113.339 Y40.983 F7800.000
G1 E2.00000 F1920.00000
G1 X109.193 Y38.589 E2.03638 F1500.000
G1 X108.635 Y39.554 E2.04485
G1 X112.778 Y41.946 E2.08119
G1 X111.628 Y43.230 E2.09428
G1 X110.906 Y43.875 E2.10164
G1 X110.116 Y44.434 E2.10899
G1 X109.268 Y44.902 E2.11635
G1 X108.373 Y45.272 E2.12371
G1 X107.443 Y45.540 E2.13106
G1 X106.488 Y45.702 E2.13842
G1 X105.521 Y45.757 E2.14577
G1 X104.555 Y45.702 E2.15313
G1 X103.600 Y45.540 E2.16049
G1 X102.669 Y45.272 E2.16784
G1 X101.775 Y44.902 E2.17520
G1 X100.927 Y44.434 E2.18256
G1 X100.137 Y43.875 E2.18991
G1 X99.414 Y43.230 E2.19727
G1 X98.265 Y41.946 E2.21036
G1 X102.407 Y39.554 E2.24670
G1 X101.850 Y38.589 E2.25517
G1 X97.707 Y40.981 E2.29151
G1 X97.170 Y39.343 E2.30461
G1 X96.973 Y38.395 E2.31196
G1 X96.883 Y37.431 E2.31932
G1 X96.902 Y36.463 E2.32668
G1 X97.029 Y35.503 E2.33403
G1 X97.262 Y34.563 E2.34139
G1 X97.599 Y33.655 E2.34874
G1 X98.036 Y32.791 E2.35610
G1 X98.566 Y31.981 E2.36346
G1 X99.184 Y31.235 E2.37081
G1 X99.881 Y30.563 E2.37817
G1 X100.649 Y29.973 E2.38553
G1 X101.478 Y29.473 E2.39288
G1 X102.358 Y29.069 E2.40024
G1 X103.277 Y28.766 E2.40759
G1 X104.964 Y28.412 E2.42069
G1 X104.964 Y33.195 E2.45703
G1 X106.079 Y33.195 E2.46550
G1 X106.079 Y28.409 E2.50186
G1 X107.818 Y28.780 E2.51537
G1 X108.786 Y29.109 E2.52313
G1 X109.708 Y29.551 E2.53090
G1 X110.572 Y30.098 E2.53867
G1 X111.365 Y30.743 E2.54644
G1 X112.076 Y31.478 E2.55420
G1 X112.695 Y32.291 E2.56197
G1 X113.214 Y33.172 E2.56974
G1 X113.626 Y34.108 E2.57751
G1 X113.924 Y35.086 E2.58528
G1 X114.105 Y36.092 E2.59304
G1 X114.165 Y37.114 E2.60082
G1 X114.099 Y38.185 E2.60897
G1 X113.899 Y39.240 E2.61713
G1 X113.362 Y40.912 E2.63047
G1 X113.198 Y40.617 F7800.000
G1 X109.027 Y38.209 E2.66706 F1500.000
G1 X108.930 Y38.552 E2.66977
G1 X108.472 Y39.345 E2.67673
G1 X108.223 Y39.601 E2.67944
G1 X112.392 Y42.008 E2.71601
G1 X111.454 Y43.055 E2.72670
G1 X110.752 Y43.682 E2.73385
G1 X109.984 Y44.225 E2.74099
G1 X109.161 Y44.680 E2.74814
G1 X108.292 Y45.040 E2.75528
G1 X107.388 Y45.300 E2.76243
G1 X106.460 Y45.457 E2.76958
G1 X105.521 Y45.510 E2.77672
G1 X104.582 Y45.457 E2.78387
G1 X103.655 Y45.300 E2.79102
G1 X102.751 Y45.040 E2.79816
G1 X101.882 Y44.680 E2.80531
G1 X101.058 Y44.225 E2.81245
G1 X100.291 Y43.682 E2.81960
G1 X99.589 Y43.055 E2.82675
G1 X98.651 Y42.008 E2.83743
G1 X102.820 Y39.600 E2.87401
G1 X102.571 Y39.345 E2.87672
G1 X102.113 Y38.552 E2.88367
G1 X102.016 Y38.209 E2.88638
G1 X97.847 Y40.616 E2.92296
G1 X97.409 Y39.279 E2.93364
G1 X97.217 Y38.358 E2.94079
G1 X97.130 Y37.422 E2.94793
G1 X97.148 Y36.481 E2.95508
G1 X97.271 Y35.549 E2.96223
G1 X97.498 Y34.636 E2.96937
G1 X97.825 Y33.754 E2.97652
G1 X98.249 Y32.914 E2.98366
G1 X98.765 Y32.127 E2.99081
G1 X99.365 Y31.403 E2.99796
G1 X100.042 Y30.750 E3.00510
G1 X100.788 Y30.177 E3.01225
G1 X101.593 Y29.691 E3.01940
G1 X102.448 Y29.299 E3.02654
G1 X103.341 Y29.004 E3.03369
G1 X104.718 Y28.715 E3.04437
G1 X104.718 Y33.529 E3.08095
G1 X105.064 Y33.442 E3.08366
G1 X105.979 Y33.442 E3.09061
G1 X106.325 Y33.529 E3.09332
G4 P19
G1 X106.325 Y28.714 E3.12991
G1 X107.752 Y29.018 E3.14100
G1 X108.693 Y29.338 E3.14854
G1 X109.588 Y29.766 E3.15609
G1 X110.427 Y30.298 E3.16363
G1 X111.198 Y30.925 E3.17118
G1 X111.889 Y31.639 E3.17873
G1 X112.491 Y32.429 E3.18627
G1 X112.995 Y33.284 E3.19382
G1 X113.395 Y34.194 E3.20136
G1 X113.684 Y35.144 E3.20891
G1 X113.860 Y36.121 E3.21645
G1 X113.918 Y37.113 E3.22400
G1 X113.854 Y38.154 E3.23193
G1 X113.660 Y39.180 E3.23986
G1 X113.221 Y40.546 E3.25076
G1 X112.006 Y42.069 F7800.000
G1 X111.280 Y42.881 E3.25903 F1500.000
G1 X110.598 Y43.489 E3.26597
G1 X109.853 Y44.016 E3.27290
G1 X109.054 Y44.458 E3.27984
G1 X108.210 Y44.807 E3.28678
G1 X107.333 Y45.059 E3.29371
G1 X106.433 Y45.212 E3.30065
G1 X105.521 Y45.263 E3.30759
G1 X104.610 Y45.212 E3.31452
G1 X103.710 Y45.059 E3.32146
G1 X102.832 Y44.807 E3.32839
G1 X101.989 Y44.458 E3.33533
G1 X101.189 Y44.016 E3.34227
G1 X100.444 Y43.489 E3.34920
G1 X99.763 Y42.881 E3.35614
G1 X99.037 Y42.069 E3.36441
G1 X102.823 Y39.883 E3.39763
G1 X103.863 Y40.586 E3.40717
G1 X104.952 Y40.919 E3.41582
G1 X106.091 Y40.919 E3.42447
G1 X107.186 Y40.581 E3.43318
G1 X108.220 Y39.883 E3.44265
G1 X111.941 Y42.032 E3.47530
G1 X112.401 Y42.376 F7800.000
G1 E1.47530 F1920.00000
G92 E0
G1 X108.274 Y39.195 F7800.000
G1 E2.00000 F1920.00000
G1 X107.677 Y39.808 E2.00650 F1500.000
G1 X106.881 Y40.285 E2.01355
G1 X105.986 Y40.533 E2.02061
G1 X105.057 Y40.533 E2.02766
G1 X104.161 Y40.285 E2.03472
G1 X103.365 Y39.808 E2.04178
G1 X102.769 Y39.195 E2.04827
G1 X102.342 Y38.455 E2.05476
G1 X102.109 Y37.633 E2.06126
G1 X102.094 Y36.705 E2.06831
G1 X102.327 Y35.805 E2.07537
G1 X102.792 Y35.000 E2.08243
G1 X103.454 Y34.349 E2.08948
G1 X104.265 Y33.898 E2.09654
G1 X105.094 Y33.688 E2.10303
G1 X105.948 Y33.688 E2.10952 F1500.000
G1 X106.779 Y33.898 E2.11603
G1 X107.670 Y34.411 E2.12384
G1 X108.372 Y35.166 E2.13167
G1 X108.819 Y36.094 E2.13949
G1 X108.971 Y37.101 E2.14724
G1 X108.932 Y37.639 E2.15133
G1 X108.701 Y38.455 E2.15778
G1 X108.311 Y39.130 E2.16370
G1 X108.449 Y39.663 F7800.000
G1 E0.16370 F1920.00000
G92 E0
G1 X113.057 Y40.251 F7800.000
G1 E2.00000 F1920.00000
G1 X109.259 Y38.058 E2.03332 F1500.000
G1 X109.330 Y37.675 E2.03628
G1 X109.371 Y37.117 E2.04053
G1 X109.247 Y36.149 E2.04795
G1 X108.887 Y35.246 E2.05533
G1 X108.312 Y34.462 E2.06272
G1 X107.559 Y33.848 E2.07010
G1 X106.571 Y33.393 E2.07836
G1 X106.571 Y29.018 E2.11160
G1 X107.687 Y29.255 E2.12026
G1 X108.599 Y29.566 E2.12759
G1 X109.469 Y29.982 E2.13491
G1 X110.283 Y30.498 E2.14224
G1 X111.031 Y31.107 E2.14956
G1 X111.702 Y31.799 E2.15688
G1 X112.286 Y32.566 E2.16421
G1 X112.775 Y33.397 E2.17153
G1 X113.163 Y34.279 E2.17886
G1 X113.444 Y35.202 E2.18618
G1 X113.615 Y36.150 E2.19350
G1 X113.672 Y37.113 E2.20083
G1 X113.609 Y38.124 E2.20852
G1 X113.421 Y39.119 E2.21622
G1 X113.080 Y40.180 E2.22468
G1 X112.838 Y40.701 F7800.000
G1 E0.22468 F1920.00000
G92 E0
G1 X104.471 Y33.391 F7800.000
G1 E2.00000 F1920.00000
G1 X103.337 Y33.946 E2.00959 F1500.000
G1 X102.510 Y34.717 E2.01818
G1 X101.941 Y35.703 E2.02684
G1 X101.685 Y36.813 E2.03549
G1 X101.773 Y38.064 E2.04502
G1 X97.987 Y40.251 E2.07824
G1 X97.647 Y39.216 E2.08651
G1 X97.461 Y38.322 E2.09345
